/* XPM */
static const char *Serbia_128_85[] = {
/* columns rows colors chars-per-pixel */
"128 85 209 2 ",
"   c #18337F",
".  c #26357C",
"X  c #7F3058",
"o  c #533C74",
"O  c #603467",
"+  c #64366B",
"@  c #4E437D",
"#  c #51417A",
"$  c #5A7066",
"%  c #BC1E2F",
"&  c #BD1F30",
"*  c #B3332E",
"=  c #BD2435",
"-  c #DB151D",
";  c #D5181E",
":  c #DC181E",
">  c #EC0B13",
",  c #E7151C",
"<  c #F2121C",
"1  c #DD241F",
"2  c #CC1B26",
"3  c #DB1623",
"4  c #D61C24",
"5  c #DC1F26",
"6  c #E51E21",
"7  c #EA1921",
"8  c #C92626",
"9  c #DC2126",
"0  c #DD232A",
"q  c #D52B2A",
"w  c #D92828",
"e  c #CC352B",
"r  c #D7392A",
"t  c #C92931",
"y  c #D42C32",
"u  c #DD2C32",
"i  c #CA3839",
"p  c #D63537",
"a  c #DC353B",
"s  c #E32426",
"d  c #E1262D",
"f  c #EA2229",
"g  c #F1252A",
"h  c #E33828",
"j  c #E22B33",
"k  c #EB2B33",
"l  c #E5333B",
"z  c #E8363D",
"x  c #F1333A",
"c  c #B95130",
"v  c #B96C34",
"b  c #D9462C",
"n  c #CB4A37",
"m  c #CD5232",
"M  c #D85838",
"N  c #E5512C",
"B  c #D16D39",
"V  c #E86724",
"C  c #ED702E",
"Z  c #B12B42",
"A  c #CD3B40",
"S  c #D73D42",
"D  c #E33A42",
"F  c #E93C44",
"G  c #F43A43",
"H  c #B95453",
"J  c #9B774E",
"K  c #AB714C",
"L  c #B6716E",
"P  c #CA454A",
"I  c #D7464A",
"U  c #D74D53",
"Y  c #CD5450",
"T  c #D85458",
"R  c #E3464C",
"E  c #EC434B",
"W  c #F4454C",
"Q  c #E85D42",
"!  c #EE4750",
"~  c #E44D53",
"^  c #EF4B54",
"/  c #F94B54",
"(  c #E45459",
")  c #F1515A",
"_  c #FF545D",
"`  c #CF6E49",
"'  c #E97346",
"]  c #C95E62",
"[  c #D95D62",
"{  c #E85B61",
"}  c #F85B62",
"|  c #C6676B",
" . c #D56468",
".. c #CB786D",
"X. c #D16E71",
"o. c #C9787B",
"O. c #D9767A",
"+. c #E5676B",
"@. c #E76D71",
"#. c #F36B70",
"$. c #E6777B",
"%. c #BA943E",
"&. c #D48B3D",
"*. c #E88837",
"=. c #D8A43F",
"-. c #F4A924",
";. c #F7BC28",
":. c #F9CA31",
">. c #B48C4F",
",. c #B9974A",
"<. c #BFA14B",
"1. c #958860",
"2. c #A49263",
"3. c #BEA168",
"4. c #BBA57C",
"5. c #CD8E4D",
"6. c #C49A45",
"7. c #E59747",
"8. c #CAA245",
"9. c #D8A946",
"0. c #C8A758",
"q. c #D8B055",
"w. c #E9B148",
"e. c #CE8C6B",
"r. c #CDAD6F",
"t. c #D6B667",
"y. c #E0B069",
"u. c #EECC55",
"i. c #F0CD72",
"p. c #183582",
"a. c #1F3D87",
"s. c #1D3E88",
"d. c #243E86",
"f. c #283D84",
"g. c #13418F",
"h. c #19408C",
"j. c #1B4494",
"k. c #26418D",
"l. c #4F4780",
"z. c #514D86",
"x. c #D17E82",
"c. c #E97D81",
"v. c #B68F91",
"b. c #B8A990",
"n. c #B79EA1",
"m. c #A7A7A8",
"M. c #B2B3AE",
"N. c #B4B5B4",
"B. c #BBBCBD",
"V. c #C88886",
"C. c #D78487",
"Z. c #D98D91",
"A. c #C99591",
"S. c #D99899",
"D. c #E58588",
"F. c #E69497",
"G. c #E89194",
"H. c #CAAD91",
"J. c #D59DA2",
"K. c #EA9EA1",
"L. c #C8A8AA",
"P. c #D7A8AA",
"I. c #C8BAA9",
"U. c #C6B7B8",
"Y. c #D3B2B3",
"T. c #E5A7A9",
"R. c #EEAAAC",
"E. c #E8B5B7",
"W. c #F3B2B5",
"Q. c #BBC0BD",
"!. c #CDC098",
"~. c #C9C4AF",
"^. c #8F9DC1",
"/. c #909DC2",
"(. c #92A2C7",
"). c #BDBEC1",
"_. c #D2BFC1",
"`. c #BCC2C3",
"'. c #C3C4C4",
"]. c #C6C7C6",
"[. c #C4CACB",
"{. c #CBCBCC",
"}. c #D7CACB",
"|. c #D4D4C5",
" X c #D0CED1",
".X c #CDD3D4",
"XX c #C6D7D9",
"oX c #D4D4D4",
"OX c #DCD4D5",
"+X c #D6DBDB",
"@X c #DCDCDC",
"#X c #E8C7C9",
"$X c #FBC6C8",
"%X c #F6CACC",
"&X c #EFD3CF",
"*X c #E6D9DA",
"=X c #F9D7D8",
"-X c #DBDFE2",
";X c #DDE2E2",
":X c #E3E3E3",
">X c #E7E9E9",
",X c #EBEBEB",
"<X c #F7E8E8",
"1X c #FDECED",
"2X c #EDF2F2",
"3X c #F0F0F0",
"4X c #F2F4F4",
"5X c #F9F6F6",
"6X c #FEFEFE",
/* pixels */
") _ ) ) ) ) ) ) ) ) ) ) ) ) ) ) ) ) ) ) ) ) ) ) ) ) ) ) ) ) ) ) ) ) ) ) ) ) ) ) ) ) ) ) ) ) ) ) ) ) ) ) ) ) ) ) ) ) ) ) ) ) ) ) ) ) ) ) ) ) ) ) ) ) ) ) ) ) ) ) ) ) ) ) ) ) ) ) ) ) ) ) ) ) ) ) ) ) ) ) ) ) ) ) ) ) ) ) ) ) ) ) ) ) ) ) ) ) ) ) ) ) ) ) ) ) ) } ",
"^ } _ _ _ _ _ _ _ } _ _ _ _ _ } _ _ _ _ _ } _ _ _ _ _ _ _ _ _ _ _ } _ _ _ _ _ _ _ _ _ _ _ } _ _ _ _ _ } _ _ _ _ _ } _ _ _ _ _ } _ _ _ _ _ } _ _ _ _ _ _ _ _ _ _ _ } _ _ _ _ _ } _ _ _ _ _ _ _ _ _ _ _ _ _ _ _ _ _ } _ _ _ _ _ } _ _ _ _ _ } _ _ _ _ _ _ _ _ _ _ ",
"^ _ ^ ^ ^ ^ ^ ^ ^ ^ ^ ^ ! ^ ^ ^ ^ ^ ! ^ ^ ^ ^ ^ ! ^ ^ ^ ^ ^ ^ ^ ^ ^ ^ ^ ! ^ ^ ^ ^ ^ ^ ^ ^ ^ ^ ^ ! ^ ^ ^ ^ ^ ! ^ ^ ^ ^ ^ ! ^ ^ ^ ^ ^ ! ^ ^ ^ ^ ^ ! ^ ^ ^ ^ ^ ^ ^ ^ ^ ^ ^ ! ^ ^ ^ ^ ^ ! ^ ^ ^ ^ ^ ^ ^ ^ ^ ^ ^ ^ ^ ^ ^ ^ ^ ! ) ! ! ! ! ! ) ^ ^ ! ) ! ^ ^ ^ ^ ^ ^ / ",
"! / ! ! ! ! ! ! ! ! ! ! ! ! ! ! ! ! ! ! ! ! ! ! ! ! ! ! ! ! ! ! ! ! ! ! ! ! ! ! ! ! ! ! ! ! ! ! ! ! ! ! ! ! ! ! ! ! ! ! ! ! ! ! ! ! ! ! ! ! ! ! ! ! ! ! ! ! ! ! ! ! ! ! ! ! ! ! ! ! ! ! ! ! ! ! ! ! ! ! ! ! ! ! ! ! ! ! ! ! ! ! ! ! ! ! ! ! ! ! ! ! ! ! ! ! ! / ",
"G / E E E E E E F E E ! E ! E F F ! E E E E F ! ! ! F F F ! ! F E E E ! E ! E E E E E E E E E E F ! ! F F ! ! F F ! E ! E E E E F ! F ! ! F E E ! ! F F F ! ! E F ! E ! E E E E F ! ! F ! E ! E E ! ! F E ! E E E E E E E ! ! F ! F E E E E F ! ! ! F F F ^ ! / ",
"F W F F F F F F F F F F F F G F F F F G F F F G F F F G F F F F F F F F F F G F F F F F F F F F F F G F F F F F F G F F F F F F F F F G F F F F F F F G F F F F F F F F F F F F G F F F F F F F F F G F F F F F F G F F F F G F F F F F F F F F F F F F F F F G ",
"F G F F F F F F F F D F F F F F F F F F F D D D F F F F F F F F F F F D F F F D F F D x F G F F F F F F F F F F F D D F F F F F F F F D F D F G F F D F D F F F F F F F F F F F F F F F F F F F F F F F F F F F F F D F F F F F F F D G F D F F F F D G D D G G ",
"D G l l l z z D F l l l D l D l D z l l D D x D l D D l l l D F z l l D l l l l D l z I D z l l l D z l l l D F z z l D z z z l D D k D F D l l l D D l x D l D z l l l z D l l D l l l D l l l D l l l l z D l D l l l D l l D F D l l D D l x D D l D x D D G ",
"j x j l l j l l j l l j l l j l l l j l j l l j l j l j l l j l l l j l l j l l j a I ' a l l l l l j l l l j l l j l l l l j l l l l l j l l l j l l j l l j l l j l l j l l l l l j l j l j l l l j l l l l l l j l l l l l j j l j l j l l j k j l j l l j G ",
"j x j j j j j j j j j j j j j j j j j j j j j j j j j j j j j j j j j j j j j j j p B 7.n u d j j j j j j j j j j j j j j j j j d j d j j j j d j j j j j j j j j l j j j j j j j j j j j j j j u d j j j j j d j j j j j j j j j j j j j j j j j j j j j j j k ",
"d k d d j d u 0 j d d u d j d u 0 d j d d j d u d d d j d d 0 d j 0 d j d d d d d d n B 0 u d 0 d j 0 d j 0 d d d j 0 d d d 0 d u d d d d d j u d d d j u j d d d d d u 0 d d d 0 d d d d d 0 u d j d d d d d u d d 0 u d d d u d d d d d d 0 u d j d u d j d k ",
"d f u 6 0 d 5 u 5 0 d 5 0 0 0 0 0 0 0 0 0 0 0 0 d 0 0 0 0 0 u 0 0 0 0 0 5 5 u 0 : 9 v &.m 3 5 w d 4 5 0 d 0 0 0 0 0 0 0 u 0 0 0 0 5 u 0 0 0 0 0 d 0 0 0 5 0 0 0 0 0 0 0 0 0 u 0 0 0 d 0 u 0 u 0 0 0 0 0 0 0 0 0 0 0 d 5 0 0 0 0 0 0 d u 0 0 u 0 0 0 d 5 0 0 d 7 ",
"5 f 0 0 5 0 0 5 5 0 0 5 0 0 0 0 0 0 9 0 0 0 5 0 0 5 0 0 5 0 0 5 5 0 5 3 U V.Y.L.J.C.r.3.e.A.A.L.J.X.u 5 9 9 0 5 0 0 0 0 5 0 0 0 5 0 0 5 0 0 0 5 5 0 0 0 5 d 5 5 0 0 5 0 0 0 5 0 5 0 0 5 0 0 5 0 0 5 0 0 5 0 0 0 0 5 0 0 5 0 0 0 0 0 0 5 0 0 5 0 5 0 0 0 5 0 5 f ",
"5 7 5 5 5 5 5 5 5 5 5 5 5 5 5 5 0 5 5 5 5 5 5 5 5 5 5 5 5 5 5 5 6 - : U ~.!.b.V.S.H.H.b.H.V.A.H.b.N.S.0 5 - 5 5 5 5 5 5 5 5 5 5 5 5 5 5 5 5 5 5 5 5 5 5 5 5 5 5 5 9 5 5 5 5 5 0 5 5 5 5 5 5 5 5 5 5 5 5 5 5 9 5 5 5 5 5 5 5 9 5 5 5 5 5 5 5 5 5 5 5 5 5 5 5 5 f ",
"5 f 5 5 5 5 5 0 5 5 5 0 5 5 5 5 5 5 5 5 5 5 5 5 5 5 5 5 5 5 5 3 p o.e.n.N.' 1 1 : p r.4...- s 5 w 5.N.| F.+.4 5 5 5 5 9 5 5 5 9 5 5 5 5 5 5 5 0 5 5 5 5 0 5 5 5 5 5 5 5 5 5 5 5 5 5 5 5 9 5 5 5 5 5 5 5 5 5 5 5 5 5 5 5 5 5 5 5 5 5 5 5 5 5 5 4 5 5 5 5 5 5 5 f ",
"5 f 5 5 5 5 5 5 5 5 5 5 5 5 5 5 5 5 5 5 0 5 5 5 5 5 0 5 5 5 5 A U.N.m.Q.e.1 3 5 5 U t.!.e.3 3 5 3 b I.m.M.+Xx.6 9 5 5 5 5 5 5 5 5 5 0 5 5 5 5 5 5 5 5 5 5 5 5 5 5 5 5 5 5 5 5 5 5 5 5 0 5 5 5 5 5 5 0 5 5 5 5 5 5 5 0 5 5 5 5 5 5 0 5 5 5 0 5 0 5 5 5 5 5 5 5 f ",
"5 f 5 5 5 5 5 9 5 5 5 5 5 5 9 5 5 9 5 5 5 0 5 5 5 5 5 5 5 5 8 L.M.P o.[.4.b 4 5 3 T !.b.e.5 0 5 3 M |.I.I | ].] 5 5 5 5 5 5 5 5 5 5 0 5 5 5 5 5 5 5 5 5 5 5 5 9 5 5 5 9 5 5 5 9 5 5 5 5 5 5 5 5 9 5 5 5 9 5 5 5 5 5 5 9 5 9 5 5 5 5 5 5 0 5 5 5 5 5 5 5 5 0 5 f ",
"4 f 5 5 5 5 5 5 5 5 5 5 5 5 5 5 5 5 5 5 5 5 5 5 5 5 5 5 5 5 A U.L > +.~.!.e.9 5 6 I q.t.` 0 5 5 r H.].b.z , b.C.5 0 5 5 5 0 5 5 5 5 5 5 5 5 5 5 0 5 5 5 9 5 5 5 5 5 5 5 5 5 5 5 5 5 0 5 5 5 0 5 5 5 5 5 5 5 5 5 9 5 5 5 5 5 5 5 5 5 5 0 5 5 5 5 9 5 5 5 5 5 5 6 ",
"9 f 5 5 0 4 5 5 9 5 5 0 5 9 5 5 5 5 5 0 5 5 5 5 9 5 5 5 4 5 I U.>.f ` ~.|.r.5 3 3 3 m 5.8 6 3 3 m M.b.H.h r I.C.3 5 9 5 5 5 9 5 5 5 5 5 9 5 9 5 5 5 5 5 5 5 5 5 5 5 5 5 5 5 5 5 5 5 5 5 5 9 5 5 5 5 5 5 5 5 5 5 5 5 5 5 5 5 5 5 5 5 5 5 5 5 5 5 5 5 5 5 5 5 5 f ",
"5 f 5 0 5 5 5 5 5 5 5 5 5 5 5 9 5 5 5 5 5 9 5 5 5 5 5 0 5 3 u S.~.] , 5.r.J m e n B J $ B n m e v 2.r.n 4 4.}.T 3 5 5 5 5 5 5 5 0 5 5 5 5 5 5 5 5 5 5 0 5 5 9 5 0 5 5 5 5 5 9 5 5 5 0 5 5 5 5 5 5 5 0 5 5 5 0 5 5 5 5 5 9 5 5 5 9 5 5 5 5 9 5 4 5 5 0 5 5 5 5 d ",
"5 f 5 5 5 5 0 5 5 5 5 5 5 5 5 5 5 5 5 9 5 5 9 5 9 5 5 5 5 5 3 H 0.>.* v ,.$ q.K J r.q.<.q.1.>.5.<.$ =.v c q.r.8 5 5 5 5 5 5 5 5 5 5 5 5 5 5 0 5 9 5 5 5 9 5 5 5 5 5 5 9 5 5 5 5 5 5 5 5 5 5 5 5 0 5 5 0 5 5 5 5 5 5 5 5 5 5 5 0 5 5 5 9 5 5 5 0 5 5 5 5 5 5 5 f ",
"5 f 5 5 5 5 5 5 5 0 5 5 5 5 5 5 5 9 5 5 5 5 5 5 5 5 5 9 5 5 4 r H <.q.<.t.8.%.J ,.>.,.2.>.>.=.1.6.0.0.0.q.J 8 w 5 5 5 5 5 0 5 5 5 5 5 0 5 5 5 5 5 5 5 5 5 5 5 5 0 5 5 5 0 5 5 5 5 5 9 5 9 5 5 5 4 5 5 5 5 5 5 5 9 5 0 5 5 5 5 5 5 5 5 5 5 5 5 5 5 0 5 5 5 5 5 f ",
"4 f 5 5 9 5 5 5 5 5 5 5 5 0 5 5 5 5 9 5 5 5 5 5 5 5 5 5 5 5 5 5 2 n r.6.>.=.8.8.6.=.6.0.=.9.,.9.8.,.,.0.5.= 5 5 9 5 5 5 5 5 5 5 5 5 5 5 9 5 5 5 5 5 5 5 5 5 5 5 5 5 5 5 5 5 5 5 5 9 5 9 5 5 5 5 5 5 5 5 5 0 5 9 5 5 5 5 5 5 5 5 5 5 5 5 5 5 5 5 5 5 5 5 5 5 5 f ",
"5 f 5 5 5 5 5 5 5 0 5 5 5 5 5 5 5 5 5 5 0 5 5 5 5 5 5 5 5 5 5 5 5 - b =.6.=.N *.%.w.q.$ w.9.&.C *.9.=.B 4 6 4 5 5 5 5 5 5 5 5 5 5 0 5 5 5 5 5 5 5 5 5 0 5 5 5 0 5 5 5 5 5 5 0 5 5 5 5 5 5 5 0 5 9 5 5 5 5 5 5 5 5 5 5 5 0 5 5 5 0 5 5 5 0 5 5 5 5 5 5 5 0 5 5 6 ",
"5 f 5 5 5 5 5 5 0 5 5 5 5 5 5 5 9 5 5 9 5 5 5 0 9 5 5 9 5 5 5 9 5 6 * 1.,.7.C 7.w.w.w.2.w.w.w.C C 9.8.$ t 5 5 5 5 5 5 5 5 5 5 5 5 5 5 5 5 0 5 5 5 5 5 0 5 5 5 5 5 5 9 5 5 5 5 5 5 5 5 5 5 5 5 5 5 5 5 5 5 5 5 0 5 5 5 5 5 5 5 5 5 5 5 0 5 5 0 5 5 5 5 5 5 5 5 f ",
"5 f 9 9 9 5 9 5 5 5 5 5 5 5 5 s 5 6 5 5 5 5 5 5 6 5 5 5 5 5 5 5 5 6 = <.9.7.*.M m r j h r h n M B 7.9.K 2 5 5 5 5 5 5 5 5 5 5 5 5 5 9 5 5 5 5 5 5 5 5 5 5 0 5 5 5 5 5 5 5 0 5 5 5 0 5 5 0 6 5 5 5 5 5 0 5 5 5 5 0 5 5 5 s 5 5 5 5 5 5 5 6 5 5 5 4 0 0 5 5 5 5 f ",
", g 6 6 6 6 6 6 6 6 6 6 6 6 6 6 6 6 6 6 6 6 6 6 6 6 6 5 5 5 5 5 9 5 w b q 4 3 3 5 5 4 3 3 3 3 3 3 5 q h 6 5 5 5 5 5 5 5 6 6 6 6 6 6 6 6 6 6 6 6 6 6 6 6 6 6 6 6 6 6 6 6 6 6 6 6 6 6 6 6 6 6 6 6 6 6 6 6 6 6 6 6 6 6 6 6 6 6 6 6 6 6 6 6 6 6 6 6 6 6 6 6 6 s 6 7 ",
"O + O O O O O O O O O O O O O O O O O O O O O O O O X 0 5 5 9 5 5 9 9 3 5 : 5 5 5 5 5 5 5 6 5 5 7 3 3 3 5 5 5 5 5 5 5 t + + O O O O O O O O O O O O O O O O O O O O O O O O O O O O O O O O O O O O O O O O O O O O O O O O O O O O O O O O O O O O O O O O + + ",
"s.j.h.h.h.h.h.h.h.h.h.h.h.h.h.h.h.h.h.h.h.h.h.h.s.g.o 6 5 5 5 3 - , 9 4 3 y q ; - 5 5 5 9 5 - 0 y u 3 5 5 3 - 3 5 9 6 = s.s.g.s.h.h.h.h.h.h.h.h.s.h.h.h.h.h.h.h.h.h.h.h.h.h.h.h.h.h.h.h.h.h.h.h.h.h.h.h.s.h.h.h.h.h.h.h.h.h.h.h.h.h.h.h.h.h.h.h.h.h.g.s.s.h.h.j.",
"d.k.d.d.d.d.d.d.d.d.d.d.d.d.d.d.d.d.d.d.d.d.d.d.s.s.o d 5 5 3 I G.U 3 r ..#X#XK.I 9 5 5 6 w O.E.}.Y.B w 4 c.c.y 3 5 5 = d.d.d.d.d.d.d.d.d.d.d.d.d.d.d.d.d.d.d.d.d.d.d.d.d.d.d.d.d.d.d.d.d.d.d.d.d.d.d.d.d.d.d.d.d.d.d.d.d.d.d.d.d.d.d.d.d.d.d.d.d.d.d.d.d.d.d.k.",
"d.k.d.d.d.d.d.d.d.d.d.d.d.d.d.d.d.d.d.d.d.d.d.d.s.s.o s 5 5  .3X6XO.r =.9.4..X6X#Xj 5 5 ; X.6X6XM.0.9.&.2 %X6X#Xy 4 6 = d.d.d.d.d.d.d.d.d.d.d.d.d.d.d.d.d.d.d.d.d.d.d.d.d.d.d.d.d.d.d.d.d.d.d.d.d.d.d.d.d.d.d.d.d.d.d.d.d.d.d.d.d.d.d.d.d.d.d.d.d.d.d.d.d.d.d.k.",
"d.k.d.d.d.d.d.d.d.d.d.d.d.d.d.d.d.d.d.d.d.d.d.d.d.s.o s : a <X6X5XU r r 8 B |.6X6Xx.: 5 t OX6X4X4.n 8 b ; Z.6X6XF.5 5 = f.d.d.d.d.d.d.d.d.d.d.d.d.d.d.d.d.d.d.d.d.d.d.d.d.d.d.d.d.d.d.d.d.d.d.d.d.d.d.d.d.d.d.d.d.d.d.d.d.d.d.d.d.d.d.d.d.d.d.d.d.d.d.d.d.d.d.k.",
"d.k.k.d.d.d.d.d.d.d.d.d.d.d.d.d.d.d.d.d.d.d.d.d.d.s.o d 3 +.2X5X<Xu 3 5 8 c 5.&X5XY.9 3 ] 2X6XH.v * 2 ; :  .6X2X#Xw 6 = f.d.d.d.d.d.d.d.d.d.d.d.d.d.d.d.d.d.d.d.d.d.d.d.d.d.d.d.d.d.d.d.d.d.d.d.d.d.d.d.d.d.d.d.d.d.d.d.d.d.d.d.d.d.d.d.d.d.d.d.d.d.d.d.d.d.d.k.",
"d.k.d.d.d.d.d.d.d.d.d.d.d.d.d.d.d.d.d.d.d.d.d.d.d.s.o d , x..X4X<Xp 3 5 9 q - O.6X:XY 9 P.>X<Xy 9 w 9 9 ,  .4X+X*Xa 3 = f.d.d.d.d.d.d.d.d.d.d.d.d.d.d.f.d.d.d.d.d.d.d.d.d.d.d.d.d.d.d.d.d.d.d.d.d.d.d.d.d.d.d.d.d.d.d.d.d.d.d.d.d.d.d.d.d.d.d.d.d.d.d.d.d.d.d.k.",
"d.k.d.d.d.d.d.d.d.d.d.d.d.d.d.d.d.d.d.d.d.d.d.d.d.s.o d 3 E.;X*X4XU 3 9 5 6 - +.`.`.| p L.Q.Y.d 3 5 5 5 : V.>X.X{.[ 6 = f.d.d.d.d.d.d.d.d.d.d.d.d.d.d.d.d.d.d.d.d.d.d.d.d.d.d.d.d.d.d.d.d.d.d.d.d.d.d.d.d.d.d.d.d.d.d.d.d.d.d.d.d.d.d.d.d.d.d.d.d.d.d.d.d.d.d.k.",
"d.k.d.d.d.d.d.d.d.d.d.d.d.d.d.d.d.d.d.d.d.d.d.d.d.d.@ u p OX;X].6XO.: 9 5 5 3 T B.+XE.T `.`.L.u 5 5 5 6 4 P.2X_.@XZ.5 = d.d.d.d.d.d.d.d.d.d.d.d.d.d.d.d.d.d.d.d.d.d.d.d.d.d.d.d.d.d.d.d.d.d.d.d.d.d.d.d.d.d.d.d.d.d.d.d.d.d.d.d.d.d.d.d.d.d.d.d.d.d.d.d.d.d.d.k.",
"d.k.d.d.d.d.d.d.d.d.d.d.d.d.d.d.d.d.d.d.d.d.d.d.d.a.# d P +X:X-X6XE.; 5 5 5 ; ] ;X5X#XA.4X4X}.q 5 5 5 - A @X5X*X4XY.4 = d.d.d.d.d.d.d.d.d.d.d.d.d.d.d.d.d.d.d.d.d.d.d.d.d.d.d.d.d.d.d.d.d.d.d.d.d.d.d.d.d.d.d.d.d.d.d.d.d.d.d.d.d.d.d.d.d.d.d.d.d.d.d.d.d.d.d.k.",
"d.k.d.d.d.d.d.d.d.d.d.d.d.d.d.d.d.d.d.d.d.d.d.d.d.a.@ 0 C.,X:XoX3X5XU , 5 5 ; x.;X_.].M.:X;XOXP 3 5 5 - o.2X:X@X,X*Xa = f.d.d.d.d.d.d.d.d.d.d.d.d.d.d.d.d.d.d.d.d.d.d.d.d.d.d.d.d.d.d.d.d.d.d.d.d.d.d.d.d.d.d.d.d.d.d.d.d.d.d.d.d.d.d.d.d.d.d.d.d.d.d.d.d.d.d.k.",
"d.k.k.d.d.d.d.d.d.d.d.d.d.d.d.d.d.d.d.d.d.d.d.d.d.s.@ u R.,X>X4XoX4X=XU ; - a U.`.`.].'..X;X[.A.4 3 2  .*X:X@X4X:X,XU & f.d.d.d.d.d.d.d.d.d.d.d.d.d.d.d.d.d.d.d.d.d.d.d.d.d.d.d.d.d.d.d.d.d.d.d.d.d.d.d.d.d.d.d.d.d.d.d.d.d.d.d.d.d.d.d.d.d.d.d.d.d.d.d.d.d.d.k.",
"d.k.d.d.d.d.d.d.d.d.d.d.d.d.d.d.d.d.d.d.d.d.d.d.d.a.# u E.,X>X3X@X:X,X3XR.I P.OXoX[.oXoX:X].*X*XD.U L.oX>X:X:X>X{.,X+.2 f.d.d.d.d.d.d.d.d.d.d.d.d.d.d.d.d.d.d.d.d.d.d.d.d.d.d.d.d.d.d.d.d.d.d.d.d.d.d.d.d.d.d.d.d.d.d.d.d.d.d.d.d.d.d.d.d.d.d.d.d.d.d.d.d.d.d.k.",
"d.k.d.d.d.k.. k.d.d.d.d.d.d.d.d.d.d.d.d.d.d.d.d.d.s.o p }.;X@X,Xm.>XoX;X:XT E W ! a %X5Xc.F W W W o.XX+X>X{.).4X+X,Xc.% d.d.d.d.d.d.d.d.d.d.d.d.d.d.d.d.d.d.d.d.d.d.d.d.d.d.d.d.d.d.d.d.d.d.d.d.d.d.d.d.d.d.d.d.d.d.d.d.d.d.d.d.d.d.d.d.d.d.d.d.d.d.d.d.d.d.d.d.",
"d.k.d.d.d.f.h.k.d.d.d.d.d.d.d.d.d.d.d.d.d.d.d.d.d.d.# S Y.oX>X;X XOXoXB.[.y g d > < $X6X} > > l < | ).{.oXoX+X:X:X).o.% f.d.d.d.d.d.d.d.d.d.d.d.d.d.d.d.d.d.d.d.d.d.d.d.d.d.d.d.d.d.d.d.d.d.d.d.d.d.d.d.d.d.d.d.d.d.d.d.d.d.d.d.d.d.d.d.d.d.d.d.d.d.d.d.d.d.d.k.",
"d.k.d.d.d.d.d.. d.d.d.d.d.d.d.d.d.d.d.d.d.d.d.d.d.s.# ~ U.+X X_.6X5X:X@XQ.t #.C.G.7 $X6X} s S.K.G H [.-X,X6X,XN.OX`.o.% f.d.d.d.d.d.d.d.d.d.d.d.d.d.d.d.d.d.d.d.d.d.d.d.d.d.d.d.d.d.d.d.d.d.d.d.d.d.d.d.d.d.d.d.d.d.d.d.d.d.d.d.d.d.d.d.d.d.d.d.d.d.d.d.d.d.d.k.",
"d.k.d.d.d.d.d.d.d.d.d.d.d.d.d.d.d.d.d.d.d.d.d.d.d.s.z.( }. X{. X@X@X>X3X{.p f O.#X0 $X6X+.W &XY 7 | +X4X,XOX@X_.)..Xx.& d.d.d.d.d.d.d.d.d.d.d.d.d.d.d.d.d.d.d.d.d.d.d.d.d.d.d.d.d.d.d.d.d.d.d.d.d.d.d.d.d.d.d.d.d.d.d.d.d.d.d.d.d.d.d.d.d.d.d.d.d.d.d.d.d.d.d.k.",
"d.k.d.d.d.d.d.d.d.d.d.d.d.d.d.d.d.d.d.d.d.d.d.d.d.a.z.S _.].@X>X{.~.-XB.M.i +.D.T.6 $X6X} F E.Z.F | M.oXoX_.:X>X).).x.% f.d.d.d.d.d.d.d.d.d.d.d.d.d.d.d.d.d.d.d.d.d.d.d.d.d.d.d.d.d.d.d.d.d.d.d.d.d.d.d.d.d.d.d.d.d.d.d.d.d.d.d.d.d.d.d.d.d.d.d.d.d.d.d.d.d.d.k.",
"d.k.d.d.d.d.d.d.d.d.d.d.d.d.d.d.d.d.d.d.d.d.d.d.d.a.z.S N.`. X6X@X:X>X+XU.t 7 y j < $X6X} > z i 7 ] {.:X>X+X,X5X).m.X.& f.d.d.d.d.d.d.d.d.d.d.d.d.d.d.d.d.d.d.d.d.d.d.d.d.d.d.d.d.d.d.d.d.d.d.d.d.d.d.d.d.d.d.d.d.d.d.d.d.d.d.d.d.d.d.d.d.d.d.d.d.d.d.d.d.d.d.k.",
"d.k.d.d.d.d.d.d.d.d.d.d.d.d.d.d.d.d.d.d.d.d.d.d.d.s.z.S n.m.@X6XoX@X:X3X,XI g k g k $X6X#.g g g g C.6X,X;XoX>X3X).`.O.t f.d.d.d.d.d.d.d.d.d.d.d.d.d.d.d.d.d.d.d.d.d.d.d.d.d.d.d.d.d.d.d.d.d.d.d.d.d.d.d.d.d.d.d.d.d.d.d.d.d.d.d.d.d.d.d.d.d.d.d.d.d.d.d.d.d.d.k.",
"d.k.d.d.d.d.d.d.d.d.d.d.d.d.d.d.d.d.d.d.d.d.d.d.d.s.z.S L.).oX,X,X@X>X:X:X*X1X1X1X1X6X6X6X1X1X1X1X*X,X>X:X>X4XoXm.).$.% f.d.d.d.d.d.d.d.d.d.d.d.d.d.d.d.d.d.d.d.d.d.d.d.d.d.d.d.d.d.d.d.d.d.d.d.d.d.d.d.d.d.d.d.d.d.d.d.d.d.d.d.d.d.d.d.d.d.d.d.d.d.d.d.d.d.d.d.",
"d.k.d.d.d.d.d.d.d.d.d.d.d.d.d.d.d.d.d.d.d.d.d.d.d.a.z.S P.oX-XoX4X4X5X].S.F.&X%X%X%X<X6X=X%X%X%X%XD.Y.;X5X5X,X XN.XX .% d.d.d.d.d.d.d.d.d.d.d.d.d.d.d.d.d.d.d.d.d.d.d.d.d.d.d.d.d.d.d.d.d.d.d.d.d.d.d.d.d.d.d.d.d.d.d.d.d.d.d.d.d.d.d.d.d.d.d.d.d.d.d.d.d.d.d.k.",
"d.k.d.d.d.d.d.d.d.d.d.d.d.d.d.d.d.d.d.d.d.d.d.d.d.a.z.a Z..X5X,X:XY.V.S 4 2 - - - : R.6X~ - - - 3 - w  .A.oX,XoX_.@XI t d.d.d.d.d.d.d.d.d.d.d.d.d.d.d.d.d.d.d.d.d.d.d.d.d.d.d.d.d.d.d.d.d.d.d.d.d.d.d.d.d.d.d.d.d.d.d.d.d.d.d.d.d.d.d.d.d.d.d.d.d.d.d.d.d.d.d.k.",
"d.k.d.d.d.d.d.d.d.d.d.d.d.d.d.d.d.d.d.d.d.d.d.d.d.a.l.j ] >X6X>X+Xx.> S C.y a I 9 : W.6X~ : u U 9 T C.p 7 Y.-X XoX&X0 = f.d.d.d.d.d.d.d.d.d.d.d.d.d.d.d.d.d.d.d.d.d.d.d.d.d.d.d.d.d.d.d.d.d.d.d.d.d.d.d.d.d.d.d.d.d.d.d.d.d.d.d.d.d.d.d.d.d.d.d.d.d.d.d.d.d.d.k.",
"d.k.d.d.d.d.d.d.d.d.d.d.d.d.d.d.d.d.d.d.d.d.d.d.d.s.@ 0 ] 6X:X+Xv.0 | ).`.S [ D.F.; W.6X~ u W.G.u | `._.P S M.+XN.#Xd = f.d.d.d.d.d.d.d.d.d.d.d.d.d.d.d.d.d.d.d.d.d.d.d.d.d.d.d.d.d.d.d.d.d.d.d.d.d.d.d.d.d.d.d.d.d.d.d.d.d.d.d.d.d.d.d.d.d.d.d.d.d.d.d.d.d.d.k.",
"d.k.d.d.d.d.d.d.d.d.d.d.d.d.d.d.d.d.d.d.d.d.d.d.d.s.l.0 [ 6X).XX| , v.XX2X| 5 [ #X3 W.6X~ F %XS 4 P.6X`.H < J.2X`.E.0 = d.d.d.d.d.d.d.. k.k.d.d.d.d.d.d.d.d.d.d.d.d.d.d.d.d.d.d.d.d.d.d.d.d.d.d.d.d.d.d.d.d.d.d.d.d.d.d.d.d.d.d.d.d.d.d.d.d.d.d.d.d.d.d.d.d.d.k.",
"d.k.d.d.d.d.d.d.d.d.d.d.d.d.d.d.d.d.d.d.d.d.d.d.d.s.o d I OX[.N.p , o.;X`.Y.@.$.D.; W.6X( a G.x.O.:X].U.] 7 | XX.XS.5 = f.d.d.d.d.d.d.d.k.. d.d.d.d.d.d.d.d.d.d.d.d.d.d.d.d.d.d.d.d.d.d.d.d.d.d.d.d.d.d.d.d.d.d.d.d.d.d.d.d.d.d.d.d.d.d.d.d.d.d.d.d.d.d.d.d.d.k.",
"d.k.d.d.d.d.d.d.d.d.d.d.d.d.d.d.d.d.d.d.d.d.d.d.d.s.o 6 u }.XXv.6 < T oX;X>Xo.i 3 3 W.6X( - 5 U OX6X+XM.D < i m.+XC.- = f.d.d.d.d.d.d.d.d.d.d.d.d.d.d.d.d.d.d.d.d.d.d.d.d.d.d.d.d.d.d.d.d.d.d.d.d.d.d.d.d.d.d.d.d.d.d.d.d.d.d.d.d.d.d.d.d.d.d.d.d.d.d.d.d.d.d.d.",
"d.k.d.d.d.d.d.d.d.d.d.d.d.d.d.d.d.d.d.d.d.d.d.d.s.s.o y l #X).] < g ` J T.C.| 2 - - W.6XR - 3 P F.C.Z.J Y 7 7 v.XXG., t d.d.d.d.d.d.d.d.d.d.d.d.d.d.d.d.d.d.d.d.d.d.d.d.d.d.d.d.d.d.d.d.d.d.d.d.d.d.d.d.d.d.d.d.d.d.d.d.d.d.d.d.d.d.d.d.d.d.d.d.d.d.d.d.d.d.d.k.",
"  h.                                                . = 0 C.X.7 , ` K 2 3 4 4 5 p U E.4X$.H 2 3 ; 5 5 8 K b < D Z.] , Z p.p.                                                          p.                                              p.        s.p.p.        p.",
"^.(.^.^.^.^.^.^.^.^./.^././././.^.^././././././././.(.Y : * c h ' t.B 8 5 5 5 : S.+X X@X3X.XH 6 9 5 9 r 6.t.M h * y 7 L (./.^.^././././.^.^.^.^.^.^.^.^.^.^.^.^./.^./././././././././././.^.^.^./././././././././.^./././././././././././././.^././././././././.",
"6X6X6X6X6X6X6X6X6X6X6X6X6X6X6X6X6X6X6X6X6X6X6X6X6X6X6XF.3 2 5.i.i.y.n 4 5 5 6 U  X,X3X,X4X4Xn.q 9 9 4 w ` t.i.q.i 3 0 %X6X6X6X6X6X6X6X6X6X6X6X6X6X6X6X6X6X6X6X6X6X6X6X6X6X6X6X6X6X6X6X6X6X6X6X6X6X6X6X6X6X6X6X6X6X6X6X6X6X6X6X6X6X6X6X6X6X6X6X6X6X6X6X6X6X6X6X6X",
"6X6X6X6X6X6X6X6X6X6X6X6X6X6X6X6X6X6X6X6X6X6X6X6X6X6X6X=Xu ` 5.r.Y 4 l M 3 5 3 ] {. X:X4X].oXU.p 5 9 u Q 4 q e.t.5.2 ( 5X6X6X6X6X6X6X6X6X6X6X6X6X6X6X6X6X6X6X6X6X6X6X6X6X6X6X6X6X6X6X6X6X6X6X6X6X6X6X6X6X6X6X6X6X6X6X6X6X6X6X6X6X6X6X6X6X6X6X6X6X6X6X6X6X6X6X6X6X",
"6X6X6X6X6X6X6X6X6X6X6X6X6X6X6X6X6X6X6X6X6X6X6X6X6X6X6X6X@.r v 7.8 1 7.i.h 6 ; o.oXoXN.'.m.].*XU - w ' i.N 6 M y.n 8 W.6X6X6X6X6X6X6X6X6X6X6X6X6X6X6X6X6X6X6X6X6X6X6X6X6X6X6X6X6X6X6X6X6X6X6X6X6X6X6X6X6X6X6X6X6X6X6X6X6X6X6X6X6X6X6X6X6X6X6X6X6X6X6X6X6X6X6X6X6X",
"6X6X6X6X6X6X6X6X6X6X6X6X6X6X6X6X6X6X6X6X6X6X6X6X6X6X6X6X$X3 n N 1 -.:.u.:.C U }.oX4X>X].{.].oXE.w -.:.:.;.*.9 M 3 { 6X6X6X6X6X6X6X6X6X6X6X6X6X6X6X6X6X6X6X6X6X6X6X6X6X6X6X6X6X6X6X6X6X6X6X6X6X6X6X6X6X6X6X6X6X6X6X6X6X6X6X6X6X6X6X6X6X6X6X6X6X6X6X6X6X6X6X6X6X6X",
"6X6X6X6X6X6X6X6X6X6X6X6X6X6X6X6X6X6X6X6X6X6X6X6X6X6X6X6X6X+.3 0 h V V -.V V I |.;XoX,X@XoX X-XJ.r V V -.V V 5 4 u %X6X6X6X6X6X6X6X6X6X6X6X6X6X6X6X6X6X6X6X6X6X6X6X6X6X6X6X6X6X6X6X6X6X6X6X6X6X6X6X6X6X6X6X6X6X6X6X6X6X6X6X6X6X6X6X6X6X6X6X6X6X6X6X6X6X6X6X6X6X6X",
"6X6X6X6X6X6X6X6X6X6X6X6X6X6X6X6X6X6X6X6X6X6X6X6X6X6X6X6X6X=Xu : 1 5 V -.1 , T OX+X].}.:X{.oX:XE.9 5 N -.h 7 5 - F.6X6X6X6X6X6X6X6X6X6X6X6X6X6X6X6X6X6X6X6X6X6X6X6X6X6X6X6X6X6X6X6X6X6X6X6X6X6X6X6X6X6X6X6X6X6X6X6X6X6X6X6X6X6X6X6X6X6X6X6X6X6X6X6X6X6X6X6X6X6X6X",
"6X6X6X6X6X6X6X6X6X6X6X6X6X6X6X6X6X6X6X6X6X6X6X6X6X6X6X6X6X6XR.5 3 5 N C w 4 E.:X@X,X>X-XoX>XoX>X@.- V C s 5 - @.6X6X6X6X6X6X6X6X6X6X6X6X6X6X6X6X6X6X6X6X6X6X5X6X6X6X6X6X6X6X6X6X6X6X6X6X6X6X6X6X6X6X6X6X6X6X6X6X6X6X6X6X6X6X6X6X6X6X6X6X6X6X6X6X6X6X6X6X6X6X6X6X",
"6X6X6X6X6X6X6X6X6X6X6X6X6X6X6X6X6X6X6X6X6X6X6X6X6X6X6X6X6X6X6XD.- 1 1 0 3 A }.[.+X4X5X;X6X+X+XXXP.; : w 5 - ( 1X6X6X6X6X6X6X6X6X6X6X6X6X6X6X6X6X6X6X6X6X6X6X6X6X6X6X6X6X6X6X6X6X6X6X6X6X6X6X6X6X6X6X6X6X6X6X6X6X6X6X6X6X6X6X6X6X6X6X6X6X6X6X6X6X6X6X6X6X6X6X6X6X",
"6X6X6X6X6X6X6X6X6X6X6X6X6X6X6X6X6X6X6X6X6X6X6X6X6X6X6X6X6X6X6X1X+.- 5 3 9 0 P v.U. X>X+X4X3X_.L p 5 5 3 - ( <X6X6X6X6X6X6X6X6X6X6X6X6X6X6X6X6X6X6X6X6X6X6X6X6X6X6X6X6X6X6X6X6X6X6X6X6X6X6X6X6X6X6X6X6X6X6X6X6X6X6X6X6X6X6X6X6X6X6X6X6X6X6X6X6X6X6X6X6X6X6X6X6X6X",
"6X6X6X6X6X6X6X6X6X6X6X6X6X6X6X6X6X6X6X6X6X6X6X5X6X6X6X6X6X6X6X6X1X$.5 - 9 9 5 4 A ] Y.>Xx.[ A 4 5 5 - - +.1X6X6X6X6X6X6X6X5X6X6X6X6X6X6X6X6X6X6X6X6X6X6X6X6X6X6X6X6X6X6X6X6X6X6X6X5X6X6X6X6X6X6X6X6X6X6X6X6X6X6X6X6X6X6X6X6X6X6X6X6X6X5X6X6X6X6X6X6X6X6X6X6X6X6X",
"6X6X6X6X6X6X6X6X6X6X6X6X6X6X6X6X6X6X6X6X6X6X6X6X6X6X6X6X6X6X6X6X6X6XK.l , - 3 5 3 - I Z.4 : ; 6 - - j F.5X6X6X6X6X6X6X6X6X6X6X6X6X6X6X6X6X5X6X6X6X6X6X6X6X6X6X6X6X6X6X6X6X6X6X6X6X6X6X6X6X6X6X6X6X4X6X6X6X6X6X6X6X6X6X6X6X6X6X6X6X6X6X6X6X6X6X6X6X6X6X6X6X6X6X6X",
"6X6X6X6X6X6X6X6X6X6X6X6X6X6X6X6X6X6X6X5X6X6X6X6X6X6X6X6X6X6X6X6X6X6X6X<XD.D 5 - - 3 : ; , - - - l $.=X6X6X6X6X6X6X6X6X6X6X6X6X6X6X6X6X6X6X6X6X6X6X6X6X6X6X6X6X6X6X6X6X6X6X6X6X6X6X6X6X6X6X6X6X6X6X6X6X6X6X6X6X6X6X6X6X6X6X6X6X6X6X6X6X6X6X6X6X5X6X6X6X6X6X6X6X6X",
"6X6X6X6X6X6X6X6X6X6X6X6X6X5X6X6X6X6X6X6X6X6X6X6X6X6X6X6X6X6X6X6X6X6X6X6X6X<XW.$.( D S D D R @.R.=X6X6X6X6X6X6X6X6X6X6X6X6X6X6X6X6X6X6X6X6X6X6X6X6X6X6X6X6X6X6X6X6X5X6X6X6X6X6X6X6X6X6X6X6X6X6X6X6X6X6X6X6X6X6X6X6X6X6X6X6X6X6X6X6X6X6X6X6X6X6X6X6X6X6X6X6X6X6X6X",
"6X6X6X6X6X6X6X6X6X5X6X6X6X6X6X6X6X6X6X6X6X6X6X6X6X6X6X6X6X6X6X6X6X6X6X6X6X6X6X6X6X<X1X1X<X1X6X6X6X6X6X6X6X6X6X6X6X5X6X6X6X6X6X6X6X6X6X6X6X6X6X6X6X6X6X6X6X6X6X6X6X6X6X6X6X6X6X6X6X6X6X6X6X6X6X6X6X6X6X6X6X6X6X6X6X6X6X6X6X6X6X6X6X6X6X6X6X6X6X6X6X6X6X6X6X6X6X6X",
"6X6X6X6X6X6X6X6X6X6X6X6X6X6X6X6X6X6X6X6X6X6X6X6X6X6X6X6X6X6X6X6X6X6X6X6X6X6X6X6X6X6X6X6X6X6X6X6X6X6X6X6X6X6X6X6X6X6X6X6X6X6X6X6X6X6X6X6X6X6X6X6X6X6X6X6X6X6X6X6X6X6X6X6X6X6X6X6X6X6X6X6X6X6X6X6X6X6X6X6X6X6X6X6X6X6X6X6X6X5X6X6X6X6X6X6X6X6X6X6X6X6X6X6X6X6X6X6X",
"6X6X6X6X6X6X6X6X6X6X6X6X6X6X6X6X6X6X6X6X6X6X6X6X5X6X6X6X6X6X6X6X6X6X6X6X6X6X6X6X6X6X6X6X6X6X6X6X6X6X6X6X6X6X6X6X5X6X6X6X6X6X6X6X6X6X6X6X6X6X6X6X6X6X6X6X6X6X6X6X6X6X6X6X6X6X6X6X6X6X6X6X6X6X6X6X6X6X6X6X6X6X6X6X6X6X6X6X6X6X5X6X6X6X6X6X6X6X6X6X6X6X6X6X6X6X6X6X",
"6X6X6X6X6X6X6X6X6X6X6X6X6X6X6X6X6X6X6X6X6X5X6X6X6X6X6X6X6X6X6X6X6X6X6X6X6X6X6X6X6X6X6X6X6X6X6X6X6X6X6X6X6X6X6X6X6X6X6X6X6X6X6X6X6X6X6X6X6X6X6X6X6X6X6X6X6X6X6X6X6X6X5X6X6X6X6X6X6X5X6X6X6X6X6X6X5X6X6X6X6X6X6X6X6X6X6X6X6X6X6X6X6X6X6X6X5X6X6X6X6X6X6X6X6X6X6X6X",
"6X6X6X6X6X6X6X6X6X6X6X6X6X6X6X6X6X6X6X6X6X6X6X6X6X6X6X6X6X6X6X6X6X6X6X6X6X6X6X6X6X6X6X6X6X6X6X6X6X6X6X6X6X6X6X6X6X6X6X6X6X6X6X6X6X6X6X6X6X6X6X6X6X6X5X6X6X6X6X6X6X6X6X6X6X6X6X6X6X6X6X6X6X6X6X6X6X6X6X6X6X6X6X6X6X6X6X6X6X6X6X6X6X6X6X6X6X6X6X6X6X6X6X6X6X6X6X6X",
"6X6X6X6X6X6X6X6X6X6X6X6X6X6X6X6X6X6X6X6X6X6X6X6X6X6X6X6X6X6X6X6X6X6X6X6X6X6X6X6X6X6X6X6X6X6X6X6X6X6X5X6X6X6X6X6X6X6X6X6X6X6X6X6X6X6X6X6X6X6X6X6X6X6X6X6X6X6X6X6X6X6X6X6X6X6X6X6X6X6X6X6X6X6X6X6X6X6X6X6X6X6X6X6X6X6X6X6X6X6X6X6X6X6X6X6X6X6X6X6X6X6X6X6X6X6X6X6X",
"6X6X6X6X6X6X6X6X6X6X6X6X6X6X6X6X6X6X6X6X6X6X6X6X6X6X6X6X6X6X6X6X6X6X6X6X6X6X6X6X6X6X6X6X6X6X6X6X6X6X6X6X6X6X6X6X6X6X6X6X6X6X6X6X6X6X6X6X6X6X6X6X6X6X6X6X6X6X6X6X6X6X6X6X6X6X6X6X6X6X6X6X6X6X6X6X6X6X6X6X6X6X6X6X6X6X6X6X6X6X6X6X6X6X6X6X6X6X6X6X6X6X6X6X6X6X6X6X",
"6X6X6X6X6X6X6X5X6X6X5X6X6X6X6X6X6X6X6X6X6X6X6X6X6X6X6X6X6X6X6X6X6X6X6X6X6X6X6X6X6X6X6X6X6X6X6X6X6X6X6X6X6X6X6X6X6X6X6X6X6X6X6X6X6X6X6X6X6X6X6X6X6X6X6X6X6X6X6X6X6X6X6X6X6X6X6X6X6X6X6X6X6X6X6X6X6X6X6X6X6X6X6X6X6X6X6X6X6X6X6X6X6X6X6X6X6X6X6X6X6X6X6X6X6X6X6X6X",
"6X6X6X6X6X6X5X6X6X6X6X6X6X6X6X6X6X6X6X6X6X6X6X6X6X6X6X6X6X6X6X6X6X6X6X5X6X6X6X6X6X6X6X6X6X6X6X6X6X6X6X6X6X6X6X6X6X6X6X6X6X6X6X6X6X6X6X6X6X6X6X6X6X5X6X6X6X6X6X6X6X6X6X6X6X6X6X6X6X6X6X6X6X6X6X6X6X6X6X6X6X6X6X6X6X6X6X6X6X6X6X6X6X6X6X6X6X6X6X6X6X6X6X6X6X6X6X6X",
"6X6X6X6X6X6X6X6X6X6X6X6X6X6X6X6X6X6X6X6X6X6X6X6X6X6X6X6X6X6X6X6X6X6X6X6X6X6X6X6X6X6X6X6X6X6X6X6X6X6X6X6X6X6X6X6X6X6X6X6X6X6X6X6X6X6X6X6X6X6X6X6X6X6X6X6X6X6X6X6X6X6X6X6X6X6X6X6X6X6X6X6X6X6X6X6X6X6X6X6X6X6X6X6X6X6X6X6X6X6X6X6X6X6X6X6X6X6X6X6X6X6X6X6X6X6X6X6X",
"6X6X6X6X6X6X6X6X6X6X6X6X6X6X6X6X6X6X6X6X6X6X6X6X6X6X6X6X6X6X6X6X6X6X6X6X6X6X6X6X6X6X6X6X6X6X6X6X6X6X6X6X6X6X6X6X6X6X6X6X6X6X6X6X6X6X6X6X5X6X6X6X6X6X6X6X6X6X6X6X6X6X6X6X6X6X6X6X6X6X6X6X6X6X6X6X6X6X6X6X6X6X6X6X6X6X6X6X6X6X6X6X6X6X6X6X6X6X6X6X6X6X6X6X6X6X6X6X",
"6X6X6X6X6X6X6X6X6X6X6X6X6X6X6X6X6X6X6X6X6X6X6X6X6X6X6X6X6X6X6X6X6X6X6X6X6X6X6X6X6X6X6X6X6X6X6X6X6X6X6X6X6X6X6X6X6X6X6X6X6X6X6X6X6X6X6X6X6X6X6X6X6X6X6X6X6X6X6X6X6X6X6X6X6X6X6X6X6X6X6X6X6X6X6X6X6X6X6X6X6X6X6X6X6X6X6X6X6X6X6X6X6X6X6X6X6X6X6X6X6X6X6X6X6X6X6X6X",
"6X6X6X6X6X6X6X6X6X6X6X6X6X6X6X6X6X6X6X6X6X6X6X6X6X6X6X6X6X6X6X6X6X6X6X6X6X6X6X6X6X6X6X6X6X6X6X6X6X6X6X6X6X6X6X6X6X6X6X6X6X6X6X6X6X6X6X6X6X6X6X6X6X6X6X6X6X6X6X6X6X6X6X6X6X6X6X6X6X6X6X6X6X6X6X6X6X6X6X6X6X6X6X6X6X6X6X6X6X6X6X6X6X6X6X6X6X6X6X6X6X6X6X6X6X6X6X6X",
"6X6X6X6X6X6X6X6X6X6X6X6X6X6X6X6X6X6X6X6X6X6X6X6X6X6X6X6X6X6X6X6X6X6X6X6X6X6X6X6X6X6X6X6X6X6X6X6X6X6X6X6X6X6X6X6X6X6X6X6X6X6X6X6X6X6X6X6X6X6X6X6X6X6X6X6X6X6X6X6X6X6X6X6X6X6X6X6X6X6X6X6X6X6X6X6X6X6X6X6X6X6X6X6X6X6X6X6X6X6X6X6X6X6X6X6X6X6X6X6X6X6X6X6X6X6X6X6X"
};
