/* XPM */
static const char *Germany_128_85[] = {
/* columns rows colors chars-per-pixel */
"128 85 46 1 ",
"  c #020202",
". c #060606",
"X c gray4",
"o c #0E0E0E",
"O c #111111",
"+ c #161616",
"@ c #1B1B1B",
"# c #1E1E1E",
"$ c #222222",
"% c #252525",
"& c #282828",
"* c #2C2C2C",
"= c #AC0000",
"- c #B50000",
"; c #DB0000",
": c #DC0000",
"> c #DF1000",
", c #E70000",
"< c #E90000",
"1 c #EB0000",
"2 c #F40000",
"3 c #F80000",
"4 c #E01000",
"5 c #EB1100",
"6 c #EF1100",
"7 c #FBB300",
"8 c #FEBB00",
"9 c #FEBE00",
"0 c #FDCE00",
"q c #FDD000",
"w c #FFD000",
"e c #FDD400",
"r c #FFD600",
"t c #FDDA00",
"y c #FFDC00",
"u c #FDDF00",
"i c #FDE100",
"p c #FDE300",
"a c #FFE300",
"s c #FDE700",
"d c #FEE900",
"f c #FDEC00",
"g c #FFF000",
"h c #FFF700",
"j c #FFFA00",
"k c yellow",
/* pixels */
"&&&&&&&&&&&&&&&&&&&&&&&&&&&&&&&&&&&&&&&&&&&&&&&&&&&&&&&&&&&&&&&&&&&&&&&&&&&&&&&&&&&&&&&&&&&&&&&&&&&&&&&&&&&&&&&&&&&&&&&&&&&&&&&*",
"&*&&&&&&&&&&&*&&&&*&&&&&&*&&&&*&&&&&&*&&&&*&&&&&&*&&&&*&&&&&&*&&&&*&&&&&&*&&&&*&&&&&&*&&&&*&&&&&&*&&&&*&&&&&&*&&&&*&&&&&&*&&&&&*",
"%%$%$$%%$$$$%$$$$$%$$$$$%$$$$$%$$$$$%$$$$$%$$$$$%$$$$$%$$$$$%$$$$$%$$$$$%$$$$$%$$$$$%$$$$$%$$$$$%$$$$$%$$$$$%$$$$$%$$$$$%$$$$$%%",
"#$$#$$#$#$$#$$$#$#$$#$$#$$$#$#$$#$$#$$$#$#$$#$$#$$$#$#$$#$$#$$$#$#$$#$$#$$$#$#$$#$$#$$$#$#$$#$$#$$$#$#$$#$$#$$$#$#$$#$$#$$$#$$$$",
"@#@@@@@@@#@##@@@#@#@@#@@@#@@#@#@@#@##@@@#@#@@#@@@#@@#@#@@#@##@@@#@#@@#@@@#@@#@#@@#@##@@@#@#@@#@@@#@@#@#@@#@##@@@#@#@@#@@#@#@@#@#",
"+@@@@@+@+@@+@+@@+@+@+@@@@+@@@++@+@@+@+@@+@+@+@@@@+@@@++@+@@+@+@@+@+@+@@@@+@@@++@+@@+@+@@+@+@+@@@@+@@@++@+@@+@+@@+@+@+@@@@+@@@++@",
"O+++O+++++++O+++++++++O+O+++O+++++++O+++++++++O+O+++O+++++++O+++++++++O+O+++O+++++++O+++++++++O+O+++O+++++++O+++++++++O+O++O++++",
"OOOOOOOOOOoOOOOoOOoOOOOOOOOOOOOOOOoOOOOoOOoOOOOOOOOOOOOOOOoOOOOoOOoOOOOOOOOOOOOOOOoOOOOoOOoOOOOOOOOOOOOOOOoOOOOoOOoOOOOOOOOOOOOO",
"ooooooooXooooooooooooooooooXoooXooooXooooooooooooooXooooXooooooooooooooooooXoooXooooXooooooooooooooXooooXoooooooooooooooooooooXo",
"XXXXXXXXXXXXXXXXXXXXXXXXXXXXXXXXXXXXXXXXXXXXXXXXXXXXXXXXXXXXXXXXXXXXXXXXXXXXXXXXXXXXXXXXXXXXXXXXXXXXXXXXXXXXXXXXXXXXXXXXXXXXXXXX",
"................................................................................................................................",
". .  .   .   .     .     . . . . .   . .   .     . . .   .   .     .     . . . . .   . .   .     . . .   .   .     .      .  . .",
"                                                                                                                                ",
"                                                                                                                                ",
"                                                                                                                                ",
"                                                                                                                                ",
"                                                                                                                                ",
"                                                                                                                                ",
"                                                                                                                                ",
"                                                                                                                                ",
"                                                                                                                                ",
"                                                                                                                                ",
"                                                                                                                                ",
"                                                                                                                                ",
"                                                                                                                                ",
"                                                                                                                                ",
"                                                                                                                                ",
"=-=============================================================================================================================-",
"<3<<,<<<<<<<<1<<,<<<<<<<<1<<,<<<<<<<<1<<,<<<<<<<<1<<,<<<<<<<<<<<,<<<<<<<,<<<<<<<,<<<<<<<,<<<<<<<<1<<,<<<<<<<<1<<,<<<<<<<<<<<,<<2",
":1:::::::;:::::::::::;:::::::::::;:::::::::::;:::::::::::;:::::::::::::::::::::::::::::::::::::::::::::::;:::::::::::;:::::::::<",
"<<:::::::,:::<:::::::,:::<:::::::,:::<:::::::,:::<::::::,;:::,;::::::,;::::::,;::::::,;::::::,;::<:::::::,:::<:::::::,:::<::;,:<",
":<:::;,::::::;:::;,::::::;:::;,::::::;:::;,::::::;:::;,:::::;;;,::,;::::::,;::::::,;::::::,;:::::;:::;,::::::;:::;,::::::;:::::<",
":1::;:::::;::::::::,;;:::;::::::,::::::,;;:::;:::::,;;:::;::::::,:::;;::::::;,::::;,:::;::,:::;;::::::::::::,;:::;;:;::::,:::,;,",
":<<:,:::,:,:::,::;::::::,;::;;::;;:::;::::::,;:::;::::::,;::;;::;::::,::,::;;:::::;::::;:;;::::,::::,;::;;:::;:::,::;,::;;:;:::<",
":<;:::::;:::::;:,;::::,::::::,:::::,,;::::,:::::,;::::,::::::,::;:;;::::;;,;::;:::::,;:,:::::,:::,;::::::,:::::;:;:::::;:::;:::<",
":<:::::;::::::::::::::;;:;;,:::;::;;::::::;;:;;,::::::;;:;;,:::;::,:::;;::::::;,;,:::;::,:::;;:::::::;,::::;::,;:;,::::;:::,,::<",
":1:::::,::;,:::::::;::::::;:::,;::::::;;::;,:,;;:::;::::::;:::,;:,;;:::,::,;::::;:::,;;:;::::,;:;,:::::,:::;:::;::;;:::,:::;;::<",
"<1:;::::::;:,;::::,;,::;,:;,::::;,;;::,:::;:::::::,;,::;,:;,:::::::::;:::::;;;::::,:::::;:::::;::::::::;:::,:::;::,::::::::;;::<",
";<:,::::::::::::;:::;;,;;::::;::;::,,:::::::;;::;:::;;,;;::::;::;;::,;::;,:::,::::;;::;,::,;::,:::::::::;;::,;:,,::::;;:,;:,::,,",
":<::,;::;,:::;,:;,::::::;:::,;::::::;;::;,:::,::;,::::::;:::,;:::,::::::;::::::;::::::;::::;:;;::::;,:::,::::;::;;:::,:::;:::::,",
":1::;;::;:::,:::::::,;::;;::::,:,:::;;::;:::,:::::::,;::;;::::,:::,;;:::::,:::,;,;:::;;:::::,;:::,;::,;:::,;,;;:::;;::::::,;;::<",
":<:::,::::::;;::;;:::;:::,:::;;:;::::,::::::;;::;;:::;:::,:::;;:::::::,:::;;:::::;:::,::;;:::;::::::::;::::;:::::::,,::;:::::::<",
"<<;;:::::,;::::,:,:::::;::::::::;:;;:::::,;::::,:,:::::;:::::::::;::::;;:::::;:::::;:;:::,:::::;;,::::,:;,::::;,:,::;;,;:;::::,,",
":<,:::;;::;:::;;:::;::,;::;;,:::::,:::;;::;:::;;:::;::,;::;;,:::,;::::::;;,:,;::::,;:;,::::;::,;:::::;;:;:::::;:;;::::::,;:::::,",
":1:::::,::;;:;;::::;:::;:;:::::;:,;;:::,::;;:;;::::;:::;:;:::::;::::,:::,;;:;;::::,:::,;:::;:::;::::,;:::::,;;::::::;;:::;:::;:<",
":<<::;:::::,:,:::::,:::;,;::::,;:::::;:::::,:,:::::,:::;,;::::,;,::;;;:::::::,:::;;::::;:::,:::;:::::;::::::::::::;,,::::;,::,:,",
":1;;,;:::,:::;::;;::,;:,::::;:::;;::,;:::,:::;::;;::,;:,::::;:::;;,;:::,::;,::::::::;,::;;::,;:,:,;::::;:;;:::,:::;:::;;::::,::<",
":<::::::;;:::;,:,::::;:::;;,;,:::,::::::;;:::;,:,::::;:::;;,;,::::::::;;::;:::;;,:::;:::,::::;::::;:::,;:,::::;;,::::::,:::;;::<",
":1;::::,;;::::::::;;::::;;::::::::,;;:::;;::::::::;;::::;;::::::::,;,;;:::;::::,;;::::::::,;,;;:;;::::,:;,:::;::;::::::;;:::,::<",
":1;,::;;,:::;,;;::,:::;,,:::;,;;::::::,:,:::;,;;::,:::;,,:::;,;;:::;::::,:;,::;;,:::;,;;:::;:::::,:::;;:;::::;,:;::::::,::::;;:<",
"<<::,:::::;;;::,,:::::;:::;;;::,:;::::;;::;;;::,,:::::;:::;;;::,;,::::;,;:::,:::::;;;::,;,::::;,::::::::::;:::::::,;;;:::,;:;,:<",
";<::;::::::,::::;;::,::::::,::::,;:::::::::,::::;;::,::::::,::::;:::::;:;:::;::::::,::::;:::::;:::;;,:::::;,:::;:::;,:::::;:;::<",
":1::;:::::::::;,,:::;:::::::::;,::::,:::::::::;,,:::;:::::::::;,:::,;;::;,::;:::::::::;,:::,;;:::;:::::;:;;::::;:,::::;:,:::::,,",
"<<::::,:;;::::;:;:::;:::;;::::;:,::;;;::;;::::;:;:::;:::;;::::;:::::::::;:::::,:;;::::;:::::::::,;::::,;:,:::::,;;:;,:;,;::::::,",
";<;:::;;:,::::::;:;;::,;:,::::::;;,;:::,:,::::::;:;;::,;:,:::::::;;:::,:::;:::;;:,:::::::;;:::,:::::;::::;::;;:::::;;:::;:;;:::<",
":<;,:::::::;;,::::,::::;:::;;,::::::::;;:::;;,::::,::::;:::;;,:::,::::;;::;,:::::::;;,:::,::::;;:;;,;,:::;,:,::::::,;:::::,::::<",
":<::::::::::::::::::::::::::::::::::::::::::::::::::::::::::::::::;;::::::::::::::::::;;::;;::::::::::::::::::;;::;;:::::::::::,",
"4644>>444444>>444444>>444444>>444444>>444444>>444444>>444444>>4444>>444>44>>4444>>4444>>44>>444>44>>4444>>4444>>44>>444>44>>4445",
"79777777777777777777777777777777777777777777777777777777777777777777777777777777777777777777777777777777777777777777777777777778",
"rarrrrrrrrrrrrrrrrrrrrrrrrrrrrrrrrrrrrrrrrrrrrrrrrrrrrrrrrrrrrrrrrrrrrrrrrrrrrrrrrrrrrrrrrrrrrrrrrrrrrrrrrrrrrrrrrrrrrrrrrrrrrra",
"0t00000000000000000000000000000000000000000000000000000000000000000000000000000000000000000000000000000000000000000000000000000r",
"0y00000000000000000000000000000000000000000000000000000000000000000000000000000000000000000000000000000000000000000000000000000t",
"0y00000000000000000000000000000000000000000000000000000000000000000000000000000000000000000000000000000000000000000000000000000t",
"0t0000000000000000000000000000000000000000000000000000000000000000000000000000000000000000000000000000000000000000000000000000wr",
"0y00000000000000000000000000000000000000000000000000000000000000000000000000000000000000000000000000000000000000000000000000000t",
"0t0000000000000000000000000000000000000000000000000000000000000000000000000000000000000000000000000000000000000000000000000000wr",
"0t00000000000000000000000000000000000000000000000000000000000000000000000000000000000000000000000000000000000000000000000000000t",
"0y0000000000000000000000000000000000000000000000000000000000000000000000000000000000000000000000000000000000000000000000000000wr",
"0y0000000000000000000000000000000000000000000000000000000000000000000000000q00000000000q00000000000000000000000w00000000000q000t",
"0yw0qwww0ww0wq0w0ww0qwww0ww0w00w0ww0qwww0ww0wq0w0ww0qwww0ww0w00ww0w0w0w0w0ww0ww0qww00www0w0q0wwq0w0qw00ww00ww0wqw0w0w0w0w0ww0w0t",
"0awwwqrqwwwwwwrwwwwwwqrqwwwwqrwwwwwwwqrqwwwwqwrwwwwwwqrqwwwwqrwwwwwwwwwqwwwqwwwwwqwqwwwwwwwwwwwwwwqwwwwwqrqwwwwwwwwqwwwqwwwqwwwy",
"wyrwewqwewrwrwwwewrwewqwewrwwewwewrwewqwewrwrwwwewrwewqwewrwwewwwrwrwrwrewewewrwqrewqrwwwrwrwrwewrrqrwwrwqrqrqwwwrwrwrqrewqrwwry",
"earwrrrwrrrrwtr0rerwrrrwrrrrqrrrrerwrrrwrrrrerrwrerwrrrwrrrrqrrrrrrrwtrrrerwrrrwrrrr0rrrrrrrrrrrrrqrrrrwrrrqrrrrrrrrrr0rrerwrrry",
"rstrtrrtrrrruwtrrttrtrrtrrrrterrrttrtrrtrrretetrrttrtrrtrrrrterrrrrruwrrrttrtrrtrrwurtrrerrreterrtrtrrrretrtrrrrrrrrrrtrrttrtrra",
"estttttttttttttttttttttttttttttttttttttttttttttttttttttttttttttttrttttttttttttttttrttttttttttttrttttttttttttttttttttttttttttttts",
"tdttttttttttttttttttttttttttttttttttttttytttttttttttttttttttttttytttttttttttttttttttttttttytttttttttttttttttttttttttttttttttttts",
"ufuyyayyatatatatatatyatytatuyyayatuyyayyyypyatytatuyyayytatuyuayyyptptatatuyyayyyptuyytayayysyyyyyyuyutayyatyyyytttayptutuyyyyad",
"ugyuayyatuauaatuaatusttsataapaytapyuayyatuauapyuapyuayyaataapayyypaayyauapyuayyayaaauaatstayytysaauauaatastuspstsayayaaaaapyayad",
"pfaaaapaaaaauaaauaaaaaaaapaasyaapaaaaapaaaaapaaapaaaaapaapaaapaaaapaaatapaaaaapaataaapaatasyaaaaaayaaaaaaaaayatataaaataaapaaaaaf",
"ahspasspsuasspasspsaassaasusafasspspasspspassuasspspasspasusasasasspasssspspasspsspassassssfsaasaspspspsasaafsssasasssuassasassg",
"phssddssssdsssssdsssssdsssssdsssssssdsssssddssssddssssdsssssdssspsdsssssdsssssddssdsssssdsssssddsssdsssdsssdsssdddssddssssdsssdg",
"sjdsddddddddddddddddddddddddddddsddddddddddddddddddddddddddddddddddddddddddddddddddddddddddddddddddddddddddddddddddddddddddddddh",
"djdfffdfdfffffdffffddfffffdffffdffddfffddfffffdfffdfdfffffdffffddfffffdffffddfffdfffffdffffddfffdfffdfdfdfffdfdfffdfffdfdfffffdh",
"fkfffffdfffffffffffffffffffffffffffdfffffffffffffffdfffffffffffffffffffffffffffffffffffffffffffffffffffffffffffffffffffdfffffffj",
"fkjjjhjjjhjjjjjjjjhjhjjhjjjjjjhjjjjjjjjjjjhjjjjjjhjjjhjjjjjjjjhjjhjjjjjjhjjhjjhjjhjjjjjjhjjhjjhjjjjjjjhjjjjjjjhjjjjjjhjjhjjjjjjk"
};
