/* XPM */
static char *UxRnGYjF[] = {
/* columns rows colors chars-per-pixel */
"256 256 248 2 ",
"   c #060D2C",
".  c #050A25",
"X  c #060D32",
"o  c #0A133C",
"O  c #091235",
"+  c #0D1735",
"@  c #2C2C2D",
"#  c #730D0F",
"$  c #772125",
"%  c #0B1642",
"&  c #0D1846",
"*  c #0E1B4C",
"=  c #061547",
"-  c #111D4D",
";  c #121D44",
":  c #0F1D51",
">  c #0A1A59",
",  c #111E53",
"<  c #101F5A",
"1  c #000C4B",
"2  c #16234C",
"3  c #132255",
"4  c #13235B",
"5  c #1A295A",
"6  c #0F245B",
"7  c #222F5C",
"8  c #152662",
"9  c #162965",
"0  c #1B2C63",
"q  c #1A2D6A",
"w  c #162968",
"e  c #1E316B",
"r  c #1E3165",
"t  c #0C2D77",
"y  c #22356C",
"u  c #283969",
"i  c #253A74",
"p  c #273B76",
"a  c #293767",
"s  c #071B66",
"d  c #2C427C",
"f  c #2B4277",
"g  c #344779",
"h  c #324471",
"j  c #3E424D",
"k  c #515151",
"l  c #6F6F71",
"z  c #575A6B",
"x  c #5F5E14",
"c  c #911114",
"v  c #A90D13",
"b  c #AB1417",
"n  c #B31A1D",
"m  c #B5171A",
"M  c #B40609",
"N  c #B81E22",
"B  c #AF1026",
"V  c #93292D",
"C  c #A92529",
"Z  c #BC2225",
"A  c #BB262A",
"S  c #BC292E",
"D  c #B52327",
"F  c #BD2B30",
"G  c #AF3439",
"H  c #98241E",
"J  c #C80304",
"K  c #D80709",
"L  c #C8151A",
"P  c #D6171B",
"I  c #D30C13",
"U  c #E51619",
"Y  c #E6090B",
"T  c #D41C22",
"R  c #DB1A24",
"E  c #CF0B2A",
"W  c #E6162C",
"Q  c #C32A2D",
"!  c #C32529",
"~  c #D8242A",
"^  c #C42D32",
"/  c #CA2D33",
"(  c #DB2C33",
")  c #CA3136",
"_  c #CC353A",
"`  c #CE393E",
"'  c #C63337",
"]  c #D2393E",
"[  c #D6353A",
"{  c #C1382B",
"}  c #E62629",
"|  c #E52A35",
" . c #E4353A",
".. c #F72F30",
"X. c #D9241C",
"o. c #AB5E18",
"O. c #D95830",
"+. c #B43748",
"@. c #CB3C42",
"#. c #D33C42",
"$. c #DA3D44",
"%. c #D12B55",
"&. c #E63B44",
"*. c #E82F54",
"=. c #D4376E",
"-. c #E8336D",
";. c #E11148",
":. c #B34D50",
">. c #AE6967",
",. c #CB4449",
"<. c #D54146",
"1. c #D6444A",
"2. c #DA454B",
"3. c #DA494E",
"4. c #D84347",
"5. c #DC4C53",
"6. c #D44C54",
"7. c #DE5359",
"8. c #D75459",
"9. c #CC5055",
"0. c #E6444A",
"q. c #E64B54",
"w. c #E1555B",
"e. c #E4565C",
"r. c #F7514F",
"t. c #D55766",
"y. c #E35C63",
"u. c #EA5C65",
"i. c #EE506E",
"p. c #D9676A",
"a. c #DB6D72",
"s. c #DD7578",
"d. c #CA6D6D",
"f. c #E6636B",
"g. c #E8646B",
"h. c #EA6C73",
"j. c #EA6A75",
"k. c #EC737B",
"l. c #E6777C",
"z. c #F66E71",
"x. c #D26C55",
"c. c #AE9918",
"v. c #CDAB1D",
"b. c #D1D010",
"n. c #F7F90E",
"m. c #FBFB39",
"M. c #F4F330",
"N. c #E0DD1F",
"B. c #B59F5F",
"V. c #CF9050",
"C. c #D3B44E",
"Z. c #DBA368",
"A. c #D6C94D",
"S. c #E7D54F",
"D. c #FCFC47",
"F. c #FCF956",
"G. c #F0EB4E",
"H. c #E9E267",
"J. c #B9D61B",
"K. c #083686",
"L. c #2E3DA1",
"P. c #2D4582",
"I. c #344A84",
"U. c #354C88",
"Y. c #3B528C",
"T. c #3A5187",
"R. c #3D5592",
"E. c #385794",
"W. c #2C528F",
"Q. c #226AAE",
"!. c #435A95",
"~. c #445D9A",
"^. c #445B94",
"/. c #44578A",
"(. c #4B639D",
"). c #48619A",
"_. c #54699A",
"`. c #6C7694",
"'. c #4D67A2",
"]. c #536CA4",
"[. c #566EA8",
"{. c #5B74AB",
"}. c #5A74A9",
"|. c #5579B2",
" X c #647AAB",
".X c #637CB2",
"XX c #687FB2",
"oX c #717FA7",
"OX c #383ADA",
"+X c #EC4987",
"@X c #EE7C84",
"#X c #E37D83",
"$X c #F27884",
"%X c #D07487",
"&X c #C46A83",
"*X c #6A83B5",
"=X c #6B85B8",
"-X c #738BBC",
";X c #748BBA",
":X c #768DB8",
">X c #6D83A7",
",X c #2E8BC6",
"<X c #7B94C2",
"1X c #7290C2",
"2X c #549CD0",
"3X c #2881BF",
"4X c #878787",
"5X c #989898",
"6X c #82899D",
"7X c #A8A8A8",
"8X c #B8B8B8",
"9X c #B0A9B2",
"0X c #A198A0",
"qX c #CE9094",
"wX c #E58489",
"eX c #F1868C",
"rX c #EF8C93",
"tX c #D4ACAF",
"yX c #ECB1B6",
"uX c #D5A39E",
"iX c #D0D0B1",
"pX c #DBDD9D",
"aX c #859CC6",
"sX c #8CA2CB",
"dX c #92A6CE",
"fX c #B6B8C6",
"gX c #B3B7EF",
"hX c #CFB9C8",
"jX c #B6CED2",
"kX c #CCCCCC",
"lX c #C4C4C4",
"zX c #D4D4D4",
"xX c #DCDCDC",
"cX c #D8D7D7",
"vX c #D0CDD1",
"bX c #D6F1F0",
"nX c #E3E3E3",
"mX c #ECECEC",
"MX c #E5E9EA",
"NX c #E9FBFB",
"BX c #F3F3F3",
"VX c #FCFCFC",
"CX c #F5FCFC",
"ZX c #EFEDED",
"AX c #DEDFDB",
"SX c #B7C3AE",
"DX c None",
"FX c #6FA400",
/* pixels */
"DXDXDXDXDXDXDXDXDXDXDXDXDXDXDXDXDXDXDXDXDXDXDXDXDXDXDXDXDXDXDXDXDXDXDXDXDXDXDXDXDXDXDXDXDXDXDXDXDXDXDXDXDXDXDXDXDXDXDXDXDXDXDXDXDXDXDXDXDXDXDXDXDXDXDXDXDXDXDXDXDXDXDXDXDXDXDXDXDXDXDXDXDXDXDXDXDXDXDXDXDXDXDXDXDXDXDXDXDXDXDXDXDXDXDXDXDXDXDXDXDXDXDXDXDXDXDXDXDXDXDXDXDXDXDXDXDXDXDXDXDXDXDXDXDXDXDXDXDXDXDXDXDXDXDXDXDXDXDXDXDXDXDXDXDXDXDXDXDXDXDXDXDXDXDXDXDXDXDXDXDXDXDXDXDXDXDXDXDXDXDXDXDXDXDXDXDXDXDXDXDXDXDXDXDXDXDXDXDXDXDXDXDXDXDXDXDXDXDXDXDXDXDXDXDXDXDXDXDXDXDXDXDXDXDXDXDXDXDXDXDXDXDXDXDXDXDXDXDXDXDXDXDXDXDXDX",
"DXDXDXDXDXDXDXDXDXDXDXDXDXDXDXDXDXDXDXDXDXDXDXDXDXDXDXDXDXDXDXDXDXDXDXDXDXDXDXDXDXDXDXDXDXDXDXDXDXDXDXDXDXDXDXDXDXDXDXDXDXDXDXDXDXDXDXDXDXDXDXDXDXDXDXDXDXDXDXDXDXDXDXDXDXDXDXDXDXDXDXDXDXDXDXDXDXDXDXDXDXDXDXDXDXDXDXDXDXDXDXDXDXDXDXDXDXDXDXDXDXDXDXDXDXDXDXDXDXDXDXDXDXDXDXDXDXDXDXDXDXDXDXDXDXDXDXDXDXDXDXDXDXDXDXDXDXDXDXDXDXDXDXDXDXDXDXDXDXDXDXDXDXDXDXDXDXDXDXDXDXDXDXDXDXDXDXDXDXDXDXDXDXDXDXDXDXDXDXDXDXDXDXDXDXDXDXDXDXDXDXDXDXDXDXDXDXDXDXDXDXDXDXDXDXDXDXDXDXDXDXDXDXDXDXDXDXDXDXDXDXDXDXDXDXDXDXDXDXDXDXDXDXDXDXDX",
"DXDXDXDXDXDXDXDXDXDXDXDXDXDXDXDXDXDXDXDXDXDXDXDXDXDXDXDXDXDXDXDXDXDXDXDXDXDXDXDXDXDXDXDXDXDXDXDXDXDXDXDXDXDXDXDXDXDXDXDXDXDXDXDXDXDXDXDXDXDXDXDXDXDXDXDXDXDXDXDXDXDXDXDXDXDXDXDXDXDXDXDXDXDXDXDXDXDXDXDXDXDXDXDXDXDXDXDXDXDXDXDXDXDXDXDXDXDXDXDXDXDXDXDXDXDXDXDXDXDXDXDXDXDXDXDXDXDXDXDXDXDXDXDXDXDXDXDXDXDXDXDXDXDXDXDXDXDXDXDXDXDXDXDXDXDXDXDXDXDXDXDXDXDXDXDXDXDXDXDXDXDXDXDXDXDXDXDXDXDXDXDXDXDXDXDXDXDXDXDXDXDXDXDXDXDXDXDXDXDXDXDXDXDXDXDXDXDXDXDXDXDXDXDXDXDXDXDXDXDXDXDXDXDXDXDXDXDXDXDXDXDXDXDXDXDXDXDXDXDXDXDXDXDXDXDX",
"DXDXDXDXDXDXDXDXDXDXDXDXDXDXDXDXDXDXDXDXDXDXDXDXDXDXDXDXDXDXDXDXDXDXDXDXDXDXDXDXDXDXDXDXDXDXDXDXDXDXDXDXDXDXDXDXDXDXDXDXDXDXDXDXDXDXDXDXDXDXDXDXDXDXDXDXDXDXDXDXDXDXDXDXDXDXDXDXDXDXDXDXDXDXDXDXDXDXDXDXDXDXDXDXDXDXDXDXDXDXDXDXDXDXDXDXDXDXDXDXDXDXDXDXDXDXDXDXDXDXDXDXDXDXDXDXDXDXDXDXDXDXDXDXDXDXDXDXDXDXDXDXDXDXDXDXDXDXDXDXDXDXDXDXDXDXDXDXDXDXDXDXDXDXDXDXDXDXDXDXDXDXDXDXDXDXDXDXDXDXDXDXDXDXDXDXDXDXDXDXDXDXDXDXDXDXDXDXDXDXDXDXDXDXDXDXDXDXDXDXDXDXDXDXDXDXDXDXDXDXDXDXDXDXDXDXDXDXDXDXDXDXDXDXDXDXDXDXDXDXDXDXDXDXDXDX",
"DXDXDXDXDXDXDXDXDXDXDXDXDXDXDXDXDXDXDXDXDXDXDXDXDXDXDXDXDXDXDXDXDXDXDXDXDXDXDXDXDXDXDXDXDXDXDXDXDXDXDXDXDXDXDXDXDXDXDXDXDXDXDXDXDXDXDXDXDXDXDXDXDXDXDXDXDXDXDXDXDXDXDXDXDXDXDXDXDXDXDXDXDXDXDXDXDXDXDXDXDXDXDXDXDXDXDXDXDXDXDXDXDXDXDXDXDXDXDXDXDXDXDXDXDXDXDXDXDXDXDXDXDXDXDXDXDXDXDXDXDXDXDXDXDXDXDXDXDXDXDXDXDXDXDXDXDXDXDXDXDXDXDXDXDXDXDXDXDXDXDXDXDXDXDXDXDXDXDXDXDXDXDXDXDXDXDXDXDXDXDXDXDXDXDXDXDXDXDXDXDXDXDXDXDXDXDXDXDXDXDXDXDXDXDXDXDXDXDXDXDXDXDXDXDXDXDXDXDXDXDXDXDXDXDXDXDXDXDXDXDXDXDXDXDXDXDXDXDXDXDXDXDXDXDXDX",
"DXDXDXDXDXDXDXDXDXDXDXDXDXDXDXDXDXDXDXDXDXDXDXDXDXDXDXDXDXDXDXDXDXDXDXDXDXDXDXDXDXDXDXDXDXDXDXDXDXDXDXDXDXDXDXDXDXDXDXDXDXDXDXDXDXDXDXDXDXDXDXDXDXDXDXDXDXDXDXDXDXDXDXDXDXDXDXDXDXDXDXDXDXDXDXDXDXDXDXDXDXDXDXDXDXDXDXDXDXDXDXDXDXDXDXDXDXDXDXDXDXDXDXDXDXDXDXDXDXDXDXDXDXDXDXDXDXDXDXDXDXDXDXDXDXDXDXDXDXDXDXDXDXDXDXDXDXDXDXDXDXDXDXDXDXDXDXDXDXDXDXDXDXDXDXDXDXDXDXDXDXDXDXDXDXDXDXDXDXDXDXDXDXDXDXDXDXDXDXDXDXDXDXDXDXDXDXDXDXDXDXDXDXDXDXDXDXDXDXDXDXDXDXDXDXDXDXDXDXDXDXDXDXDXDXDXDXDXDXDXDXDXDXDXDXDXDXDXDXDXDXDXDXDXDXDX",
"DXDXDXDXDXDXDXDXDXDXDXDXDXDXDXDXDXDXDXDXDXDXDXDXDXDXDXDXDXDXDXDXDXDXDXDXDXDXDXDXDXDXDXDXDXDXDXDXDXDXDXDXDXDXDXDXDXDXDXDXDXDXDXDXDXDXDXDXDXDXDXDXDXDXDXDXDXDXDXDXDXDXDXDXDXDXDXDXDXDXDXDXDXDXDXDXDXDXDXDXDXDXDXDXDXDXDXDXDXDXDXDXDXDXDXDXDXDXDXDXDXDXDXDXDXDXDXDXDXDXDXDXDXDXDXDXDXDXDXDXDXDXDXDXDXDXDXDXDXDXDXDXDXDXDXDXDXDXDXDXDXDXDXDXDXDXDXDXDXDXDXDXDXDXDXDXDXDXDXDXDXDXDXDXDXDXDXDXDXDXDXDXDXDXDXDXDXDXDXDXDXDXDXDXDXDXDXDXDXDXDXDXDXDXDXDXDXDXDXDXDXDXDXDXDXDXDXDXDXDXDXDXDXDXDXDXDXDXDXDXDXDXDXDXDXDXDXDXDXDXDXDXDXDXDXDX",
"DXDXDXDXDXDXDXDXDXDXDXDXDXDXDXDXDXDXDXDXDXDXDXDXDXDXDXDXDXDXDXDXDXDXDXDXDXDXDXDXDXDXDXDXDXDXDXDXDXDXDXDXDXDXDXDXDXDXDXDXDXDXDXDXDXDXDXDXDXDXDXDXDXDXDXDXDXDXDXDXDXDXDXDXDXDXDXDXDXDXDXDXDXDXDXDXDXDXDXDXDXDXDXDXDXDXDXDXDXDXDXDXDXDXDXDXDXDXDXDXDXDXDXDXDXDXDXDXDXDXDXDXDXDXDXDXDXDXDXDXDXDXDXDXDXDXDXDXDXDXDXDXDXDXDXDXDXDXDXDXDXDXDXDXDXDXDXDXDXDXDXDXDXDXDXDXDXDXDXDXDXDXDXDXDXDXDXDXDXDXDXDXDXDXDXDXDXDXDXDXDXDXDXDXDXDXDXDXDXDXDXDXDXDXDXDXDXDXDXDXDXDXDXDXDXDXDXDXDXDXDXDXDXDXDXDXDXDXDXDXDXDXDXDXDXDXDXDXDXDXDXDXDXDXDXDX",
"DXDXDXDXDXDXDXDXDXDXDXDXDXDXDXDXDXDXDXDXDXDXDXDXDXDXDXDXDXDXDXDXDXDXDXDXDXDXDXDXDXDXDXDXDXDXDXDXDXDXDXDXDXDXDXDXDXDXDXDXDXDXDXDXDXDXDXDXDXDXDXDXDXDXDXDXDXDXDXDXDXDXDXDXDXDXDXDXDXDXDXDXDXDXDXDXDXDXDXDXDXDXDXDXDXDXDXDXDXDXDXDXDXDXDXDXDXDXDXDXDXDXDXDXDXDXDXDXDXDXDXDXDXDXDXDXDXDXDXDXDXDXDXDXDXDXDXDXDXDXDXDXDXDXDXDXDXDXDXDXDXDXDXDXDXDXDXDXDXDXDXDXDXDXDXDXDXDXDXDXDXDXDXDXDXDXDXDXDXDXDXDXDXDXDXDXDXDXDXDXDXDXDXDXDXDXDXDXDXDXDXDXDXDXDXDXDXDXDXDXDXDXDXDXDXDXDXDXDXDXDXDXDXDXDXDXDXDXDXDXDXDXDXDXDXDXDXDXDXDXDXDXDXDXDXDX",
"DXDXDXDXDXDXDXDXDXDXDXDXDXDXDXDXDXDXDXDXDXDXDXDXDXDXDXDXDXDXDXDXDXDXDXDXDXDXDXDXDXDXDXDXDXDXDXDXDXDXDXDXDXDXDXDXDXDXDXDXDXDXDXDXDXDXDXDXDXDXDXDXDXDXDXDXDXDXDXDXDXDXDXDXDXDXDXDXDXDXDXDXDXDXDXDXDXDXDXDXDXDXDXDXDXDXDXDXDXDXDXDXDXDXDXDXDXDXDXDXDXDXDXDXDXDXDXDXDXDXDXDXDXDXDXDXDXDXDXDXDXDXDXDXDXDXDXDXDXDXDXDXDXDXDXDXDXDXDXDXDXDXDXDXDXDXDXDXDXDXDXDXDXDXDXDXDXDXDXDXDXDXDXDXDXDXDXDXDXDXDXDXDXDXDXDXDXDXDXDXDXDXDXDXDXDXDXDXDXDXDXDXDXDXDXDXDXDXDXDXDXDXDXDXDXDXDXDXDXDXDXDXDXDXDXDXDXDXDXDXDXDXDXDXDXDXDXDXDXDXDXDXDXDXDXDX",
"DXDXDXDXDXDXDXDXDXDXDXDXDXDXDXDXDXDXDXDXDXDXDXDXDXDXDXDXDXDXDXDXDXDXDXDXDXDXDXDXDXDXDXDXDXDXDXDXDXDXDXDXDXDXDXDXDXDXDXDXDXDXDXDXDXDXDXDXDXDXDXDXDXDXDXDXDXDXDXDXDXDXDXDXDXDXDXDXDXDXDXDXDXDXDXDXDXDXDXDXDXDXDXDXDXDXDXDXDXDXDXDXDXDXDXDXDXDXDXDXDXDXDXDXDXDXDXDXDXDXDXDXDXDXDXDXDXDXDXDXDXDXDXDXDXDXDXDXDXDXDXDXDXDXDXDXDXDXDXDXDXDXDXDXDXDXDXDXDXDXDXDXDXDXDXDXDXDXDXDXDXDXDXDXDXDXDXDXDXDXDXDXDXDXDXDXDXDXDXDXDXDXDXDXDXDXDXDXDXDXDXDXDXDXDXDXDXDXDXDXDXDXDXDXDXDXDXDXDXDXDXDXDXDXDXDXDXDXDXDXDXDXDXDXDXDXDXDXDXDXDXDXDXDXDXDX",
"DXDXDXDXDXDXDXDXDXDXDXDXDXDXDXDXDXDXDXDXDXDXDXDXDXDXDXDXDXDXDXDXDXDXDXDXDXDXDXDXDXDXDXDXDXDXDXDXDXDXDXDXDXDXDXDXDXDXDXDXDXDXDXDXDXDXDXDXDXDXDXDXDXDXDXDXDXDXDXDXDXDXDXDXDXDXDXDXDXDXDXDXDXDXDXDXDXDXDXDXDXDXDXDXDXDXDXDXDXDXDXDXDXDXDXDXDXDXDXDXDXDXDXDXDXDXDXDXDXDXDXDXDXDXDXDXDXDXDXDXDXDXDXDXDXDXDXDXDXDXDXDXDXDXDXDXDXDXDXDXDXDXDXDXDXDXDXDXDXDXDXDXDXDXDXDXDXDXDXDXDXDXDXDXDXDXDXDXDXDXDXDXDXDXDXDXDXDXDXDXDXDXDXDXDXDXDXDXDXDXDXDXDXDXDXDXDXDXDXDXDXDXDXDXDXDXDXDXDXDXDXDXDXDXDXDXDXDXDXDXDXDXDXDXDXDXDXDXDXDXDXDXDXDXDXDX",
"DXDXDXDXDXDXDXDXDXDXDXDXDXDXDXDXDXDXDXDXDXDXDXDXDXDXDXDXDXDXDXDXDXDXDXDXDXDXDXDXDXDXDXDXDXDXDXDXDXDXDXDXDXDXDXDXDXDXDXDXDXDXDXDXDXDXDXDXDXDXDXDXDXDXDXDXDXDXDXDXDXDXDXDXDXDXDXDXDXDXDXDXDXDXDXDXDXDXDXDXDXDXDXDXDXDXDXDXDXDXDXDXDXDXDXDXDXDXDXDXDXDXDXDXDXDXDXDXDXDXDXDXDXDXDXDXDXDXDXDXDXDXDXDXDXDXDXDXDXDXDXDXDXDXDXDXDXDXDXDXDXDXDXDXDXDXDXDXDXDXDXDXDXDXDXDXDXDXDXDXDXDXDXDXDXDXDXDXDXDXDXDXDXDXDXDXDXDXDXDXDXDXDXDXDXDXDXDXDXDXDXDXDXDXDXDXDXDXDXDXDXDXDXDXDXDXDXDXDXDXDXDXDXDXDXDXDXDXDXDXDXDXDXDXDXDXDXDXDXDXDXDXDXDXDXDX",
"DXDXDXDXDXDXDXDXDXDXDXDXDXDXDXDXDXDXDXDXDXDXDXDXDXDXDXDXDXDXDXDXDXDXDXDXDXDXDXDXDXDXDXDXDXDXDXDXDXDXDXDXDXDXDXDXDXDXDXDXDXDXDXDXDXDXDXDXDXDXDXDXDXDXDXDXDXDXDXDXDXDXDXDXDXDXDXDXDXDXDXDXDXDXDXDXDXDXDXDXDXDXDXDXDXDXDXDXDXDXDXDXDXDXDXV V G +.:.,.@.1.#.] ) Q D D S ' ` @.,.' :.+.G G V V DXDXDXDXDXDXDXDXDXDXDXDXDXDXDXDXDXDXDXDXDXDXDXDXDXDXDXDXDXDXDXDXDXDXDXDXDXDXDXDXDXDXDXDXDXDXDXDXDXDXDXDXDXDXDXDXDXDXDXDXDXDXDXDXDXDXDXDXDXDXDXDXDXDXDXDXDXDXDXDXDXDXDXDXDXDXDXDXDXDXDXDXDXDXDXDXDXDXDXDXDXDXDXDXDXDXDXDXDXDXDXDXDXDXDX",
"DXDXDXDXDXDXDXDXDXDXDXDXDXDXDXDXDXDXDXDXDXDXDXDXDXDXDXDXDXDXDXDXDXDXDXDXDXDXDXDXDXDXDXDXDXDXDXDXDXDXDXDXDXDXDXDXDXDXDXDXDXDXDXDXDXDXDXDXDXDXDXDXDXDXDXDXDXDXDXDXDXDXDXDXDXDXDXDXDXDXDXDXDXDXDXDXDXDXDXDXDXDXDXDXDXDXDXDXV V +.@.,.D D D S D D Z D N D D N D D D D N N n N n N n N n C D H C b G G C V $ DXDXDXDXDXDXDXDXDXDXDXDXDXDXDXDXDXDXDXDXDXDXDXDXDXDXDXDXDXDXDXDXDXDXDXDXDXDXDXDXDXDXDXDXDXDXDXDXDXDXDXDXDXDXDXDXDXDXDXDXDXDXDXDXDXDXDXDXDXDXDXDXDXDXDXDXDXDXDXDXDXDXDXDXDXDXDXDXDXDXDXDXDXDXDXDXDXDXDXDXDXDXDXDXDXDXDXDX",
"DXDXDXDXDXDXDXDXDXDXDXDXDXDXDXDXDXDXDXDXDXDXDXDXDXDXDXDXDXDXDXDXDXDXDXDXDXDXDXDXDXDXDXDXDXDXDXDXDXDXDXDXDXDXDXDXDXDXDXDXDXDXDXDXDXDXDXDXDXDXDXDXDXDXDXDXDXDXDXDXDXDXDXDXDXDXDXDXDXDXDXDXDXDXDXDXDXDXDXDXDXDXDXV G :.,.C S D D D D D D Z D A D D D D D D D D Z D D D D D D D D N D N n n N n D n N N n C H F G V V DXDXDXDXDXDXDXDXDXDXDXDXDXDXDXDXDXDXDXDXDXDXDXDXDXDXDXDXDXDXDXDXDXDXDXDXDXDXDXDXDXDXDXDXDXDXDXDXDXDXDXDXDXDXDXDXDXDXDXDXDXDXDXDXDXDXDXDXDXDXDXDXDXDXDXDXDXDXDXDXDXDXDXDXDXDXDXDXDXDXDXDXDXDXDXDXDXDXDXDXDXDXDX",
"DXDXDXDXDXDXDXDXDXDXDXDXDXDXDXDXDXDXDXDXDXDXDXDXDXDXDXDXDXDXDXDXDXDXDXDXDXDXDXDXDXDXDXDXDXDXDXDXDXDXDXDXDXDXDXDXDXDXDXDXDXDXDXDXDXDXDXDXDXDXDXDXDXDXDXDXDXDXDXDXDXDXDXDXDXDXDXDXDXDXDXDXDXDXDXDXDXDXDXV :.` @.C D D A A D A D S D S D S D A D A D D D D Z A D D D D N D D D N D N D D N N N C N N D n n D b n b H F G V V DXDXDXDXDXDXDXDXDXDXDXDXDXDXDXDXDXDXDXDXDXDXDXDXDXDXDXDXDXDXDXDXDXDXDXDXDXDXDXDXDXDXDXDXDXDXDXDXDXDXDXDXDXDXDXDXDXDXDXDXDXDXDXDXDXDXDXDXDXDXDXDXDXDXDXDXDXDXDXDXDXDXDXDXDXDXDXDXDXDXDXDXDXDXDXDXDXDXDX",
"DXDXDXDXDXDXDXDXDXDXDXDXDXDXDXDXDXDXDXDXDXDXDXDXDXDXDXDXDXDXDXDXDXDXDXDXDXDXDXDXDXDXDXDXDXDXDXDXDXDXDXDXDXDXDXDXDXDXDXDXDXDXDXDXDXDXDXDXDXDXDXDXDXDXDXDXDXDXDXDXDXDXDXDXDXDXDXDXDXDXDXDXDXDXDXDXG :.<.C C D D A D A D S S D N S S A A S A A A A S D S D A Z D D Z D Z Z Z Z Z D D N N N N N N N D B n C n n n C n n b H c F G V DXDXDXDXDXDXDXDXDXDXDXDXDXDXDXDXDXDXDXDXDXDXDXDXDXDXDXDXDXDXDXDXDXDXDXDXDXDXDXDXDXDXDXDXDXDXDXDXDXDXDXDXDXDXDXDXDXDXDXDXDXDXDXDXDXDXDXDXDXDXDXDXDXDXDXDXDXDXDXDXDXDXDXDXDXDXDXDXDXDXDXDXDXDXDXDX",
"DXDXDXDXDXDXDXDXDXDXDXDXDXDXDXDXDXDXDXDXDXDXDXDXDXDXDXDXDXDXDXDXDXDXDXDXDXDXDXDXDXDXDXDXDXDXDXDXDXDXDXDXDXDXDXDXDXDXDXDXDXDXDXDXDXDXDXDXDXDXDXDXDXDXDXDXDXDXDXDXDXDXDXDXDXDXDXDXDXDXDXDXV :.,.C D D A D A D A S D S S A A S A A A A A S S S A D S S S S A D S S A A D D D Z D Z D D N D D N D N D N D N B D C D n n n n n b b c c G V $ DXDXDXDXDXDXDXDXDXDXDXDXDXDXDXDXDXDXDXDXDXDXDXDXDXDXDXDXDXDXDXDXDXDXDXDXDXDXDXDXDXDXDXDXDXDXDXDXDXDXDXDXDXDXDXDXDXDXDXDXDXDXDXDXDXDXDXDXDXDXDXDXDXDXDXDXDXDXDXDXDXDXDXDXDXDXDXDXDXDXDXDX",
"DXDXDXDXDXDXDXDXDXDXDXDXDXDXDXDXDXDXDXDXDXDXDXDXDXDXDXDXDXDXDXDXDXDXDXDXDXDXDXDXDXDXDXDXDXDXDXDXDXDXDXDXDXDXDXDXDXDXDXDXDXDXDXDXDXDXDXDXDXDXDXDXDXDXDXDXDXDXDXDXDXDXDXDXDXDXDXDXDXDXG :.C C D D D A S S S S A S S S A A S S S S S S A F @.,.,.9.9.9.8.9.8.8.8.8.8.8.8.9.6.6.6.,.6.@.@.@.@.G ^ A D N D N N N N n C N n n D n n N b H H c F V DXDXDXDXDXDXDXDXDXDXDXDXDXDXDXDXDXDXDXDXDXDXDXDXDXDXDXDXDXDXDXDXDXDXDXDXDXDXDXDXDXDXDXDXDXDXDXDXDXDXDXDXDXDXDXDXDXDXDXDXDXDXDXDXDXDXDXDXDXDXDXDXDXDXDXDXDXDXDXDXDXDXDXDXDXDXDXDXDXDX",
"DXDXDXDXDXDXDXDXDXDXDXDXDXDXDXDXDXDXDXDXDXDXDXDXDXDXDXDXDXDXDXDXDXDXDXDXDXDXDXDXDXDXDXDXDXDXDXDXDXDXDXDXDXDXDXDXDXDXDXDXDXDXDXDXDXDXDXDXDXDXDXDXDXDXDXDXDXDXDXDXDXDXDXDXDXDXDXV +.` C S S D S S S S S S S S S A ^ ^ S A S ` 9.9.8.p.p.p.p.p.t.p.p.x.8.8.t.8.8.9.9.9.9.9.9.6.9.6.9.6.,.,.,.,.1.@.@.` _ G ^ A N N N N N N B n C n n b n b b c C C V DXDXDXDXDXDXDXDXDXDXDXDXDXDXDXDXDXDXDXDXDXDXDXDXDXDXDXDXDXDXDXDXDXDXDXDXDXDXDXDXDXDXDXDXDXDXDXDXDXDXDXDXDXDXDXDXDXDXDXDXDXDXDXDXDXDXDXDXDXDXDXDXDXDXDXDXDXDXDXDXDXDXDXDXDXDXDX",
"DXDXDXDXDXDXDXDXDXDXDXDXDXDXDXDXDXDXDXDXDXDXDXDXDXDXDXDXDXDXDXDXDXDXDXDXDXDXDXDXDXDXDXDXDXDXDXDXDXDXDXDXDXDXDXDXDXDXDXDXDXDXDXDXDXDXDXDXDXDXDXDXDXDXDXDXDXDXDXDXDXDXDXDXDXG ,.C S A D S D F F F S S S S S S S S G ,.8.p.a.a.a.a.a.a.f.p.p.p.t.p.8.p.t.t.8.8.8.9.8.6.6.6.,.6.,.,.@.,.,.,.,.,.,.,.,.@.@.@.@.@._ ' F F N D N n n N n C n n n n b H c C V DXDXDXDXDXDXDXDXDXDXDXDXDXDXDXDXDXDXDXDXDXDXDXDXDXDXDXDXDXDXDXDXDXDXDXDXDXDXDXDXDXDXDXDXDXDXDXDXDXDXDXDXDXDXDXDXDXDXDXDXDXDXDXDXDXDXDXDXDXDXDXDXDXDXDXDXDXDXDXDXDXDXDXDXDX",
"DXDXDXDXDXDXDXDXDXDXDXDXDXDXDXDXDXDXDXDXDXDXDXDXDXDXDXDXDXDXDXDXDXDXDXDXDXDXDXDXDXDXDXDXDXDXDXDXDXDXDXDXDXDXDXDXDXDXDXDXDXDXDXDXDXDXDXDXDXDXDXDXDXDXDXDXDXDXDXDXDXDXV :.@.C S S S S S S F S F F F F F F F 9.8.a.s.l.s.s.s.a.h.a.a.p.p.p.p.x.t.8.8.8.8.9.9.8.6.6.9.,.,.6.,.,.,.@.@.,.@.@.@.@.,.` ` @.@.@._ @.` _ @.G ' F ^ F N n B n n n C b n b b H c C C V DXDXDXDXDXDXDXDXDXDXDXDXDXDXDXDXDXDXDXDXDXDXDXDXDXDXDXDXDXDXDXDXDXDXDXDXDXDXDXDXDXDXDXDXDXDXDXDXDXDXDXDXDXDXDXDXDXDXDXDXDXDXDXDXDXDXDXDXDXDXDXDXDXDXDXDXDXDXDXDXDXDX",
"DXDXDXDXDXDXDXDXDXDXDXDXDXDXDXDXDXDXDXDXDXDXDXDXDXDXDXDXDXDXDXDXDXDXDXDXDXDXDXDXDXDXDXDXDXDXDXDXDXDXDXDXDXDXDXDXDXDXDXDXDXDXDXDXDXDXDXDXDXDXDXDXDXDXDXDXDXDXDXDXG :.C F S D S S S F S S S F F F F @.9.p.s.wXs.s.s.s.s.s.s.a.p.p.p.p.p.8.p.t.t.8.8.8.9.6.9.9.6.,.<.,.` ' _ ' ^ ^ ^ S Q Q Q S S S F F G _ ' _ G @.@._ ' _ ' _ G F F N n n N n n B n n b b c $ C V DXDXDXDXDXDXDXDXDXDXDXDXDXDXDXDXDXDXDXDXDXDXDXDXDXDXDXDXDXDXDXDXDXDXDXDXDXDXDXDXDXDXDXDXDXDXDXDXDXDXDXDXDXDXDXDXDXDXDXDXDXDXDXDXDXDXDXDXDXDXDXDXDXDXDXDXDXDXDXDX",
"DXDXDXDXDXDXDXDXDXDXDXDXDXDXDXDXDXDXDXDXDXDXDXDXDXDXDXDXDXDXDXDXDXDXDXDXDXDXDXDXDXDXDXDXDXDXDXDXDXDXDXDXDXDXDXDXDXDXDXDXDXDXDXDXDXDXDXDXDXDXDXDXDXDXDXDXDXDXG ,.C C S S S F F S F F F F F F %.9.a.s.wXZ.#X#Xs.#Xa.%Xj.a.a.p.p.p.p.p.8.t.8.8.9.9.6.,.` ' Q Q Q Q S Q ! Q Q Q Q Q S Q Q Q S Q S Q A ! A A A Z A Z N S F ^ ' ' ' ' ' ^ F F D N N b n b b b b b c $ C V DXDXDXDXDXDXDXDXDXDXDXDXDXDXDXDXDXDXDXDXDXDXDXDXDXDXDXDXDXDXDXDXDXDXDXDXDXDXDXDXDXDXDXDXDXDXDXDXDXDXDXDXDXDXDXDXDXDXDXDXDXDXDXDXDXDXDXDXDXDXDXDXDXDXDXDXDXDX",
"DXDXDXDXDXDXDXDXDXDXDXDXDXDXDXDXDXDXDXDXDXDXDXDXDXDXDXDXDXDXDXDXDXDXDXDXDXDXDXDXDXDXDXDXDXDXDXDXDXDXDXDXDXDXDXDXDXDXDXDXDXDXDXDXDXDXDXDXDXDXDXDXDXDXDXDXG :.V D F F F S F F F F F F F ` 9.a.Z.s.wXs.$X%XZ.l.s.s.a.j.a.a.a.p.p.p.t.8.9.9.,._ / Q Q Q Q { Q Q / Q Q Q ^ Q ^ ^ ^ Q Q Q Q Q Q Q Q Q Q Q ! ! Q A ! A A Z Z Z Z D D A S F ^ ^ ^ S A N n D B n n b m b c # C V DXDXDXDXDXDXDXDXDXDXDXDXDXDXDXDXDXDXDXDXDXDXDXDXDXDXDXDXDXDXDXDXDXDXDXDXDXDXDXDXDXDXDXDXDXDXDXDXDXDXDXDXDXDXDXDXDXDXDXDXDXDXDXDXDXDXDXDXDXDXDXDXDXDXDXDX",
"DXDXDXDXDXDXDXDXDXDXDXDXDXDXDXDXDXDXDXDXDXDXDXDXDXDXDXDXDXDXDXDXDXDXDXDXDXDXDXDXDXDXDXDXDXDXDXDXDXDXDXDXDXDXDXDXDXDXDXDXDXDXDXDXDXDXDXDXDXDXDXDXDXDXV 9.V S S S F S F F S S ^ F F ,.d.a.wXwXwX#X#X#X%Xl.l.s.s.s.a.p.p.p.p.8.8.6.,.^ { / ^ ^ / ^ / Q Q / ^ ^ ^ ' / ^ ' ^ ^ ^ ^ ^ / ^ ^ Q Q Q Q Q Q Q Q Q ! Q ! Q Q A A A A Z Z Z A Z N D A F S F S D N b b n b b N b c # C $ DXDXDXDXDXDXDXDXDXDXDXDXDXDXDXDXDXDXDXDXDXDXDXDXDXDXDXDXDXDXDXDXDXDXDXDXDXDXDXDXDXDXDXDXDXDXDXDXDXDXDXDXDXDXDXDXDXDXDXDXDXDXDXDXDXDXDXDXDXDXDXDXDXDX",
"DXDXDXDXDXDXDXDXDXDXDXDXDXDXDXDXDXDXDXDXDXDXDXDXDXDXDXDXDXDXDXDXDXDXDXDXDXDXDXDXDXDXDXDXDXDXDXDXDXDXDXDXDXDXDXDXDXDXDXDXDXDXDXDXDXDXDXDXDXDXDXDXV :.C C S S F S F F F S ^ ' ' 9.p.#X#XwXwX#Xs.wX#X#Xs.l.s.a.a.a.p.p.t.8.,.' ^ / / / { / / / { ^ { / ' ) ' / ' ^ / ^ ' { / / ^ ^ Q / ^ ^ ^ ^ ^ / ^ ^ Q Q Q Q A ! ! Q ! ! ! A A Z Z Z Z Z N N N N A A S D n n n n b b b H c c C $ DXDXDXDXDXDXDXDXDXDXDXDXDXDXDXDXDXDXDXDXDXDXDXDXDXDXDXDXDXDXDXDXDXDXDXDXDXDXDXDXDXDXDXDXDXDXDXDXDXDXDXDXDXDXDXDXDXDXDXDXDXDXDXDXDXDXDXDXDXDXDXDX",
"DXDXDXDXDXDXDXDXDXDXDXDXDXDXDXDXDXDXDXDXDXDXDXDXDXDXDXDXDXDXDXDXDXDXDXDXDXDXDXDXDXDXDXDXDXDXDXDXDXDXDXDXDXDXDXDXDXDXDXDXDXDXDXDXDXDXDXDXDXDXDX:.@.C S S S F S F ^ S ^ F ,.9.s.wXwX#XwXwX#X#XZ.s.s.a.s.a.a.p.p.t.9.,./ / ' ' { / ) ) ' / / ' ) ' / ) ' ' ) ) ' ^ ^ ' ' ' ' ' / ' ' ^ ) ' ' ^ / ^ ^ ^ ^ / ^ ^ Q Q Q Q Q Q Q Q ! Z Z A Z Z A Z Z Z D N N D D D N b n b b b b c c C V DXDXDXDXDXDXDXDXDXDXDXDXDXDXDXDXDXDXDXDXDXDXDXDXDXDXDXDXDXDXDXDXDXDXDXDXDXDXDXDXDXDXDXDXDXDXDXDXDXDXDXDXDXDXDXDXDXDXDXDXDXDXDXDXDXDXDXDXDXDXDX",
"DXDXDXDXDXDXDXDXDXDXDXDXDXDXDXDXDXDXDXDXDXDXDXDXDXDXDXDXDXDXDXDXDXDXDXDXDXDXDXDXDXDXDXDXDXDXDXDXDXDXDXDXDXDXDXDXDXDXDXDXDXDXDXDXDXDXDXDXDXV +.C C S S S F F ^ S F S ,.t.s.wX%XZ.#XwX#Xs.#Xa.#Xl.a.a.a.p.p.8.,.) ) ) ) ) ' / ) ) ) ^ / ' ) ' ) ) ) ) ) ) ) ) _ ) _ ' ' _ ' ' ' ) ) ' ' ) { ' ' / ^ / ^ ^ ^ ^ ^ { Q S Q Q Q A Q Q ! A A ! A N Z N N Z Z N N n N N B n n n b b b c # C H DXDXDXDXDXDXDXDXDXDXDXDXDXDXDXDXDXDXDXDXDXDXDXDXDXDXDXDXDXDXDXDXDXDXDXDXDXDXDXDXDXDXDXDXDXDXDXDXDXDXDXDXDXDXDXDXDXDXDXDXDXDXDXDXDXDXDXDXDX",
"DXDXDXDXDXDXDXDXDXDXDXDXDXDXDXDXDXDXDXDXDXDXDXDXDXDXDXDXDXDXDXDXDXDXDXDXDXDXDXDXDXDXDXDXDXDXDXDXDXDXDXDXDXDXDXDXDXDXDXDXDXDXDXDXDXDXDXDX:.C D S S F S F F F F F ,.t.%XwX#X#X@X#X#Xs.%X#Xa.a.a.a.a.p.8.9.' ) ' ' ' ' ' ) ' ) ) ) ) _ ) _ ' _ ' _ _ ) _ _ _ ) _ _ _ _ _ _ _ _ _ _ _ ' ) ' ) _ ) ) ) ' / ' ^ ' ^ / ' ^ ^ Q Q ^ Q A A Q Q Z Z ! Z Z Z N Z N N N n n C N n b n n C b b c # C DXDXDXDXDXDXDXDXDXDXDXDXDXDXDXDXDXDXDXDXDXDXDXDXDXDXDXDXDXDXDXDXDXDXDXDXDXDXDXDXDXDXDXDXDXDXDXDXDXDXDXDXDXDXDXDXDXDXDXDXDXDXDXDXDXDXDXDX",
"DXDXDXDXDXDXDXDXDXDXDXDXDXDXDXDXDXDXDXDXDXDXDXDXDXDXDXDXDXDXDXDXDXDXDXDXDXDXDXDXDXDXDXDXDXDXDXDXDXDXDXDXDXDXDXDXDXDXDXDXDXDXDXDXDXDXG ,.C Z S S S F S ^ F F ,.8.s.wX#X#X#X#X#X#Xl.s.h.a.a.a.p.p.8.,.' ' ) ) _ ) _ ) _ _ ' _ ) _ ) _ _ _ _ _ ` _ _ @._ _ _ @._ ` _ _ _ _ _ _ _ _ _ _ _ _ _ _ _ ' ' ' ' ' ' / ' ' ^ ^ ^ ^ ^ Q ^ ^ Q ! Q Q Q A ! A A Z Z Z Z N Z D N n n N b B b b b b c # C V DXDXDXDXDXDXDXDXDXDXDXDXDXDXDXDXDXDXDXDXDXDXDXDXDXDXDXDXDXDXDXDXDXDXDXDXDXDXDXDXDXDXDXDXDXDXDXDXDXDXDXDXDXDXDXDXDXDXDXDXDXDXDXDXDXDX",
"DXDXDXDXDXDXDXDXDXDXDXDXDXDXDXDXDXDXDXDXDXDXDXDXDXDXDXDXDXDXDXDXDXDXDXDXDXDXDXDXDXDXDXDXDXDXDXDXDXDXDXDXDXDXDXDXDXDXDXDXDXDXDXDXDX:.C D S S F S F F ^ F F t.s.Z.#X#X#X#Xs.#Xs.s.s.a.a.a.p.p.9.) ' _ ' _ ' _ _ ) ) _ _ ' ' _ _ _ ` ) ` ` ` ` ` ` ` ` ` ` ` ` ` ` @._ _ ` ` ` ` ` ` _ ` ` ` ' ` ' ' ' ' ' _ ' _ ' ' ) / ' / ^ ^ Q ^ Q S Q Q ! A A A ! ! Z N N Z N N n n n n n n b b b b H c # V DXDXDXDXDXDXDXDXDXDXDXDXDXDXDXDXDXDXDXDXDXDXDXDXDXDXDXDXDXDXDXDXDXDXDXDXDXDXDXDXDXDXDXDXDXDXDXDXDXDXDXDXDXDXDXDXDXDXDXDXDXDXDXDXDX",
"DXDXDXDXDXDXDXDXDXDXDXDXDXDXDXDXDXDXDXDXDXDXDXDXDXDXDXDXDXDXDXDXDXDXDXDXDXDXDXDXDXDXDXDXDXDXDXDXDXDXDXDXDXDXDXDXDXDXDXDXDXDXDXV ,.C D A S F F ^ ^ F ^ 9.d.wXwXwX@X%X#X#Xs.s.s.a.a.p.p.8.,.) _ _ _ _ ) _ _ ) _ _ _ _ _ _ _ ` ` ` ` ` ` ` ` ` ` ] ` ] ] ] ] ` ` ] #.@.` ] #.` ` ` ` ` ` ` ` ` ` ` ` ` ` ' _ _ ' ' ' ' ' ' ) { ' ^ ^ ^ ^ ^ Q S Q Q ! A A A A Z Z Z D N N N n n n n n b b b b c c C c DXDXDXDXDXDXDXDXDXDXDXDXDXDXDXDXDXDXDXDXDXDXDXDXDXDXDXDXDXDXDXDXDXDXDXDXDXDXDXDXDXDXDXDXDXDXDXDXDXDXDXDXDXDXDXDXDXDXDXDXDXDXDX",
"DXDXDXDXDXDXDXDXDXDXDXDXDXDXDXDXDXDXDXDXDXDXDXDXDXDXDXDXDXDXDXDXDXDXDXDXDXDXDXDXDXDXDXDXDXDXDXDXDXDXDXDXDXDXDXDXDXDXDXDXDXDX+.C C S S F F ^ F F S ,.p.wXwXwXwXwX#Xl.s.s.a.a.a.p.p.t.1._ ` ) _ ' _ _ _ _ _ _ _ _ _ _ ` ` ] ` ` ` ` ` ` ] ` ` ] #.] #.` @.<.@.#.@.#.#.#.@.@.] @.#.@.` ` ` #.@.` ` ` ` ` _ _ _ _ ` _ _ ' _ ) ) ' / ^ ^ ^ ^ ^ ^ Q S ! A ! ! ! Z Z Z D Z N N N n n n b n m b b b c c # V DXDXDXDXDXDXDXDXDXDXDXDXDXDXDXDXDXDXDXDXDXDXDXDXDXDXDXDXDXDXDXDXDXDXDXDXDXDXDXDXDXDXDXDXDXDXDXDXDXDXDXDXDXDXDXDXDXDXDXDXDXDX",
"DXDXDXDXDXDXDXDXDXDXDXDXDXDXDXDXDXDXDXDXDXDXDXDXDXDXDXDXDXDXDXDXDXDXDXDXDXDXDXDXDXDXDXDXDXDXDXDXDXDXDXDXDXDXDXDXDXDXDXDXV :.C S S F F S F F ^ F 9.s.wXwXwXwXs.wX%Xl.s.a.p.p.p.t.,._ _ _ ) ` ` _ _ _ ` _ _ _ ` _ ` ] ] ` ] ` ] #.#.` #.@.` <.@.#.<.@.<.@.#.#.#.@.#.,.#.#.#.@.<.@.@.#.<.` @.` @.` ` ` ` ` ` ` _ _ _ ' _ _ _ ' ) ' ) ) / { / Q ^ ^ { ! S A ! A Z Z Z Z N N N N N n n n n m b b b b c # H $ DXDXDXDXDXDXDXDXDXDXDXDXDXDXDXDXDXDXDXDXDXDXDXDXDXDXDXDXDXDXDXDXDXDXDXDXDXDXDXDXDXDXDXDXDXDXDXDXDXDXDXDXDXDXDXDXDXDXDXDX",
"DXDXDXDXDXDXDXDXDXDXDXDXDXDXDXDXDXDXDXDXDXDXDXDXDXDXDXDXDXDXDXDXDXDXDXDXDXDXDXDXDXDXDXDXDXDXDXDXDXDXDXDXDXDXDXDXDXDXDXV :.C A S F F F ^ F F ,.d.wXwX#X#X#X#Xl.s.l.a.a.p.p.t.9._ _ _ _ _ _ ) _ _ ` _ ` ` ` _ ` ] ] ` #.] @.#.#.#.#.<.] <.<.@.<.@.<.@.<.<.<.<.@.<.#.,.,.#.#.#.@.#.<.@.<.@.#.#.#.#.` ` ` <.] ` ] ` ] _ _ _ _ _ ) _ ) ' ) ) / / ^ ^ ^ Q Q Q S S A ! ! Z Z Z N N N N N n n n m b b b n c c C $ DXDXDXDXDXDXDXDXDXDXDXDXDXDXDXDXDXDXDXDXDXDXDXDXDXDXDXDXDXDXDXDXDXDXDXDXDXDXDXDXDXDXDXDXDXDXDXDXDXDXDXDXDXDXDXDXDXDXDX",
"DXDXDXDXDXDXDXDXDXDXDXDXDXDXDXDXDXDXDXDXDXDXDXDXDXDXDXDXDXDXDXDXDXDXDXDXDXDXDXDXDXDXDXDXDXDXDXDXDXDXDXDXDXDXDXDXDXDX:.G D A S F F F Q F F t.s.wXwXwX#X%X#X#Xs.s.a.p.p.p.8._ _ _ _ ) @._ #.@._ #.` ` ` _ ` #.] ] ] #.#.@.#.#.@.#.<.@.#.<.<.<.<.<.<.<.<.<.<.<.<.<.4.#.<.<.<.<.<.<.<.<.<.<.#.@.#.<.<.#.<.` @.#.@.] ] ` ` ` _ _ _ _ _ ) _ ' ' / ^ / ^ Q Q Q Q Q ! A ! Z Z Z Z N N N N N n n n m n b b b b # c V DXDXDXDXDXDXDXDXDXDXDXDXDXDXDXDXDXDXDXDXDXDXDXDXDXDXDXDXDXDXDXDXDXDXDXDXDXDXDXDXDXDXDXDXDXDXDXDXDXDXDXDXDXDXDXDXDXDX",
"DXDXDXDXDXDXDXDXDXDXDXDXDXDXDXDXDXDXDXDXDXDXDXDXDXDXDXDXDXDXDXDXDXDXDXDXDXDXDXDXDXDXDXDXDXDXDXDXDXDXDXDXDXDXDXDXDX+.V A S S F F F ' F ,.a.wXwXwXwX%X#X#Xl.s.a.p.p.p.8.{ ] { _ _ ) @._ @._ #._ _ _ ] ] ] ] #.#.@.] #.#.<.@.#.<.4.<.<.<.<.<.<.1.<.<.<.<.<.1.,.<.<.4.1.<.<.<.<.1.<.<.<.<.<.<.<.<.<.,.#.` <.<.] ] @.` ` ` ] ` ` ` _ _ _ _ ' ' ' ) / / ^ Q ^ Q Q Q Q A A ! Z Z Z Z N N D n N m n n n b b b c c # H DXDXDXDXDXDXDXDXDXDXDXDXDXDXDXDXDXDXDXDXDXDXDXDXDXDXDXDXDXDXDXDXDXDXDXDXDXDXDXDXDXDXDXDXDXDXDXDXDXDXDXDXDXDXDXDXDX",
"DXDXDXDXDXDXDXDXDXDXDXDXDXDXDXDXDXDXDXDXDXDXDXDXDXDXDXDXDXDXDXDXDXDXDXDXDXDXDXDXDXDXDXDXDXDXDXDXDXDXDXDXDXDXDX$ G C D S S F F F F F 9.s.wXwXwXwXwXZ.#X#Xs.a.p.p.x.@.` _ ` _ ` ` #._ @._ #._ #._ ] ] @.#.@.#.#.#.#.@.<.<.<.4.<.4.<.<.1.<.1.1.4.1.1.1.<.,.1.1.1.1.4.<.1.1.1.1.,.4.1.<.<.<.<.<.<.,.<.<.<.<.<.<.` <.<.` #.@.] ` ` ` ` _ _ ' ' ' ) ) / ' ) Q Q { Q Q Q Q A A ! Z Z N D n n n n n n b n b n b b c # C DXDXDXDXDXDXDXDXDXDXDXDXDXDXDXDXDXDXDXDXDXDXDXDXDXDXDXDXDXDXDXDXDXDXDXDXDXDXDXDXDXDXDXDXDXDXDXDXDXDXDXDXDXDXDXDX",
"DXDXDXDXDXDXDXDXDXDXDXDXDXDXDXDXDXDXDXDXDXDXDXDXDXDXDXDXDXDXDXDXDXDXDXDXDXDXDXDXDXDXDXDXDXDXDXDXDXDXDXDXDXDXV :.C S S F F ^ S ^ F t.wXwXwXwX#X#XZ.l.s.a.a.p.p.8._ _ _ _ ` ` ` ` ` _ #._ @.#.#.#.#.#.@.#.#.@.$.<.<.<.<.<.<.<.1.1.1.1.1.1.1.,.3.1.,.3.1.1.1.1.1.3.3.1.3.1.1.1.1.6.1.1.1.1.1.1.1.1.1.<.<.,.<.<.<.,.<.@.#.@.@.@.` ] ` ` _ _ _ _ ) _ ' ' / { / ^ ^ Q Q Q Q ! A Z A Z Z n Z n N n n n n b b b b b c # B $ DXDXDXDXDXDXDXDXDXDXDXDXDXDXDXDXDXDXDXDXDXDXDXDXDXDXDXDXDXDXDXDXDXDXDXDXDXDXDXDXDXDXDXDXDXDXDXDXDXDXDXDXDXDX",
"DXDXDXDXDXDXDXDXDXDXDXDXDXDXDXDXDXDXDXDXDXDXDXDXDXDXDXDXDXDXDXDXDXDXDXDXDXDXDXDXDXDXDXDXDXDXDXDXDXDXDXDXDXV @.C S F F F F S S ,.a.rXwXwXwXwX#X#X%Xs.a.p.p.t.@._ _ ] _ @.` ` ` ` ` #.@.#.#.#._ #.#.#.#.#.#.1.<.<.<.1.<.1.1.1.1.1.,.1.1.1.3.3.3.1.3.3.3.3.3.3.3.3.6.3.3.3.3.3.3.3.3.3.3.3.3.,.3.1.,.3.1.1.<.<.<.<.<.<.<.<.<.#.#.@.#.` ] ] ` ` _ ' _ ' ) ) ^ / ^ Q ^ Q Q Q Q ! ! Z ! ! Z n n n Z n n m n m b b b c # C c DXDXDXDXDXDXDXDXDXDXDXDXDXDXDXDXDXDXDXDXDXDXDXDXDXDXDXDXDXDXDXDXDXDXDXDXDXDXDXDXDXDXDXDXDXDXDXDXDXDXDXDXDX",
"DXDXDXDXDXDXDXDXDXDXDXDXDXDXDXDXDXDXDXDXDXDXDXDXDXDXDXDXDXDXDXDXDXDXDXDXDXDXDXDXDXDXDXDXDXDXDXDXDXDXDXDXG :.C S S F F F F F 9.a.wXqXwX#XwX#X%Xl.j.a.p.p.9._ _ _ _ _ #._ ] ` ] @.] #.#.] @.#.#.#.#.#.<.#.#.1.<.1.1.1.3.%.3.4.3.1.3.3.3.3.6.3.3.3.3.3.3.5.3.3.3.5.1.3.3.3.3.5.3.3.3.3.3.5.3.1.3.3.3.3.1.,.1.1.1.,.<.<.<.@.<.<.@.#.#.@.` @.` ` _ ` _ ' ' ) ) ^ / / Q Q Q Q Q Q A Z Z Z N Z ! n n n n n b b b b b b c c C c DXDXDXDXDXDXDXDXDXDXDXDXDXDXDXDXDXDXDXDXDXDXDXDXDXDXDXDXDXDXDXDXDXDXDXDXDXDXDXDXDXDXDXDXDXDXDXDXDXDXDXDX",
"DXDXDXDXDXDXDXDXDXDXDXDXDXDXDXDXDXDXDXDXDXDXDXDXDXDXDXDXDXDXDXDXDXDXDXDXDXDXDXDXDXDXDXDXDXDXDXDXDXDXDXG G C S S F S S F ^ 6.Z.wXwXwXwX#XZ.%Xl.a.a.p.p.<._ _ ] @.#.#.] @.@.` ] #.] #.#.] #.#.#.#.#.4.<.<.1.#.1.1.3.$.,.o.%.2.3.3.3.3.3.3.3.3.3.3.3.3.5.3.6.5.6.5.5.5.5.6.5.3.3.5.3.6.3.6.3.6.3.3.3.3.3.3.3.1.1.1.1.,.<.<.<.<.<.<.#.#.#.] ] ` ` _ ] ` _ _ ) ) ) ^ ) Q / Q Q Q Q ! Z ! ! N ! N Z n n n n n n b b b b c # H V DXDXDXDXDXDXDXDXDXDXDXDXDXDXDXDXDXDXDXDXDXDXDXDXDXDXDXDXDXDXDXDXDXDXDXDXDXDXDXDXDXDXDXDXDXDXDXDXDXDXDX",
"DXDXDXDXDXDXDXDXDXDXDXDXDXDXDXDXDXDXDXDXDXDXDXDXDXDXDXDXDXDXDXDXDXDXDXDXDXDXDXDXDXDXDXDXDXDXDXDXDXDXG G C S S F F F F S t.%XwXrXwX#XwX#Xs.l.a.p.p.8._ _ _ #.@._ @._ ] ` #.] #.#.#.#.#.#.#.#.#.1.<.<.<.1.1.1.1.2.#.%.A.M.x.*.3.3.3.3.3.5.3.3.7.3.5.5.5.5.5.5.5.5.5.5.5.5.5.3.5.5.5.3.5.5.8.6.5.3.3.3.3.3.3.3.3.6.3.1.1.4.1.1.<.<.<.<.,.#.@.#.#.#.` ` #._ _ _ ) ) ) / { Q Q Q Q Q Q A Z Z Z Z n n N n n n n b b b b b c c $ c DXDXDXDXDXDXDXDXDXDXDXDXDXDXDXDXDXDXDXDXDXDXDXDXDXDXDXDXDXDXDXDXDXDXDXDXDXDXDXDXDXDXDXDXDXDXDXDXDXDX",
"DXDXDXDXDXDXDXDXDXDXDXDXDXDXDXDXDXDXDXDXDXDXDXDXDXDXDXDXDXDXDXDXDXDXDXDXDXDXDXDXDXDXDXDXDXDXDXDXDXG V C S F S S Q F ^ p.#XrXqXwX#X#X#X#Xs.s.p.p.3._ _ @._ @._ #.#.@.] @.#.#.#.#.#.#.#.#.#.1.<.$.4.1.1.1.3.2.5.$.%.@.x.M.G %.$.3.6.5.5.5.8.3.7.5.5.5.7.5.5.5.w.5.8.5.8.5.7.3.7.5.8.8.5.5.3.3.5.8.5.5.5.3.3.3.3.3.3.3.3.1.1.1.1.<.<.<.<.#.#.#.@.#.#.` ` _ _ _ _ ) ) / / / ^ Q Q Q ! ! A ! Z Z ! N N N n n n n b m b b v c c # H DXDXDXDXDXDXDXDXDXDXDXDXDXDXDXDXDXDXDXDXDXDXDXDXDXDXDXDXDXDXDXDXDXDXDXDXDXDXDXDXDXDXDXDXDXDXDXDXDX",
"DXDXDXDXDXDXDXDXDXDXDXDXDXDXDXDXDXDXDXDXDXDXDXDXDXDXDXDXDXDXDXDXDXDXDXDXDXDXDXDXDXDXDXDXDXDXDXDXG C C S F S F F F ' p.wXwXwXwXwX#X#Xs.s.a.p.t.,._ _ _ @.` ` ` ] ] ` ] #.#.#.#.#.#.$.4.<.1.$.1.1.1.1.2.3.3.3.5.%.A.A.V.S.:.M.x.%.5.5.5.5.5.5.5.7.5.7.8.5.w.7.8.8.5.7.7.7.7.7.8.5.7.7.5.5.5.3.5.5.5.5.5.5.3.6.3.3.3.3.3.3.3.1.1.<.<.<.<.<.#.4.#.@.#.#._ _ _ _ _ _ ) ) ) / / ^ Q Q Q Q ! ! Z Z Z Z N n N n n n n b n b b v c # # V DXDXDXDXDXDXDXDXDXDXDXDXDXDXDXDXDXDXDXDXDXDXDXDXDXDXDXDXDXDXDXDXDXDXDXDXDXDXDXDXDXDXDXDXDXDXDXDX",
"DXDXDXDXDXDXDXDXDXDXDXDXDXDXDXDXDXDXDXDXDXDXDXDXDXDXDXDXDXDXDXDXDXDXDXDXDXDXDXDXDXDXDXDXDXDXDXG G C A F S F F F ' a.rXqXwXwXwX#XZ.s.a.a.p.8._ _ _ _ @.#.` #.` @.#.#.#.#.#.#.#.#.#.#.$.<.1.1.1.1.1.3.2.3.3.1.*.:.M.D.N.G.M.D.C.%.5.7.5.7.5.7.7.7.w.5.w.7.7.7.7.7.7.7.7.7.7.7.7.5.7.7.7.7.7.7.7.8.8.5.5.5.8.3.5.5.3.6.3.3.3.3.3.3.1.1.1.4.2.#.#.#.#.#.#.#.#.#._ _ _ ) / / / ^ ^ Q Q S Q Q ! ! Z Z n ! N n n n n n b b b v v v c # H DXDXDXDXDXDXDXDXDXDXDXDXDXDXDXDXDXDXDXDXDXDXDXDXDXDXDXDXDXDXDXDXDXDXDXDXDXDXDXDXDXDXDXDXDXDXDX",
"DXDXDXDXDXDXDXDXDXDXDXDXDXDXDXDXDXDXDXDXDXDXDXDXDXDXDXDXDXDXDXDXDXDXDXDXDXDXDXDXDXDXDXDXDXDXG +.V S A A F S F @.a.wXwXrXqX#X#X#Xs.a.p.p.8.' _ ` ` _ @.] ` #.` ] #.#.#.#.#.#.#.$.$.$.$.2.$.$.$.6.3.3.3.3.3.3.5.*.x.+.:.G.+.x.@.7.7.7.7.7.7.7.7.7.7.7.7.7.8.7.7.7.7.7.7.7.7.7.7.8.7.7.7.7.7.7.7.7.8.w.5.7.5.5.5.5.5.5.5.5.3.3.3.3.3.3.2.1.4.1.4.<.#.#.#.#.` ] ` ` _ _ _ ) ) / / ^ Q Q Q Q ! ! ! Z ! ! n n N m n m m m b b b v c c c V DXDXDXDXDXDXDXDXDXDXDXDXDXDXDXDXDXDXDXDXDXDXDXDXDXDXDXDXDXDXDXDXDXDXDXDXDXDXDXDXDXDXDXDXDXDX",
"DXDXDXDXDXDXDXDXDXDXDXDXDXDXDXDXDXDXDXDXDXDXDXDXDXDXDXDXDXDXDXDXDXDXDXDXDXDXDXDXDXDXDXDXDXV +.C S A F F S F @.d.wXwXwX#X#X#X%X#Xa.p.p.6._ _ ` ` ` @._ #.#.#.#.#.#.#.#.#.1.1.$.#.1.1.2.$.5.6.5.$.3.3.5.3.5.5.5.7.%.%.v.M.>.%.q.8.7.7.7.7.w.7.7.7.7.w.7.7.y.7.w.7.7.w.8.y.e.w.y.7.7.8.7.7.7.e.7.w.w.w.7.7.w.7.7.7.5.5.5.5.5.5.5.3.3.3.3.2.1.1.<.<.,.<.#.#.` #.` _ ` ` _ _ ) / / / / ^ Q Q Q ! Z ! ! n N ! n N n n n n m b b b v c # b $ DXDXDXDXDXDXDXDXDXDXDXDXDXDXDXDXDXDXDXDXDXDXDXDXDXDXDXDXDXDXDXDXDXDXDXDXDXDXDXDXDXDXDXDXDX",
"DXDXDXDXDXDXDXDXDXDXDXDXDXDXDXDXDXDXDXDXDXDXDXDXDXDXDXDXDXDXDXDXDXDXDXDXDXDXDXDXDXDXDXDXV +.C D A S S S F @.s.wXqXwXwX#X#Xl.l.a.p.p.<._ ` ` ` ` ` ` #.#.@.#.#.#.#.$.#.1.#.$.#.2.1.1.2.6.6.2.5.5.5.q.5.5.7.5.6.*.9.M.M.A.M.S.%.w.7.7.w.y.w.y.7.y.w.7.e.y.y.7.y.7.e.y.y.7.y.w.e.w.7.y.e.7.7.7.7.7.w.8.w.7.5.w.5.8.5.7.5.5.5.5.5.3.5.1.5.2.3.1.1.1.<.1.<.#.<.] <.<.` ` ` ` _ ) ' ' / ^ Q / ! Q ! A ! Z ! n N m N n m m n b b b v v c # C # DXDXDXDXDXDXDXDXDXDXDXDXDXDXDXDXDXDXDXDXDXDXDXDXDXDXDXDXDXDXDXDXDXDXDXDXDXDXDXDXDXDXDXDX",
"DXDXDXDXDXDXDXDXDXDXDXDXDXDXDXDXDXDXDXDXDXDXDXDXDXDXDXDXDXDXDXDXDXDXDXDXDXDXDXDXDXDXDX$ +.C C S S F F F @.d.wXwXrXwXwXZ.s.s.a.p.p.@._ _ ` ` _ ` ` #.` #.#.#.#.<.#.1.#.1.$.1.1.1.2.1.$.5.2.5.( $.&.~ &.[ ( q.0.%.N.m.C.B.A.M.V.*.e.q.( q.| ( e. .q.y.w.y.7.y.y.7.y.7.7.y.y.y.w.y.w.y.y.y.y.y.y.w.w.w.w.w.e.8.w.w.w.w.8.w.7.5.5.5.5.3.6.3.3.3.1.1.1.1.<.#.#.#.] ` ] ` ] _ _ _ ) ' { / ) Q Q Q S ! Z ! N ! Z Z n n n m n m b b b v v c # H # DXDXDXDXDXDXDXDXDXDXDXDXDXDXDXDXDXDXDXDXDXDXDXDXDXDXDXDXDXDXDXDXDXDXDXDXDXDXDXDXDXDXDX",
"DXDXDXDXDXDXDXDXDXDXDXDXDXDXDXDXDXDXDXDXDXDXDXDXDXDXDXDXDXDXDXDXDXDXDXDXDXDXDXDXDXDXDXG C C S S S S S G a.wXwXwX#X#XZ.s.s.a.p.8.@.) _ _ #._ _ _ #.] #.#.#.#.#.#.$.,.$.$.1.2.1.2.2.1.5.T ! ~ V.@.@.9X/ t.d.~ %.D M.N.M.M.M.M.v.%./ #.qX) qXqX~ qXt.( ) q.p.e.e.y.y.y.e.f.y.x.e.y.e.y.7.7.y.e.e.e.y.7.e.e.w.w.7.7.7.7.7.8.7.5.7.5.5.5.5.6.3.3.3.6.1.1.1.4.<.<.#.#.#.` ` ] _ _ _ ) / ) Q ^ / Q Q Q ! ! Z Z N N N L N n n m n b b b b v c # H DXDXDXDXDXDXDXDXDXDXDXDXDXDXDXDXDXDXDXDXDXDXDXDXDXDXDXDXDXDXDXDXDXDXDXDXDXDXDXDXDXDXDX",
"DXDXDXDXDXDXDXDXDXDXDXDXDXDXDXDXDXDXDXDXDXDXDXDXDXDXDXDXDXDXDXDXDXDXDXDXDXDXDXDXDXDXG C C A A F S F S d.rXwXwXwX#X#X#Xs.a.p.p._ ) _ @.@._ #.#.#.#.#.#.#.#.#.<.$.1.$.1.1.$.2.2.2.5.| ! uXMX0XVXNXbXVXjXCXVX7XNXtXv.S.A.S.C.n.x.BXxXjXVXvXBXVXlXBXbXtXNX9...e.f.y.y.y.y.7.y.y.y.y.y.y.f.y.f.e.p.7.y.y.y.7.w.y.e.w.7.7.7.7.7.7.7.w.7.5.5.5.5.3.3.1.5.1.2.2.1.<.<.#.#.] <.] ] ] _ _ ) [ ) / ^ Q Q Q S ! ! A ! Z N N N n n m m m m b v v c c # H DXDXDXDXDXDXDXDXDXDXDXDXDXDXDXDXDXDXDXDXDXDXDXDXDXDXDXDXDXDXDXDXDXDXDXDXDXDXDXDXDXDX",
"DXDXDXDXDXDXDXDXDXDXDXDXDXDXDXDXDXDXDXDXDXDXDXDXDXDXDXDXDXDXDXDXDXDXDXDXDXDXDXDXDXG V C A A A F S F p.wXwXwXwXwX#X#Xs.a.p.8.' ' _ @._ @._ #.] ] @.#.#.4.#.#.$.$.$.1.1.$.2.2.2.5.( d.>.VXVXAXCXbXuXmXA.CXBXpXmXbXB.m.M.M.M.A.0XNXNXpXCXpXAXZXpXBXkXmXBXtXqX8.e.e.y.y.y.y.f.e.f.y.e.y.y.e.e.f.7.f.y.7.7.y.e.x.y.w.y.7.e.7.7.7.7.8.7.5.5.5.5.5.5.3.3.1.3.1.1.1.4.<.<.#.#.] ] ] ] _ _ _ ) ) / Q Q Q Q ! ! ! Z Z L N L n n n m m b b b b v c # # H DXDXDXDXDXDXDXDXDXDXDXDXDXDXDXDXDXDXDXDXDXDXDXDXDXDXDXDXDXDXDXDXDXDXDXDXDXDXDXDXDX",
"DXDXDXDXDXDXDXDXDXDXDXDXDXDXDXDXDXDXDXDXDXDXDXDXDXDXDXDXDXDXDXDXDXDXDXDXDXDXDXDXV G C D A A F S F t.wXwXwXwXqXwX#Xs.a.p.t._ _ _ _ ) @._ #.#.#.#.#.#.#.#.#.4.4.4.1.$.1.6.2.5.6.} N VXCXiXiXB.8XSXpXjXiXjXiXpXjXpXvXA.A.A.N.H.cXiXiXpXzXpXiXkXiXjXpXiXiXVXCXvX( h.p.f.f.y.f.f.y.f.f.y.f.p.y.y.f.y.p.f.f.e.y.y.y.y.y.y.7.w.w.w.7.7.7.7.7.7.7.5.5.5.3.5.3.2.3.1.2.1.<.<.#.] ] ] ] ] _ ) ) ) / ) / Q Q ! A ! ! Z Z Z Z Z n m n m m m b v v v v # # c DXDXDXDXDXDXDXDXDXDXDXDXDXDXDXDXDXDXDXDXDXDXDXDXDXDXDXDXDXDXDXDXDXDXDXDXDXDXDXDX",
"DXDXDXDXDXDXDXDXDXDXDXDXDXDXDXDXDXDXDXDXDXDXDXDXDXDXDXDXDXDXDXDXDXDXDXDXDXDXDXV +.C N F D F S S 9.wXwXwXwXwXwXs.a.a.a.8.` ' ` ' _ _ #._ #.#._ #.#.<.<.$.$.#.4.4.1.2.2.$.~ ( 0.,.5XZXVXB.lXpXF.M.N.C.v.V.B.B.B.7XcXn.bXBXZ.F.gXB.B.qXC.C.v.S.G.M.pXiXSXzXVXkXqX&.u. . .g.g.g.f.y.f.y.f.y.f.y.y.y.f.y.y.y.p.e.y.e.p.e.e.7.y.7.y.8.7.7.7.7.7.5.5.5.5.3.3.3.3.2.1.1.<.<.<.#.#.@.] ` ` _ _ _ ) / / / Q Q ! ! ! ! Z N N N Z m n n m m b m v b v c # H $ DXDXDXDXDXDXDXDXDXDXDXDXDXDXDXDXDXDXDXDXDXDXDXDXDXDXDXDXDXDXDXDXDXDXDXDXDXDXDX",
"DXDXDXDXDXDXDXDXDXDXDXDXDXDXDXDXDXDXDXDXDXDXDXDXDXDXDXDXDXDXDXDXDXDXDXDXDXDXDXG C C S D S S S :.Z.wXqXwXwXwXs.s.a.p.8.' ' ` ` ` _ _ @.#.#._ #.#.#.#.#.#.4.#.4.4.5.R ~ ^ 8Xd.L NXBXiXv.gXm.M.O.%.%.*.%.*.*.&...O.cXM.nXCXH.F.tX&.*.*.%.-.-.*.%.x.N.M.pXvXv.VXBXqX .kXuX . .u.f.f.f.f.f.f.f.f.f.f.y.f.p.f.f.7.f.e.e.y.e.f.7.y.7.y.7.w.7.7.7.5.w.5.5.5.5.0.3.3.2.1.1.<.<.<.#.#.] ] ] _ _ [ ) ) / / / Q Q ! ! ! Z ! Z N n N n m m m b b b v v v c # H DXDXDXDXDXDXDXDXDXDXDXDXDXDXDXDXDXDXDXDXDXDXDXDXDXDXDXDXDXDXDXDXDXDXDXDXDXDXDX",
"DXDXDXDXDXDXDXDXDXDXDXDXDXDXDXDXDXDXDXDXDXDXDXDXDXDXDXDXDXDXDXDXDXDXDXDXDXDXG V C D D D S S @.s.#XrXwXwXwXs.s.a.p.t.' ' ' ` ` ` _ #._ @.#.#.#.#.#.4.$.<.4.$.3.| R qXvXfXVXNXo.iXVXpXcXM.N.%.%.e.e.e.y.w.q.t.q.>.AXM.pXMXS.F.jX .y.f.f.f.f.f.g.e.-.x.m.pXiXBXNXV.Z.BXBXiXMX[  .f.g.g.f.f.f.p.f.f.f.f.e.f.f.y.u.y.f.e.p.e.e.y.7.f.e.y.w.w.7.7.8.7.7.3.5.5.3.3.3.3.4.1.<.<.#.#.#.#.] ] _ _ [ ) ) / ) Q Q / ! ! ! Z L Z n L N n m m m b b v v v c c # c DXDXDXDXDXDXDXDXDXDXDXDXDXDXDXDXDXDXDXDXDXDXDXDXDXDXDXDXDXDXDXDXDXDXDXDXDXDX",
"DXDXDXDXDXDXDXDXDXDXDXDXDXDXDXDXDXDXDXDXDXDXDXDXDXDXDXDXDXDXDXDXDXDXDXDXDXV H C S D F S S S p.wXrX#XqXwXwXs.s.p.t.` _ _ ` _ ` _ ] _ $.#.#.#.#.#.#.#.#.4.4.1.;.:.>.bXCXiXiXiXN.zXkXC.AXn.%.-.w.7.w.e.w.w.w.u.r.>.AXN.BXVXpXF.8X( u.y.f.f.f.y.f.f.z.-.V.D.xXA.MXpXpXxXpXVXVX9XqXq.g.p.f.f.f.f.f.f.f.f.g.g.f.f.f.y.f.f.y.f.y.f.e.e.p.7.w.w.w.w.w.7.7.7.8.5.3.3.3.3.2.3.4.1.<.<.#.#.] ] ] _ _ _ ) ) / / Q Q Q ! ! ! ! Z Z N N n n n m m m b v v v c # # c DXDXDXDXDXDXDXDXDXDXDXDXDXDXDXDXDXDXDXDXDXDXDXDXDXDXDXDXDXDXDXDXDXDXDXDXDX",
"DXDXDXDXDXDXDXDXDXDXDXDXDXDXDXDXDXDXDXDXDXDXDXDXDXDXDXDXDXDXDXDXDXDXDXDX$ +.C D S S D S S t.rX#XwXrXwX%Xl.a.a.p.@._ _ _ ` _ ` ` _ #._ #.#.#.#.#.#.#.4.$.3.| L NXNXiXSXH.pXkXjXVXVXgXH.M.%.e.w.w.w.w.w.y.f.7.q.x.cXM.iXgXS.F.fX&.g.f.f.y.f.f.f.f.h.i.x.m.fXCXVXCXiXAXpXiXpXVXVXtX .h.g.g.f.j.f.f.f.f.p.f.f.f.f.p.f.f.y.f.e.y.e.e.e.e.7.y.7.e.7.7.7.5.5.5.3.7.3.3.3.2.2.4.4.4.<.#.] ] ] ] _ [ / ) ) / / / ! ! ! ! X.Z Z N L n N m n m m b b b v v c # v DXDXDXDXDXDXDXDXDXDXDXDXDXDXDXDXDXDXDXDXDXDXDXDXDXDXDXDXDXDXDXDXDXDXDXDXDX",
"DXDXDXDXDXDXDXDXDXDXDXDXDXDXDXDXDXDXDXDXDXDXDXDXDXDXDXDXDXDXDXDXDXDXDXDXG V C D D F F S 9.#XqXrXwX%XwX#Xs.p.x.<.' ' _ _ _ ` ` ` #.] #.#.#.#.#.#.<.4.4.1.[ Q B.bXCXB.iXzXV.V SXlXSXZ.pXM.%.e.w.w.e.w.w.y.7.y.-.x.AXM.VXCXpXF.lX .g.f.f.f.f.f.f.j.h.-.V.m.MXC.nXcXB.O.pXBXH.AXVXkXV.0.h.j.j.f.f.f.f.f.f.f.f.f.f.f.f.e.f.p.f.f.p.y.7.f.y.7.7.y.y.7.w.7.w.5.3.q.5.5.2.3.2.2.4.4.4.#.$.#.#.] _ _ [ _ ) ) Q Q / Q ! ! Z Z Z Z N N N m m m m b b b v v c c # c DXDXDXDXDXDXDXDXDXDXDXDXDXDXDXDXDXDXDXDXDXDXDXDXDXDXDXDXDXDXDXDXDXDXDXDX",
"DXDXDXDXDXDXDXDXDXDXDXDXDXDXDXDXDXDXDXDXDXDXDXDXDXDXDXDXDXDXDXDXDXDXDXV H C D S S D F @.a.wXqX#X#X#Xs.s.a.p.6.' _ _ _ ` ` ` ` ] ] #.#.#.#.#.<.#.4.$.$.1.L nXVXzXc.NXB.N } O.bXVXVXSXzXM.9.-.w.w.w.w.y.y.e.f.-.V.MXM.zXMXH.F.zX .i.f.f.f.f.j.u.f.j.=.G.F.vXmXVXCXiX .&.x.bXAXA.VXVX%Xq.h.g.h.h.p.f.f.h.f.j.f.f.f.f.f.f.f.y.y.f.y.f.y.y.y.y.7.e.e.w.w.w.7.7.3.7.3.3.2.2.2.1.2.4.$.#.#.] [ _ _ [ [ ) ( ) / / Q ! ! Z ! N Z Z N N N n m m m b b v v M c # # $ DXDXDXDXDXDXDXDXDXDXDXDXDXDXDXDXDXDXDXDXDXDXDXDXDXDXDXDXDXDXDXDXDXDXDX",
"DXDXDXDXDXDXDXDXDXDXDXDXDXDXDXDXDXDXDXDXDXDXDXDXDXDXDXDXDXDXDXDXDXDX$ +.H D D D D S S p.wXwXrX#X#XZ.s.a.p.9.) _ _ ' ' _ ` ` #.] #.@.#.#.#.$.#.<.$.1.#.3.X.qXVXiXbXB.~ 0.*.V.bXBXCXv.cXD.b.=.e.y.y.y.y.y.y.f.&.qXpXM.xXCXH.M.jXO.g.f.f.f.j.f.j.j.i.p.m.mXA.AXVXNXiX4.k.-.@.bXkXVXCX6.u.j.h.h.h.h.h.h.f.h.f.j.f.j.f.f.f.f.f.f.f.y.f.y.y.y.y.y.y.7.w.w.w.5.7.7.3.q.5.5.5.2.2.1.4.4.4.#.#.#.[ ] _ _ _ ) ) / / Q Q { ! ! X.Z Z Z L m m m m m m v v v v c c # b DXDXDXDXDXDXDXDXDXDXDXDXDXDXDXDXDXDXDXDXDXDXDXDXDXDXDXDXDXDXDXDXDXDXDX",
"DXDXDXDXDXDXDXDXDXDXDXDXDXDXDXDXDXDXDXDXDXDXDXDXDXDXDXDXDXDXDXDXDXDXG H C S S S D S 9.wXwXwXqX#X#X#Xs.p.8.' ' _ _ _ _ _ ` ] ] #.] #.#.#.#.#.<.<.4.#.1.$./ kXxXB.AX{ q.5.%.V.nXc.bXBX8XiXm.x.*.e.y.y.w.y.y.i.( AXpXS.VXVXAXM.NXZ.-.f.f.g.g.g.h.g.=.G.m.nXpXCXiXH.AX0.i.j.r.V.AXSXNXuX&.k.k.f.h.h.h.h.f.h.h.f.h.h.f.j.f.f.f.f.f.f.e.f.f.y.y.y.y.y.w.w.w.w.7.7.5.7.5.5.5.2.3.2.2.1.4.4.#.#.] [ ] _ [ [ ) / / / ! / ! ! ! Z ! L N N Z m m m m b b b b v c c # c DXDXDXDXDXDXDXDXDXDXDXDXDXDXDXDXDXDXDXDXDXDXDXDXDXDXDXDXDXDXDXDXDXDX",
"DXDXDXDXDXDXDXDXDXDXDXDXDXDXDXDXDXDXDXDXDXDXDXDXDXDXDXDXDXDXDXDXDXV V C D D D D S ,.s.wXwXwXZ.#X#Xa.p.8.' ' ' ' _ _ _ ] _ ` ] ] ] ] ] #.$.<.$.<.$.4.2.R &XVXVXjXB.[ 5.5.*.O.zXH.VXCXv.xXG.M.:.i.y.w.y.y.y.y.[ SXF.m.Z.A.H.D.pXB.i.f.h.f.h.h.k.-.C.m.nXA.nXVXVXpXpX*.k.$Xi.V.iXNXVXCX$.z.j.k.h.h.h.h.a.h.h.h.g.g.f.h.f.h.f.f.f.f.g.y.g.y.u.y.y.y.y.y.w.w.w.w.q.5.5.q.5.5.3.2.2.$.4.$.4.#.#.] ] [ _ ) ) ) / / / Q ! ! ! Z N Z N N m Z m m m m b b b v M c # # # DXDXDXDXDXDXDXDXDXDXDXDXDXDXDXDXDXDXDXDXDXDXDXDXDXDXDXDXDXDXDXDXDX",
"DXDXDXDXDXDXDXDXDXDXDXDXDXDXDXDXDXDXDXDXDXDXDXDXDXDXDXDXDXDXDXDXDXG H D D S S S S d.wXwXwXwXwXs.a.a.t.,.' ) _ _ _ _ _ _ _ ] ] ] ] [ #.] ] <.<.$.4.$.$.&.! lXlXB.pX~ q.5.q.! pXpXpXxXAXA.NXF.M.=.u.y.y.y.y.f.u.*.c.G.G.M.N.A.[ i.f.u.j.f.f.h.-.Z.m.nXAXpXMXmXA.NXV.i.z.Z.-.C.mXH.NXqX&.k.h.h.h.h.h.h.h.l.h.h.h.h.h.h.h.f.j.f.f.f.g.f.y.f.f.y.u.y.y.e.y.w.w.w.w.7.7.5.5.5.5.2.2.2.4.4.#.$.#.#.#.] [ ` [ ) / / / / Q ! ! ! L Z Z L n n n m m m b M b v v c c # H DXDXDXDXDXDXDXDXDXDXDXDXDXDXDXDXDXDXDXDXDXDXDXDXDXDXDXDXDXDXDXDXDX",
"DXDXDXDXDXDXDXDXDXDXDXDXDXDXDXDXDXDXDXDXDXDXDXDXDXDXDXDXDXDXDXDXV H C D D D D S 9.wXwXwXwXwXs.s.a.t.6./ ) ) ) _ ) [ ] _ [ ] ] ] ] #.#.#.$.#.$.<.$.4.1.$.! NXCXiXMXc.*.q.7.*.c.CXv.VXVXSXtXpXN.%.u.y.y.y.f.y.f.i.+XC.D.D.F.-.-.j.j.j.h.h.j.j.+XV.D.nXA.mXVXpXH.MX$.j.k.i.0.pXxXVXVXtX .l.l.l.h.k.l.h.h.h.h.k.h.h.h.h.h.g.h.g.f.h.g.f.f.f.f.f.y.y.y.y.w.y.y.w.w.7.q.7.5.q.5.5.3.2.1.4.4.#.#.] #.[ ` [ _ ) ) / / Q / ! ! ! ! Z Z Z Z L N m m b m b v b v M c # # c DXDXDXDXDXDXDXDXDXDXDXDXDXDXDXDXDXDXDXDXDXDXDXDXDXDXDXDXDXDXDXDX",
"DXDXDXDXDXDXDXDXDXDXDXDXDXDXDXDXDXDXDXDXDXDXDXDXDXDXDXDXDXDXDX$ G H Z D D D S G s.wXwXwXwX#Xs.a.p.8.^ ) ) _ ) _ _ [ _ _ %._ @.[ ] ] $.] $.] 4.4.2.$.2.&.S NXVXB.pXpXc.-.7.-.{ AXMXvXZ.N.v.m.=.-.t.f.u.-.i.h.-.d.d.=.D.G.C.=.V.=.j.+X-.i.h.j.+X+XZ.G.S.S.MXpXVXA.i.h.+X5.M.CXA.BXVXyX0.l.k.k.h.j.h.h.k.h.j.h.h.h.h.h.h.h.h.h.h.f.g.f.f.g.f.g.u.f.u.y.y.y.w.w.w.w.7.5.7.5.5.5.5.2.1.2.$.4.#.#.#.#.[ _ [ _ / / / ( / ! ! ! ! Z Z N Z m L n m m m b b v v v v c # v # DXDXDXDXDXDXDXDXDXDXDXDXDXDXDXDXDXDXDXDXDXDXDXDXDXDXDXDXDXDXDX",
"DXDXDXDXDXDXDXDXDXDXDXDXDXDXDXDXDXDXDXDXDXDXDXDXDXDXDXDXDXDXDXG H C D D A D S t.wXwXwX#Xs.s.a.p.t.^ / ) ) ) _ _ ] _ _ #.( #._ #.#.$.] $.#.$.4.[ $.&.2.3. .Z tXVXSXbXH.c.*.w.%.v.AXb.A.m.m.v.x.V.%.i.t.C.V.-.V.m.D.M.|.OXA.m.D.G.=.t.Z.Z.i.i.V.Z.V.D.m.F.A.pXpXx.i.$Xi.S.VXiXBXNXqX&.k.k.l.h.k.k.k.k.k.k.k.k.k.h.h.h.h.h.h.h.h.f.h.j.g.f.f.f.f.y.f.y.y.e.y.y.w.7.w.w.5.w.7.5.5.2.3.2.3.#.4.#.#.#.] _ ` _ ( _ / / / / ! / ! A ! L N N N n m m b m m b b v v c # # H DXDXDXDXDXDXDXDXDXDXDXDXDXDXDXDXDXDXDXDXDXDXDXDXDXDXDXDXDXDXDX",
"DXDXDXDXDXDXDXDXDXDXDXDXDXDXDXDXDXDXDXDXDXDXDXDXDXDXDXDXDXDXV V C D D Z A D ,.s.wX%X#X@Xs.s.d.p.,.^ ) / ) ) _ _ _ [ _ ] _ [ #.#.] $.$.#.$.$.$.$.$.2.2.2.3.X.zXCXBXv.CXG.@.q.i.%.~ V.J.G.E.B.M.m.M.=.Z.F.F.=.D.D.G.M.B.L.D.D.G.D.Z.Z.F.F.=.Z.G.D.m.].uXm.A.x.q.+Xk.-.C.NXAXpXVXVXt.r.l.k.k.k.k.k.k.h.k.k.k.h.k.k.k.h.k.h.h.j.h.j.f.j.f.g.f.f.f.y.y.f.y.y.y.w.y.7.w.7.w.q.5.5.5.5.5.2.1.1.#.4.$.#.] [ ` [ { _ ) / / ! Q ! { ! Z Z Z L n L m m m m b b b b v v c # # # DXDXDXDXDXDXDXDXDXDXDXDXDXDXDXDXDXDXDXDXDXDXDXDXDXDXDXDXDXDX",
"DXDXDXDXDXDXDXDXDXDXDXDXDXDXDXDXDXDXDXDXDXDXDXDXDXDXDXDXDXDXG H C D D Z A S d.wXwXZ.#X%Xs.a.p.6.' ^ ) ) ) _ _ _ _ _ _ ] ] #.( #.] #.#.#.$.$.$.4.$.2.$.$.5.( >.AXB.N.H.>.%.%.*.x.%.M.D.A.OX'.N.A.D.V.6.G.C.=.m.S.B.C.D.m.G.B.C.D.S.=.H.H.=.D.F.A.S.OX,XD.F.Z.s.qX+X+Xt.pXS.S.AXkXt.$Xk.k.k.k.@Xk.k.k.k.k.k.k.h.h.k.h.l.h.h.h.h.h.h.h.f.j.f.f.f.f.f.y.f.f.y.y.y.y.7.e.7.7.q.5.5.5.3.3.2.2.4.4.4.#.$.` ` [ ] _ ) ) ( Q Q ! ! L ! ! Z N Z N N m m m m M b M v v c c # c DXDXDXDXDXDXDXDXDXDXDXDXDXDXDXDXDXDXDXDXDXDXDXDXDXDXDXDXDXDX",
"DXDXDXDXDXDXDXDXDXDXDXDXDXDXDXDXDXDXDXDXDXDXDXDXDXDXDXDXDXV V H D D D D D 9.#XwX#X#Xs.s.p.p.8./ / ) ) ) ) _ _ _ _ _ [ [ #.[ #.#.$.#.$.[ 4.4.$.4.$.4.4.0.*.x.n.N.M.M.M.c.M.V.V.D.B.M.A.c.A.M.V.m.m.V.=.M.C.=.M.G.F.V.G.G.C.S.D.D.s.=.F.C.+XG.F.S.A.H.A.C.F.A.F.F.t.H.H.C.m.D.D.m.D.t.$X#Xj.$Xk.k.k.k.$Xk.k.k.k.k.k.k.j.j.k.j.h.h.h.h.h.f.f.f.f.f.f.u.f.p.y.y.y.y.y.w.w.7.w.5.5.5.0.3.3.3.<.4.4.$.<.] ] ] [ ) [ ) / / ^ Q ! Q ! ! Z Z Z L n m m m m m b b b M M c # # # DXDXDXDXDXDXDXDXDXDXDXDXDXDXDXDXDXDXDXDXDXDXDXDXDXDXDXDXDX",
"DXDXDXDXDXDXDXDXDXDXDXDXDXDXDXDXDXDXDXDXDXDXDXDXDXDXDXDXDXG H n D N D Z F a.#XwX#XZ.s.s.p.p.@.^ ' ^ ) ) _ ) _ [ _ #.#._ #._ #.#.] $.$.$.[ 4.4.$.4.0.2.2.2.2.,.%.O.B.B.M.M.M.B.A.c.V.m.m.C.m.C.B.Z.=.C.D.D.t.=.C.B.D.G.t.F.C.A.d.=.S.F.F.=.i.A.B.F.D.A.F.F.>.H.Z.F.F.D.F.SXC.i.+X#Xj.$X$X@Xj.k.@Xk.k.k.k.k.k.k.k.k.j.k.k.l.h.h.j.h.h.h.h.h.h.j.f.f.f.f.u.u.y.y.y.w.y.w.w.7.w.q.5.5.3.3.3.2.4.4.#.<.] ] [ _ [ ) ) / / / Q ~ ! ! N ! L N N m N m m b M m b v v v c # # H DXDXDXDXDXDXDXDXDXDXDXDXDXDXDXDXDXDXDXDXDXDXDXDXDXDXDXDXDX",
"DXDXDXDXDXDXDXDXDXDXDXDXDXDXDXDXDXDXDXDXDXDXDXDXDXDXDXDXV c C B D D A A 8.#X#XwX#X%Xs.p.p.9.^ ' / ) ) ) ) ) _ _ #._ _ #.#.#.#.#.] $.#.$.$.<.$.$.4.2.2.2.0.5.0.q.*.+.OXN.M.m.C.+.m.:.x.x.9.m.m.C.9.C.m.A.G.m.G.S.m.D.-.+XZ.D.G.H.F.F.A.F.F.s.Z.F.F.H.=.Z.=.H.H.=.D.F.F.aXOX-.$X$X$X@Xk.@X$X$Xk.h.k.k.l.l.k.k.l.k.k.k.$Xj.k.j.k.j.k.h.h.h.h.g.j.f.f.u.f.y.f.f.y.y.y.y.w.w.w.7.7.7.5.5.5.3.2.2.4.$.] $.$.] [ _ [ _ / / / / / ! ! ! Z Z Z N Z m L m m b m M b v v v c # # # DXDXDXDXDXDXDXDXDXDXDXDXDXDXDXDXDXDXDXDXDXDXDXDXDXDXDXDX",
"DXDXDXDXDXDXDXDXDXDXDXDXDXDXDXDXDXDXDXDXDXDXDXDXDXDXDXDXG H C D D Z D G s.#X#Xs.s.j.p.p.8.^ ^ ^ ' ' ) _ [ _ _ _ _ ) #.[ #.( #.#.$.#.#.$.<.$.$.0.2.2.0.3.3.5.5.5.w.-.:.n.M.V.*.%.m.m.C.x.D.m.V.m.m.D.C.%.=.B.S.S.C.d.Z.Z.l.V.A.G.A.B.=.p.G.F.F.Z.S.F.H.wXF.F.wX+XZ.A.F.H.i.$X$X#Xk.@X@Xk.#Xk.@X@X@X@X@Xk.@X@Xk.k.k.k.k.k.k.k.k.k.h.h.h.h.h.h.h.g.g.j.f.f.f.y.y.y.y.y.w.w.w.7.q.7.5.5.5.3.2.2.4.4.$.<.] ] ] [ _ [ ) / / ~ ! ! ! ! ! Z L Z Z m N m m m b m v v v M c c # c DXDXDXDXDXDXDXDXDXDXDXDXDXDXDXDXDXDXDXDXDXDXDXDXDXDXDXDX",
"DXDXDXDXDXDXDXDXDXDXDXDXDXDXDXDXDXDXDXDXDXDXDXDXDXDXDX$ V H D N N D A t.#X#X#XZ.s.a.p.t.@.^ / ' / ' ) ) _ _ _ _ [ _ _ #.[ #.#.#.[ $.$.<.$.$.$.4.4.0.3.0.3.5.5.q.q.7.*.V.M.C.%.V.m.C.M.m.m.V.9.V.A.A.C.S.M.G.A.S.S.G.M.G.G.G.S.S.H.G.G.H.C.H.A.Z.d.S.F.F.H.F.F.t.wXF.D.+X$X$Xk.eX@X@X@X@X@X@X@X@XeXk.@X@Xl.k.l.@X$X$X$Xj.k.k.k.k.k.h.k.h.h.h.h.f.h.g.f.f.f.f.y.f.e.f.e.e.w.w.w.7.w.3.3.0.3.2.4.4.<.<.] ] ] ] [ _ ) [ / Q ~ / ! ! Z ! Z Z Z n N m m m M m m v b v M c # # # DXDXDXDXDXDXDXDXDXDXDXDXDXDXDXDXDXDXDXDXDXDXDXDXDXDXDX",
"DXDXDXDXDXDXDXDXDXDXDXDXDXDXDXDXDXDXDXDXDXDXDXDXDXDXDXG c C N C D D G j.s.#Xs.s.a.p.p.9.^ ^ ' / ' / ) _ _ _ _ _ [ #.#.[ [ #.[ [ $.#.$.#.] 4.4.4.2.4.3.3.3.5.5.5.7.7.q.%.C.m.M.m.A.:.x.A.A.A.D.M.G.G.M.G.G.G.G.F.F.D.M.M.m.F.F.F.G.H.G.F.F.G.G.D.F.H.H.A.t.Z.F.F.D.G.j.+Xk.$X$Xk.@X@X@X@X@X$X@X@Xk.eXk.k.@X@XeXk.Z.k.j.$Xk.k.k.k.k.k.h.h.h.k.h.h.h.g.g.g.f.y.f.y.f.e.f.e.w.w.7.q.5.5.5.5.0.3.2.4.<.$.2.[ ] ] [ _ [ / ) ( Q Q ! ! ! L L Z N Z L m m m b m M b v v M c # # c DXDXDXDXDXDXDXDXDXDXDXDXDXDXDXDXDXDXDXDXDXDXDXDXDXDXDX",
"DXDXDXDXDXDXDXDXDXDXDXDXDXDXDXDXDXDXDXDXDXDXDXDXDXDX$ V C B D N D D 9.#X%Xl.s.a.p.p.8.' ^ / ^ ) / / ) ) [ _ _ [ ) [ _ #.#.#.[ $.$.$.] $.4.$.$.4.4.4.3.3.q.3.q.5.5.7.5.w.*.%.c.A.N.M.m.S.G.D.D.A.A.D.D.D.G.F.F.F.G.S.5XXXZ.H.G.H.F.F.F.F.F.F.A.H.G.F.H.H.F.H.H.S.Z.+X+XZ.eXk.eXk.@X@X@X@X@X@X@X@XeXk.@X@X@X@Xk.k.k.k.l.$Xk.k.k.k.k.k.h.k.h.h.h.h.j.g.j.g.f.f.f.u.f.e.f.w.e.w.w.w.q.7.7.3.3.3.0.4.4.4.<.] ] [ [ [ / [ ) / ~ ! / ! ! Z { L N L N m m m m m M b v v M v c # # # DXDXDXDXDXDXDXDXDXDXDXDXDXDXDXDXDXDXDXDXDXDXDXDXDXDX",
"DXDXDXDXDXDXDXDXDXDXDXDXDXDXDXDXDXDXDXDXDXDXDXDXDXDXC H H C D D D F a.s.s.l.s.a.p.t.9.F Q ^ ^ / ' ) ) _ / _ [ _ _ #.#.[ [ #.#.#.#.$.$.$.0.] 4.0.2.0.2.0.3.q.5.5.q.q.w.q.e.-.x.m.M.S.D.D.m.C.%.=.-.%.F.F.@ S.F.G.S.B.OXOX XS.S.F.F.j k F.Z.+X+X+Xs.F.F.F.H.F.D.S.+X+XeX@Xk.eXk.eX@X@XeX@X@X@X@X@Xl.eX@X@X@X@Xk.eXeXk.@Xk.$Xk.k.k.k.k.k.l.h.k.h.h.h.h.g.g.g.g.f.y.f.y.e.f.e.w.w.w.7.7.q.q.5.3.3.2.4.2.[ $.#.] ] _ ) / ) ) Q / / ! { L Z Z Z Z Z L m m m M b m v b v v c # # c DXDXDXDXDXDXDXDXDXDXDXDXDXDXDXDXDXDXDXDXDXDXDXDXDXDX",
"DXDXDXDXDXDXDXDXDXDXDXDXDXDXDXDXDXDXDXDXDXDXDXDXDX$ G H b B D D D 9.s.#Xs.s.a.p.p.9.F ^ Q / / { / ) ) _ ) ) [ _ _ ] ] $.] ] #.#.[ 4.[ 4.$.4.0.4.2.2.2.q.3.3.q.3.5.q.7.w.y.r.%.B.M.m.k J.D.+.-.-.=.x.D.D.G.F.F.F.F.m.S.Z.G.F.F.F.F.H.F.F.H.=.+X+X+XZ.F.k H.F.H.qXi.eX$X$X@X@X@X@X@X@X@X@XeX@X@X@X@X@X@X@X@X@X@X@X$X@X@X@X@Xk.k.k.k.k.k.k.h.h.k.h.h.h.h.g.g.g.g.f.f.e.y.y.e.y.w.w.w.7.5.5.5.3.0.2.2.4.$.$.#.#.#.[ [ [ ) / / / Q / ! ! N L Z N L N m L m m b M b M v v v c # c # DXDXDXDXDXDXDXDXDXDXDXDXDXDXDXDXDXDXDXDXDXDXDXDXDX",
"DXDXDXDXDXDXDXDXDXDXDXDXDXDXDXDXDXDXDXDXDXDXDXDXDXV H b C D D D D p.s.s.s.s.p.p.8.,.^ ^ ^ ) / ' / ) / ) _ [ ) _ [ [ ] [ [ [ $.[ $.[ 4.] $.$.$.4.2.2.3.3.q.q.5.7.w.5.w.w.r.9.Q.OXW.m.x C.F.G.Z.Z.S.m.G.G.F.G.G.G.G.G.G.G.G.F.G.F.F.F.F.H.F.F.H.Z.H.F.F.l S.H.OX2X6Xz.eX@X@XeX@XwX@XeX@X@X@X@X@XeX@X@XeX$X@X@X@X@X@X$X$X@Xk.@XeXk.k.k.k.j.k.k.h.h.h.h.h.g.h.g.f.g.f.e.u.y.f.e.y.w.w.q.7.q.5.3.5.3.0.2.1.$.#.#.] ] _ _ ) ( ~ / Q ! ! ! ! ! ! N ! n N m m m b m b M v M v c # # $ DXDXDXDXDXDXDXDXDXDXDXDXDXDXDXDXDXDXDXDXDXDXDXDXDX",
"DXDXDXDXDXDXDXDXDXDXDXDXDXDXDXDXDXDXDXDXDXDXDXDXDXG c C C N D D ,.s.s.s.s.a.p.p.9.{ Q ^ ^ ^ { / ) ) ) ) [ ) _ [ ] _ ] ] ] [ $.$.$.$.$.$.4.$.4.4.0.2.q.3.3.3.5.q.7.q.w.w.r.8.Q.L.B.M.D.D.G.G.m.m.M.G.m.G.G.S.M.H.G.G.G.G.H.S.G.G.S.G.G.G.F.G.G.F.F.F.F.F.F.F.2X,X0Xz.@X@X@X@X@XeX@X@XeXeXrX@X@X@X@XeX@XeXeXeX$X@X@X@X@X@X$Xk.k.$Xk.k.k.k.k.h.k.h.h.h.h.j.f.h.g.g.u.f.g.u.e.e.e.w.7.q.7.5.5.5.3.3.4.2.$.$.$.#.] [ _ [ _ ( / Q / Q ! ! ! ! Z L n L m m m m m b b b v v v c c # c DXDXDXDXDXDXDXDXDXDXDXDXDXDXDXDXDXDXDXDXDXDXDXDXDX",
"DXDXDXDXDXDXDXDXDXDXDXDXDXDXDXDXDXDXDXDXDXDXDXDX$ H C B n N C N p.s.s.a.a.p.p.9.,.S Q ^ Q / / ) ) / ) ) [ ) _ _ ] [ [ ] ] ] ] $.[ $.$.$.$.4.4.4.2.3.3.3.3.q.5.q.5.7.q.w.e.i.%.M.m.S.M.S.N.M.S.A.Z.Z.V.p.y.u.t.t.=.=.=.=.=.+Xt.i.#Xj.$XZ.Z.Z.H.S.H.F.G.G.G.F.D.Z.i.eX@X@X@XeX@X@XeX@X@X@X@X@X@XrX@XeX@X@X@X@X@X@X@X@X@X@X@X@X$Xk.$X@Xk.k.k.k.k.k.k.j.h.h.h.g.g.g.g.f.f.y.y.y.y.y.w.w.7.w.w.5.3.3.2.2.$.$.] $.#.] [ [ ) ) ) / / ~ ~ ! ! L ! ! n Z L N m m M m M b v v M v c # # # DXDXDXDXDXDXDXDXDXDXDXDXDXDXDXDXDXDXDXDXDXDXDXDX",
"DXDXDXDXDXDXDXDXDXDXDXDXDXDXDXDXDXDXDXDXDXDXDXDXV H H n n N C @.l.a.s.s.p.p.x.9.Q S Q Q / { { / ) @./ / ' ' _ ] _ ] ] [ ] ] $.] $.] 4.$.$.4.4.2.2.2.0.3.5.5.5.q.q.7.q.w.y.-.e.M.M.G.C.V.x.=.-.-.-.-.i.i.i.j.i.j.j.j.k.k.j.z.j.+X+Xj.+X$X+X+X+X+Xi.s.Z.Z.H.F.F.A.+X$XeX@X@XeXeX@XeX@X$XrX@XrX@X$XeXeX@X@XeX$XeXeX@X@X$X$X@X$X$X$Xk.@Xz.$Xk.k.h.h.h.h.z.x.h.j.g.g.g.y.g.y.y.u.e.x.w.7.7.5.q.5.3.3.2.2.4.4.$.$.] ] ] [ ] ) / / / { Q Z ! Z Z ! n L m m m m m m m v v m b v c # # c DXDXDXDXDXDXDXDXDXDXDXDXDXDXDXDXDXDXDXDXDXDXDXDX",
"DXDXDXDXDXDXDXDXDXDXDXDXDXDXDXDXDXDXDXDXDXDXDX$ S b Z n D Z Z 8.k.V.j.a.f.p.w.<.~ / Q Q / ( ( / ( ( _ ( ( O.[  .[  . .[ [  . .$.&.$.0. .$.0.&.&.0.0.0.0.0.2.0.q.q.q.q.q.q.*.v.C.x.%.-.-.i.i.u.e.u.j.g.g.g.g.g.u.z.j.j.h.j.z.j.j.z.z.k.h.z.k.z.j.$X+X+X+X+X+XZ.G.$X$X$X$X$X$X$X$X$XeX$X$X@X@XeX$X@X@X$XeX$XeX$XeXeX$X$X$XeX$X$XZ.$Xk.$XZ.z.k.k.z.k.k.z.z.h.g.z.g.g.g.g.u.u.e.u.y.e.e.e.e.7.r.r.0.0.0.0.0.&.$.$. .[ [ [ ( ( ( ( ~ ~ ~ ~ ~ ! P T ! ! L L L L M L m M M L M M c # v DXDXDXDXDXDXDXDXDXDXDXDXDXDXDXDXDXDXDXDXDXDXDXDX",
"DXDXDXDXDXDXDXDXDXDXDXDXDXDXDXDXDXDXDXDXDXDXDXH H m L X.L X.~ f.g.h.g.y.y.e.3.X.X.~ ~ X.} ~ X.~ ~ } } } ( }  . .}  .|  . . .}  .}  .} ` :.,.,.:.,.9.6.6.,.9.8.6.8.9.8.9.8.t.=.=.=.y.i.a.p.p.f.p.+Xa.a.j.j.a.j.$Xj.#Xj.+X#X$X%X$X%X$X#X#X$X#X#X#XwXwXrXwX#X#X+X+X@X@XrX#XrXeXwXrXrXrXrX@XrXrXrXrXrXrXwXh.z.z.$Xz.z.z.Z.z.z.z.z.z.z.z.z.z.z.z.z.z.z.r.g.z.r.u.r.u.8.e.r.e.r.r.r.r.r.r.r.0.r.O...0.&...O. . . . ...O...( } } } ~ X.X.X.X.X.P X.P P X.I I L K I I K I M I J J M c # c DXDXDXDXDXDXDXDXDXDXDXDXDXDXDXDXDXDXDXDXDXDXDX",
"DXDXDXDXDXDXDXDXDXDXDXDXDXDXDXDXDXDXDXDXDXDXDXf 2 2 7 2 7 7 g >X>X>X>X`.`._.g a u u h h h u h f h f f d f g h g g g g g T.g T.T.g W.W.qXd.&X%XqX&X&XqX%XqX%XqXqXqXqXqXqXqXqXqXqXqXqXqXuXqXuXqXuXqXtXqXuXtXuXuXuXtXuXtXuXtXuXyXuXtXtXyXtXtXyXhXtXyXtXyXyXyXtXhXyXhXyXhXyXyXhXyXhXyXhXhXyXhXyXyXhXyXhXyXlX2XsX<XsX<X<XaXaX<X:X<X<X:X:X:X:X-X-X>X:X-X:X=X=X=X*X*X*X>X*X>X>X}.}.}.].]._._.).).)._.).).)./././.E.T.g g g g g f f f i p u u u 7 r 7 5 5 5 2 3 2 ; - ; ; ; 2 2 O + . . 3 DXDXDXDXDXDXDXDXDXDXDXDXDXDXDXDXDXDXDXDXDXDXDX",
"DXDXDXDXDXDXDXDXDXDXDXDXDXDXDXDXDXDXDXDXDXDX2 7 7 7 7 7 r 7 _.>X>X>X>X}._._.i f i i i f d f P.d P.P.W.P.W.W.W.W.W.W.Y.W.W.E.W.E.E.W.Q.h.U  . . . . . . .&. .&.&.&.0.0.0.0.0.0.0.q.r.0.r.q.r.q.r.r.r.e.e.r.u.u.u.u.u.u.u.u.g.u.u.i.u.z.u.z.z.z.z.z.g.z.z.z.z.z.z.z.z.z.z.z.z.z.z.z.$Xz.z.$Xz.z.z.z.z.r.cX2X<X<X2XsX<X<X<X2X<X<X1X2X1X1X1X1X1X1X1X2X-X1X2X=X=X2X*X*X*X|.*X|.|.|.|.|.|.|.].].'.'.'.).).Q.).).E.E.E.W.W.W.W.W.P.P.P.d d i i i i q q q q w 8 < < 4 4 6 : : 9 6 = = O   ; DXDXDXDXDXDXDXDXDXDXDXDXDXDXDXDXDXDXDXDXDXDX",
"DXDXDXDXDXDXDXDXDXDXDXDXDXDXDXDXDXDXDXDXDXDXj 2 2 7 2 7 7 h >X:X>XoX X`.`.g h u h h f h f f f g f g g g g g g g g /.T.T.T.T.T././.E.Q.a.} 4.4.4.2.2.0.0.q.w.5.q.q.w.q.w.e.e.e.e.y.y.y.f.g.f.f.f.g.g.j.g.g.h.h.j.z.h.z.k.z.k.z.k.k.z.k.@Xk.k.$Xk.eX@X$X$X@X@XeXeX$XrX$XeXeXeXeXeXeXeXeXeXeXeXeXrXeXeXz.vX2XsXaXsXsX<XsXaXdXsX<XaXsXsX<XaX<X<X<X:X:X:X:X:X:X=X=X>X;XXX*X*X*X|. X X}._.].}.[.].'.(._.).).^.^././.E./.T.T.g I.g g f f p i i y a e e r 0 5 5 5 5 2 , 2 ; & 5 : o O O   2 DXDXDXDXDXDXDXDXDXDXDXDXDXDXDXDXDXDXDXDXDXDX",
"DXDXDXDXDXDXDXDXDXDXDXDXDXDXDXDXDXDXDXDXDXDXj 2 7 7 7 7 0 z >X>X>XoX`.`._.p u u u f h p f f h g g g g I.g /.g T.T.T.T.T.T.T.T.Y./.T.W.p.U ! X.! ! ~ ~ / ~ / / / ( [ [ #.$.0.q.q.q.7.f.u.&.|  .q.u.h.h.g.h.g.h.g.h.h.h.h.k.k.k.k.k.z.k.k.@X$Xz.r.r.0.z.eXeX@X@X@XrX@X$XrX$XrXeXeXeXeXeXeXeXeXeXeXeXeXz.vX2XsXaXaXsX<XaXaXsXaXaXaXaXaX<X:X<X<XaX;X:X:X:X<X:X=X=X;X>XXXXXXX|. X{.{.}.}.}._.].]._._._.^.)././.^.^.Y.T.T.g /.I.g g d f f i u y y a r r 0 5 5 5 3 3 2 : - & 5 6 o o O   5 DXDXDXDXDXDXDXDXDXDXDXDXDXDXDXDXDXDXDXDXDXDX",
"DXDXDXDXDXDXDXDXDXDXDXDXDXDXDXDXDXDXDXDXDX2 7 2 2 7 7 7 7 `.>X>X>X`.}._.z f h u u h f f h h f h g g g g T.g g T.g I.g f u a y 0 6 6 t @.K L L L m L L L L L L T P P P T ! P ! ~ ~ ~ P J :.%X>.,.L ~ &.h.h.h.h.j.h.h.h.k.k.z.k.k.k.eXeXz.0.&.f.uXyXtXs.r.eXeXeXeX$XeXeXeX$XeXeXrXeXeXrXrXeXeXrXeXeX$Xz.vX2XaXsXsXsXdXsXaXaXsXaXaXaXaXaXaX<X<X;XaX:X<X:X:X;X;X;X*X;X*X*XXX>X|.>X{. X}.}.}.[.].]._.)._._._.).^./.!./.T.T.T.I.I.g g f f f u a e a e r r 7 5 5 5 3 3 2 - - 3 5 : % o   + + DXDXDXDXDXDXDXDXDXDXDXDXDXDXDXDXDXDXDXDXDX",
"DXDXDXDXDXDXDXDXDXDXDXDXDXDXDXDXDXDXDXDXDX7 2 2 2 7 2 7 u oXoXoX`.oX_.`.h u u h u y f h p h h g g g g g g f 5 5 4 : < < , < < < 6 : t ] K L L L L L L L L P T K M c M I T ~ ~ E E L B bXVXVXVXVXNXtXG J P | 0.y.g.h.h.k.k.z.k.k.g.r.0.5.tXBXVXVXVXVXVXhXi.+X+XrXrX$XrXq.y.q.r.z.rXrXrXeXrXeXrXeXeXeXz.zX2X<XdXdXsX2XdXsXaXaXaXaXaX:XaXaX:XaX:X;X<X<X:X1X;X;X=X;X*X*X>XXX*X.X X{.}.}.}._._.[._._._.).).)././././.Y.T.T.g T.g g d p h p p u u a 0 r 7 7 5 5 5 2 2 2 - - - r 2 & + X . 2 DXDXDXDXDXDXDXDXDXDXDXDXDXDXDXDXDXDXDXDXDX",
"DXDXDXDXDXDXDXDXDXDXDXDXDXDXDXDXDXDXDXDXDXa 2 7 7 7 7 7 /.oXoXoXoX X`./.u u u p h h f u h f f g f u 5 : - : : : : : : 3 < , < 4 6 : t ` K m M L L L L L P J M V tXNXbXv P ~ E b o.o.B.BXVXVXVXVXVXVXCXbXZ.9.4.[  .q.w.f.h.z.k.k.wXrXcXVXVXVXVXVXVXVXVXCXC.S.uX+X$XrXr.vXVXVXvXf.r.z.rXeXrXeXeXrXeXrXz.cX2XsXsX<XsXsX<XsXaXaXaXaXaXaX:XaXaXaXaX<X<X:X<X:X;X;X;X*X:X*X*X*X X>X X.X X X}.}. X_.[._._._._.).).).^././.T.T.T.T.I.I.g g p h u u p y a r 0 0 5 5 < 5 3 : : ; * 5 6 = o O   5 DXDXDXDXDXDXDXDXDXDXDXDXDXDXDXDXDXDXDXDXDX",
"DXDXDXDXDXDXDXDXDXDXDXDXDXDXDXDXDXDXDXDXDXu 2 2 2 7 7 7 _.oXoX`.`._.`.g u h u u u p p h f a 5 - * * * - * : : : : : , , , 3 < 3 6 : t ` K L L L L L L J M G bXVXVXVXVX>.K E o.n.n.n.n.b.7Xl l kXVXVXVXVXCXjX>.( &.&.&.0.0.e.u.s.zXNXVXVXVXVXVXvX9XvXiXF.F.F.F.H.+X$X&.VXVXVXVXVXnXq.r.rXeXrXrXeXeXeXZ.zX2XdXdXsX<XsXdXsXaXsXsXaXaXaXaXaXaX:XaX:X:X<X:X:X;X;X;X=X=X*X*X>X*X*X.X X X}. X}.[.[.[._.(._.).).).^./.)./.T.T.T.g I.g g g p h p u a y e a 0 7 5 5 5 3 3 3 ; - ; 5 5 & o O . 5 DXDXDXDXDXDXDXDXDXDXDXDXDXDXDXDXDXDXDXDXDX",
"DXDXDXDXDXDXDXDXDXDXDXDXDXDXDXDXDXDXDXDX+ @ 2 7 2 7 5 7 `.oXoXoX`.`._.a a a h u u u a 2 & & & * & * * * : * : : < : : < < 3 < 4 < < t _ K m L L L L I v jXNXVXVXVXVXCX:.Y B n.n.n.x o.n.@ P.l 5XmXVXVXVXVXxXI  .$.0.[ 0.0.0.e.U d.VXVXVXVXVXZX0XzXk D.H.B.F.F.F.H.+Xr.BXVXVXVXVXVXVXyXr.rXeXrXrXrXrXz.zX2XsXdXdXdXdXdX<XaXsXaXaXaXaXaXaXaX<XaX<XaX:X:X:X;X;X;X;X;X*X*X*X*X|. X X X}.`.}.[._.[.]._.(.).).^.^././.R.T./.T.T.I.g g P.p p p p p a y r r 0 5 5 5 5 , 3 3 - & 5 0 - = o O . ; DXDXDXDXDXDXDXDXDXDXDXDXDXDXDXDXDXDXDXDX",
"DXDXDXDXDXDXDXDXDXDXDXDXDXDXDXDXDXDXDXDX2 + 2 7 7 7 7 h oXoX`. X`.`./.7 a a a 7 - * % & & & - & * * * * : : : : : < : 3 3 : 4 4 4 > t ` K L m L L I M jXVXVXVXVXVXVXCXb U C n.c.b.n.J.n.n.B.gXCXVXVXVXVXVXVXkXI 0.&.&.0.0.q.| ^ VXVXVXVXVXVXVXVXfXF.F.F.G.F.H.F.H.+Xr.AXVXVXVXVXVXVXVXuXi.eXeXrXrXrXz.cX2X<XdXsXsXsXdX<XdXdX<XdXaXaXaX<XaX<X<X<X<XaX;X;X;X;X;X;X;XoXXX*XXXXXXX.X X{.{.}.[._._._._.'._._.^./.^.^./.U.I./.T.I./.p g g g p p a y y 7 0 0 5 7 3 7 3 2 * - - 3 5 3 % o X . 3 DXDXDXDXDXDXDXDXDXDXDXDXDXDXDXDXDXDXDXDX",
"DXDXDXDXDXDXDXDXDXDXDXDXDXDXDXDXDXDXDXDX3 + + 7 2 7 7 z oXoX X`._._.h a 7 - % % % % % & & & - & * * * * * : : : : 3 3 < < < 3 < 4 < t <.K L I L L J V VXVXVXVXVXVXVXzXM R T o.E B F { D { n.M.CXVXVXVXVXVXVXCXd.U 0.$.0.0.&.U bXVXVXVXVXVXVXVXmXm.M.#XwXZ.+X+XwXpX+Xi.uXVXVXVXVXVXVXVXCXr.eXrXrXrXeXz.cX2XdXdXdXsXsXdX<XsX<XdX<XaXaXaXaXaX<X<X<X<X;X<X<X<X;X;X;X;X;X;X*XXXXX.X X{. X{.{.{.`.[.[.'._.~.~.(._.^././././.T.I.I.g I.p g p p p p y y a a 0 0 5 7 3 3 3 3 - - 3 5 4 % o O   5 DXDXDXDXDXDXDXDXDXDXDXDXDXDXDXDXDXDXDXDX",
"DXDXDXDXDXDXDXDXDXDXDXDXDXDXDXDXDXDXDXDX2   ; ; 2 5 7 _.oX`.`.`._.g ; % % o o % % % & & & & & - * * * : : : : : : : : 3 3 3 < 4 6 : t ,.K m L L L M tXCXVXVXVXVXVXVX:.K ! T E ~ ~ ! W E G o.b.zXVXVXVXVXVXVXbXfX)  .0.0.q.W qXjXVXVXVXVXVXVXVXG.v.V.w.-.+X$X$X$X+XeX$Xq.VXVXVXVXVXVXVXVXrXz.rXrXrXrXz.vX2XsXdXsXdXsXsXsXdX<XdX<XaXaXaXaXaX<X<X<X<X;X;X<X;X;X;X;X*X;XXX*XXXXXXX X X{.{.`.[.[.[._._._._.^.^._.^./.R././.I.T.I.p g g g p p p a y a 0 0 0 7 5 4 , 3 2 - - - 3 5 4 & o o   5 DXDXDXDXDXDXDXDXDXDXDXDXDXDXDXDXDXDXDXDX",
"DXDXDXDXDXDXDXDXDXDXDXDXDXDXDXDXDXDXDX+ . . O     + + /././.g g h 7 o o o o % % % % % & * & & & * * : * * : : : : 3 : < < < 4 3 6 6 t ` K L L L P M bXNXVXkXVXVXCXNXM P T ~ ~ ~ N o.c.N.b.C c n.H.mXVXVXxXBXCXqXI 0.0.0.0.| ! CXVXnXVXVXVXAXm.v.=.C.m.N.A.x.+X$X$XeXeXr.vXVXVXVXVXVXVXVXyXu.rXeXrX$Xz.cX2XdXdXsXdXsXsXsXdXdXdX<XaXaXaXaXaX<XaX<XaXaX<X;X<X;X;X;X;X*X=XXXXXXXXX X X{.{.}.[.[._.[._.(.(.^._.^.^.^./.Y./.I./.I./.p g p g p p a a q q a 7 0 7 5 5 , 3 - 2 - * 5 4 - o O X . 2 DXDXDXDXDXDXDXDXDXDXDXDXDXDXDXDXDXDXDX",
"DXDXDXDXDXDXDXDXDXDXDXDXDXDXDXDXDXDXDX2 .   X   + X , /.g /.g g a 2 o o ; o % % % & % & & * & * * : * : : : : : 3 : , 3 3 < 4 < 4 < t ,.K L L L J v VXVXMXcXVXVXVXcXJ ~ ! ~ T ! ~ ~ Q E E v.n.b.v.A.VXVXVXzXmXVX' W 0.0.q.P cXVXcXmXVXVXNXv.N.M.M.x.-.t.i.i.g.g.u.j.$X*.rXVXVXVXVXBXVXVXnXr.rXrXrX$Xz.cX2XdXsXdXdXdX<XdXdXdX<X<XaXaXaXaX<XaXaX<X;X<X<X;X;X;X;X;X;X*X;XXXXXXXXXXX{. X{.}. X_.}._.].'.(._.^.^.^././.Y.Y.U.I.g I./.L.g a p p a a y a a 0 7 5 4 4 5 2 3 - - * 5 4 : % o X . 5 DXDXDXDXDXDXDXDXDXDXDXDXDXDXDXDXDXDXDX",
"DXDXDXDXDXDXDXDXDXDXDXDXDXDXDXDXDXDXDX2 .         X r z /.z z h a + o o o % % % % % & % & & & * * * : * * < : : < 3 < < < 3 < 4 6 < t #.K m L L J :.VXVXcXCXVXVXVXnXM ~ T ~ ~ ~ ~ ~ E o.J.v.) E B &XVXVXVXVXcXVXAXI q.0.W 8.VXAXBXVXVXVXNX%.;.-.V.M.b.-.i.f.g.g.j.z.k.| rXVXVXVXVXBXVXVXVXr.eXeXrXrXz.cX2XdXdXdXdXdXdXdX<XdXdXdXaXaXaXaXaXaX<X<XaX;X;XaX;XaX;X;X;X;X;XXXXXXX.XXX X X{.}.[.[.[.[.'._._.^._.^.^.^.R./.Y././.I.I.p h h g p p p p a q 0 7 8 7 5 5 , 3 3 - * * 5 5 4 o o X   5 DXDXDXDXDXDXDXDXDXDXDXDXDXDXDXDXDXDXDX",
"DXDXDXDXDXDXDXDXDXDXDXDXDXDXDXDXDXDXDX2 .   X O X + a /.g g g h 7 o ; o % % % % % & & * & & * * * : * , : : : , : 3 < 3 3 3 < < 4 < t @.K L L L M 9XVXVX7XVXBXmXVXbXM W T ~ ~ ~ ~ ~ ( ~ W E ;.( $.K 7XVXVXVXVXAXNXd.W &.! bXCXAXVXVXVXNX' W u.r.-.-.-.u.g.u.j.g.g.g.j...uXVXVXVXVXBXBXVXVXrXz.eXrXrX$XcX2XdXdXdX<XdXdXdXdX<X<XdXaXaXaXaXaX<X<X<X<X;X<X;X;X;X;X;X=X=X;XXXXXXX.X X X{. X{.}.`.[._.'._.(._.^.^.!.!.!./.Y.Y.I.I./.p L.g g p p a y a a 0 0 7 5 4 5 5 3 2 : ; * 5 4 5 % o O . 5 DXDXDXDXDXDXDXDXDXDXDXDXDXDXDXDXDXDXDX",
"DXDXDXDXDXDXDXDXDXDXDXDXDXDXDXDXDXDXDX. .     X X X h g g g h h 2 + o o o % % % % & % & & & * * * * : * : : : : < , 3 < 4 < 4 4 4 < t ,.K L L K M NXVXkX7XVXxX7XVXCXb I ! ~ ~ ! ~ ( ~ / [ [ ( [ _ I d.CXVX8XkX8XjX@.&.0.P qXzXvXkXBXVXMXW u.u.e.y.i.y.u.u.j.u.j.g.z.z.} nXVXVXcXVXVXkXVXVXvXr.rXrXrXz.xX2XdXdXdXdXdX<XdXdXdXdX<XaXaXaX<XaXaXaX<X<X<X<X;X;X<X;X;X;X=XXXXXXXXX.XXX X X{.{.[.[.}._._.'._.^.).^.!.!././.T.T./.I.I./.h p g p p p y a q a q 0 5 5 5 3 2 : * * * 4 5 4 & % O + . DXDXDXDXDXDXDXDXDXDXDXDXDXDXDXDXDXDXDX",
"DXDXDXDXDXDXDXDXDXDXDXDXDXDXDXDXDXDX+ . .     X + + /.g z g h a % o o o % % % % % & % * % & * * * : * : * : : , , < < < < 4 < 4 6 6 t ` K L L J V VXVXl mXVX7XxXVXVX>.K / ~ ~ ~ ~ ~ ~ ( ( ( ( ( [ I uXNXlXkX9XxXNX9.} q.P cXVXzXlXxXnXNX( 0.e.u.u.u.u.g.u.g.g.g.g.j.i.} VXVXVXzXVXVXxXnXVXCX| k.$X$Xi.xX2XdXdXdXdXdXdXsXsXsX<XsXsXaXaXaX<XaXaX<X<X<X<X<X;X;X;X=X;X;XXX=XXXXXXX.X X{. X{.[.[._.[._.'._.^._.^.^.^././.L./.I.I.I.p g h p g a a p a a q 7 0 5 4 5 , 3 2 * * * 3 5 5 : % O X . ; DXDXDXDXDXDXDXDXDXDXDXDXDXDXDXDXDXDX",
"DXDXDXDXDXDXDXDXDXDXDXDXDXDXDXDXDXDX; .       O + 2 g g g h u 7 o o o % % % % % % & * & & * * * * : : : : : : < < 3 , 4 4 < 4 < 6 6 t <.K L L M 9XVXZX7XVXVXB.VXVXVXNXM T ~ ~ ~ / ~ ( ~ ~ ( (  . .L cX7XlXmXnXBXNXhXU  .[ NXMXBXMXAXlXbXuXW u.u.u.u.u.u.g.i.z.g.j.z...uXVXVXVXmXxXVXBXnXVXVXl.q.$X$Xr.vX,XsXsXdX<XdXsXdXsXsXsXsXaXaXaX<XaX<X<X<X<X<X<X;X;X;X-X-X=XXXXX=XXXXX.XXX X X X{.}.}.[._._.'._.(.^.^.^.^.^././././.g I.I.g p d g p p a y q 0 0 8 5 5 , 5 2 * : * * 3 5 8 6 o O X . 2 DXDXDXDXDXDXDXDXDXDXDXDXDXDXDXDXDXDX",
"DXDXDXDXDXDXDXDXDXDXDXDXDXDXDXDXDXDX2 .         X 7 z g g u a 7 o o o o % % % % & & & % * & * * * : * : : : , 3 , 3 < 3 < 4 < 8 8 < t <.K L I v NXVX8XlXVX7XaXVXVXVXVXC I ~ ~ ! ~ ~ ( / ( ( ( [  .I 9XbXzXVXmXMXZXNX( U uXNXMXZXmXVXjXNXt.&.u.u.u.u.u.g.g.g.j.g.z.j.} xXVXVXVXVXlXVXBXmXBXVXvX..$X$Xr.vX,XsX<X<X<X<XdXsXsXsXsX<XsXaXaXaXaXaX<XaX<X<X;X<X<X;X-X-X;X=X;XXXXXXX.X X X X}.}.[._.[.].].'.'.^._.^.^.^.^.Y.Y./.U.g I.I.L.g p p y y q y 7 0 0 0 4 3 3 , 3 - - * * 3 8 5 3 % o O   5 DXDXDXDXDXDXDXDXDXDXDXDXDXDXDXDXDXDX",
"DXDXDXDXDXDXDXDXDXDXDXDXDXDXDXDXDXDX2 .     O     a g g h p a 2 o o o % o % % % % & * * & * * * * * , : : : , , , < 3 < 4 < 4 4 8 < t ] K L J V VX8XVXcXlX7XxXVXVXVXVXt.K ~ ~ ~ ~ ( ~ / ( ( ( (  .I kXxXvXzXzXvXkXjX,.U 9XkXcXzXzXnXcXNXqXW u.u.u.u.u.g.i.g.u.z.j.u.} VXVXVXVXVXxXmXmXVXMXVXBX( $Xk.i.gX,X<XaX<X<X<X2XsX1X1X<X1X<X<X<XaX<X<X<X<X<X<X<X<X;X;X-X-X;X;X;XXXXXXX.X X.X{. X}. X}._._._._.(._._.^.^.^././.U.Y.I.I.I.p a h p a y y y y 0 0 0 5 0 4 5 , 3 , * 2 * : 4 8 5 = O X   5 DXDXDXDXDXDXDXDXDXDXDXDXDXDXDXDXDXDX",
"DXDXDXDXDXDXDXDXDXDXDXDXDXDXDXDXDXDX5 .   X       a g h h a a + o o o o % % % % & % & % * * * * * : : : , , < 3 3 < 3 4 < 4 4 < 6 < t <.K L J qXNXlXZXVXVX4XVXVXVXVXVX7XJ / ~ ~ ~ ~ ( ( ( ( [  . .I 9X8XcXkXzXxXBXNXT U uXCXnXnXxXzXxXzXa.| y.u.i.u.u.u.g.g.g.g.j.q.7.VXVXVXVXVXxXBXVXVXVXmXVXj.u.$Xr.vX,XsX<X<X<X<X<X<X<X<X1X1X-X-X1X-X-X=X-X-X;X;X;X;X-X-X-X-X=XXXXXXXXXXX.X.X X{.{.{.}.[.].].]._.(.~.^./.!.R./.U.U.U.U.d I.d d p P.a y a q y q 0 0 0 5 4 5 3 3 - - - & - 5 5 5 = o O   5 DXDXDXDXDXDXDXDXDXDXDXDXDXDXDXDXDXDX",
"DXDXDXDXDXDXDXDXDXDXDXDXDXDXDXDXDXDX. .       O X u g h a a 7 + o o o % % % % % & % * * * * * * * , : : , , , , < 3 3 < < 4 4 8 8 < t <.K L J >.bXVXkXVXBX8XVXnXVXVXVXbXM ~ ~ ~ ~ / ~ ( ( ( ( [ } ( NXCXVXCXBXBXmXNXqXP NXVXmXVXVXVXVXVXyXU u.u.u.u.u.z.i.g.z.i.g...uXVXVXVXVXVXVXnXVXVXVXVXmXu.z.z.r.vX,X<X<X<X<X<X1X<X1X<X-X1X1X1X-X-X-X-X=X=X*X*X=XXX.X=XXXXXXXXXXXXXXXXX.X.X{.[.[.[.]._._.~.).~.^.!.!./.R.Y.U.U.U.g g I.d d d p y p P.q y y a 0 0 5 5 5 3 3 3 - - - - - 8 5 0 & = O   + DXDXDXDXDXDXDXDXDXDXDXDXDXDXDXDXDXDX",
"DXDXDXDXDXDXDXDXDXDXDXDXDXDXDXDXDX+ .         O + h h h a a 5 O o o o o % % % & & & & * * * * * : * : : , , , , 3 < < 4 4 4 4 < 8 6 t ,.K L M qXCXMXxXCXMX8XlXBXmXVXVXVXC Y ~ ~ ~ ~ / ( ( ( [ [ I >.bXzXvXzXvXlXiXvXyX) bXlXkXvXcXMXkXMXbXT r.u.u.u.u.u.g.g.g.u.z.} MXVXVXVXVXmXmXmXVXVXmXVXVXq.i.z.r.vX,X<X<X<X<X<X<X1X<X-X<X-X-X-X1X-X-X=X=X=X=X=XXX=X.X.X.X.X.X.X{.{.{.{.[.[.[.[._._.'.'.~._.~.^.!.!.R.R.Y.Y.U./.U.U.U.d d d d p y p p y y q q 0 0 0 8 4 3 3 , , - - & * 4 8 5 * % O X . + DXDXDXDXDXDXDXDXDXDXDXDXDXDXDXDXDX",
"DXDXDXDXDXDXDXDXDXDXDXDXDXDXDXDXDX+ .           ; h h a a a 2 o o o o % % % % % % & & * * * * * * : : : : , < , < < < 4 < 8 4 8 8 6 t <.K I M jXVXxXmXCXtXVX8XlXmXVXVXVXbXM } ~ / ~ ( ( ( (  . .K qXNX8XxXvXMXxXxXNXBX0XVXmXcXmXMXkXBXkXNXT r.u.u.u.u.u.u.g.g.h.W uXVXVXVXVXmXnXmXBXBXVXBXVXVXuX&.$Xi.hX,X<X<X<X<X<X<X<X-X<X<X-X-X1X-X-X=X-X-X=X=X=X=XXX=X.X.X.X.X.X{.{.{.{.{.[.[.[.].]._.'.'.~.^.(.!.!.!./.Y.Y.U./.U.g L.g d d d p y P.y a a q 7 0 0 0 5 5 5 3 2 , - - - - 5 4 9 : o O     ; DXDXDXDXDXDXDXDXDXDXDXDXDXDXDXDXDX",
"DXDXDXDXDXDXDXDXDXDXDXDXDXDXDXDXDX; . . .   X X ; h u h a 7 ; O o o % o % % % % % * * * * * * : : : , , > , < , < 3 4 < 4 4 4 4 6 < K.<.K L M NXVXkXVXVXlXVXVX4XcXzXVXVXVXlXM } ( ~ ( / ( ( [ } ! VXnXmXVXmXVXVXBXZXCXVXZXBXVXmXVXmXVXZXVXvXU g.u.u.u.u.g.g.z...d.VXVXVXVXnXxXmXVXBXBXVXBXVXVXcX..k.r.vX,XaX1X-X1XaXaX-X-X-X-X-X1X-X-X-X=X=X=X=X=X=X=X.X=X.X.X.X>X|..X{.|.[.}.}.].].]._.(._.'.^.(._.^.!.R.R./.Y.U.Y.U.I.I.P.d d P.p p p p a e e r 0 0 5 0 4 4 3 3 : - * * * 6 9 0 3 % o     2 DXDXDXDXDXDXDXDXDXDXDXDXDXDXDXDXDX",
"DXDXDXDXDXDXDXDXDXDXDXDXDXDXDXDXDX2 . .         7 u a a 7 7 O o o o o o % % % % % % % * * * * > : : , , - , , < < 3 4 4 4 4 8 < 8 6 t 4.K J H VXVXkXVXkX8XVXCXBX9X8XxXVXVXVX9XM U | ( ( ( ( [ K 9XbXVXlXVXkXBXnXxXBX8XlXxXnXBXcXBXmXmXmXnXNX5.r.u.u.u.u.z.r.} 9.VXVXVXBXmXcXBXVXVXVXcXVXBXBXVXmX..$Xr.vX,X-X1XaX-X-X-X-X1X<X-X<X-X-X-X-X-X=X=X=X=X=X=X=X.X.X.X.X.X.X{.{.}.}.[.[.].].].].'.'.(._.~.^.^.!.!.R.Y.Y.U.U.U.I.P.g g d g p p p i y e e r r 0 0 5 4 5 3 3 - - * & * 5 8 8 3 % O + . 2 DXDXDXDXDXDXDXDXDXDXDXDXDXDXDXDXDX",
"DXDXDXDXDXDXDXDXDXDXDXDXDXDXDXDXDX2 . .     O   7 a a a 7 7   O o o o % % % & % & * & * * * * , * : - , , , < < 4 < 4 4 < 8 4 8 8 < K.4.K J :.VXVXkXVXVXcXVXcXkXVX9X7XlXVXVXVXlXC J U [ ( [  .I 7XlXlXZXlXnXlXxXvXxXzXVXtXMXkXnXzXxXnXMXzXxXp.W g.u.g.e.} R uXVXVXVXVXxXkXVXVXxXVXVXZXVXVXZXVXCX .z.r.vX,XaX;X<XaX1X1XaX<X-X1X-X-X-X-X=X=X=X1X=X=X.X.X=X.X.X.X.X.X{..X{.{.}.}.[.].].].'._.'.(.~.~.^.^.!./.R.Y.Y.Y.U.U.I.I.g P.d g p p p a y y e e 0 0 0 8 5 3 5 3 2 - * - & 5 5 5 5 o o     5 DXDXDXDXDXDXDXDXDXDXDXDXDXDXDXDXDX",
"DXDXDXDXDXDXDXDXDXDXDXDXDXDXDXDXDX2 . .       X 7 a a 7 7 7 + + o o o % % % % & & & & * * * * * : - , , , , < , 3 < < 4 4 4 8 4 8 < t ,.Y J 5XVXZXcXVX8XnXVX7XBXVXmXBX5XmXVXVXVXVXbXG K  .} I qXNXVXzXVXkXVXmXVXBXVXmXVXNXVXCXVXVXnXVXMXCXVXCX! W u.r.R kXVXVXVXVXVXzXmXVXVXVXnXVXVXAXVXVXBXVXVXw.i.r.hX3XaX1X<X-X-X1X-X-X-X1X-X-X-X-X-X-X=X=X=X=X=X=X.X.X.X.X.X.X.X{.{.}.}.}.[.[.].].'.'.(.(.(.).~.!.!.!.Y.!.Y.Y.U.U.I.P.P.I.p p p p p i y y e r 0 0 5 5 5 3 3 2 : : - & : 6 5 9 5 % o     5 DXDXDXDXDXDXDXDXDXDXDXDXDXDXDXDXDX",
"DXDXDXDXDXDXDXDXDXDXDXDXDXDXDXDXDX2 .       X X 7 a 7 a 7 2 o o o O o o % % % & % * * & * * * : - , , < , , , 4 4 < 4 < 4 4 8 4 6 6 t <.K M lXVXcXZXVX7XlXVXkXVXjXtXVXcX8XzXBXnXVXVXVX:.Y L zXVXMXVXjXVXMXVXNXVXzXVXzXZXBXMXVXxXVXkXVXMXNXVXCXVXwX| } NXVXVXVXBXBXmXcXVXVXzXVXBXVXVXkXVXVXBXVXVXrX*.r.vX,X<X<X1X-X<X1X-X-X1X-X-X-X-X=X-X=X=X=X=X=X.X.X=X.X.X.X.X{..X{.{.}.}.[.[.[.].]._.'.(.(.~.).^.^.!./.Y.!.U.Y.T.I.I.I.P.P.p p p p p y y y r e 0 0 5 5 4 3 3 : : 2 * - - 5 0 9 5 o o O . 5 DXDXDXDXDXDXDXDXDXDXDXDXDXDXDXDXDX",
"DXDXDXDXDXDXDXDXDXDXDXDXDXDXDXDXDX2 . .   X     7 a 7 7 7 ; o o o o ; % % % % & % * & * * * * : , , , , < < < < < 4 4 4 8 8 4 4 9 6 K.<.Y M NXVXnXmXVXlXkXVX8XVXMXMXmXlXVXnXlXzX8XVXVXCXv dXbXlX8X8XmXSXcXjXjXlXkXiXkXlXkXkXjXzXlXbXzXnXMXlXcXxXbX:.qXVXVXmXxXmXnXVXVXxXVXmXVXVXxXVXcXVXVXBXVXVXyX..r.hX,X<X1X1X-X1X-X1X-X<X-X-X-X=X-X=X=X=X=X=X.X=X=X.X.X.X.X.X{.{.|.{.}.}.[.[.].].].'._.'.~.(.(.^.^.!.R.!.R.U.Y.U.I.I.P.g g d P.p p p y y a e e 0 0 0 5 4 4 3 : 3 2 * & * 6 0 9 0 = o O   0 DXDXDXDXDXDXDXDXDXDXDXDXDXDXDXDXDX",
"DXDXDXDXDXDXDXDXDXDXDXDXDXDXDXDXDX3 . .     O   7 a 7 7 5 o O o o o o % % % & & % * * * * * : : - , 3 , , 3 3 4 < < 4 < 8 < 8 8 8 < K.<.Y v NXVX7XVXVX8XxX5X8XVX8XVXBXkXVX8XVXVX7XcXVXCXv J J L L M I J I I I L I VXVXBXVXyXL R P T P P P U ~ ~ U X.tXVXVXcXBXVXnXBXVXnXVXnXVXVXkXnXBXmXVXmXBXVXvX..r.vX,X1X1X<X<X-X-X-X-X-X-X-X-X-X=X1X=X=X=X.X=X.X.X.X.X.X|.|.{..X X{.}.[.[.[.].].'.'.(.~.'.^.^.^.^.!.!.!.Y.Y.U.U.T.I.I.P.P.p p p p p p y e e r 0 0 0 5 5 3 3 , 2 * * * - 5 0 0 0 o o O   5 DXDXDXDXDXDXDXDXDXDXDXDXDXDXDXDXDX",
"DXDXDXDXDXDXDXDXDXDXDXDXDXDXDXDXDX2 .     X     a a 7 7 5 O o o o % % % % % % & & & * * * * * : , , , , , < , < < 8 4 < 8 8 4 8 9 8 t ] K S VXmX4XVXVXxXVXcX8XxXl VXcXnXVX8XVXzXVXmXkXbXL .. . . .0.&.&.&.&.0.}  .VXVXVXVXyXU r.e.q.e.r.u.u.e.e.u...tXNXnXVXmXVXBXmXVXxXVXnXlXBXnXVXVXBXVXmXcXVXZX} r.kX,X1X1X;X1X-X-X-X-X-X-X=X=X-X=X=X=X=X=X=X.X=X=X.X.X.X.X.X.X{.{.}.}.}.[.].].].].(._.(.(.(.^.~.~.^.Y.Y.Y.U.U.U.U.I.d I.d d p p p p y y e e 0 0 0 7 8 4 3 3 , , : * - - 6 6 0 9 % o +   5 DXDXDXDXDXDXDXDXDXDXDXDXDXDXDXDXDX",
"DXDXDXDXDXDXDXDXDXDXDXDXDXDXDXDXDX2 . .   X     a a 7 5 5 O O O o o % % % % & & & & * * * * : * , - , , < 3 3 4 4 4 4 8 4 8 8 8 8 < K.<.J :.BXMX8XVXlXxXVXmXVXcXkXxX5XnXVX9XVX8XBXVXlXzXL | (  .U Y } |  .$.0.|  .VXVXVXVXyXU e.q.e.r.&.| W q.u.u...qXNXxXVXzXVXVXxXVXzXnXmXmXVXBXVXVXxXVXBXnXVXVX~ r.gX3X-X1X-X-X-X1X-X-X-X=X-X=X-X=X=X=X=X=X.X*X*X*X*X|..X{..X{.{.{.{.}.].}.].].].'._.(.(.~.(.!.!.!.!.R.R.Y.Y.Y.I.I.I.P.P.p g p p p p y y a 0 q 0 0 5 5 5 3 3 , , - * * , 5 0 0 0 o = O   5 DXDXDXDXDXDXDXDXDXDXDXDXDXDXDXDXDX",
"DXDXDXDXDXDXDXDXDXDXDXDXDXDXDXDXDXo .       X X 7 7 7 5 2 O o o o o o o % % % & & * * * * : : : , , : , < 3 < 3 < 4 8 < 8 4 8 8 8 8 K.1.K >.CXkXzXVX5XZXVX8XVXVXBXZXlXnX9X8XVX4XVXVXMXCXM |  .P :.qX_ R I | 0.( ( VXVXVXVXyXU e.e.U P &.s.uX$.&.u.W uXVXmXVXzXAXVXkXnXZXnXVXCXVXVXnXVXzXVXVXmXVXVX*...hX,X-X-X-X-X-X=X-X-X=X-X=X=X=X=X=X=X=X=X=X|..X.X X X.X.X{.{.{.{.}.}.].].].].].'.'.(.(.(.~.!.!.!.R.!.R.Y.U.Y.U.I.P.P.g p P.p p p y p y e e r 0 0 8 4 3 3 3 3 - - * * , 5 0 r 9 o o O   2 DXDXDXDXDXDXDXDXDXDXDXDXDXDXDXDXDX",
"DXDXDXDXDXDXDXDXDXDXDXDXDXDXDXDXDX  . .   X O   7 7 7 2 5 O O o o o % % % % & & & & * * * : : : , , < , < 3 4 4 4 4 4 8 8 8 8 8 8 8 K.<.J uXCXvXkXkX7XVXVX5XVX7XnXVXlXVXxXzXlX7XVX7XNXCXM  .I d.VXNXVXbXbX#.| [  .VXVXVXVXyXU q.W uXbXCXVXCXNXU u.U tXVX8XVXnXzXmXmXVXVXBXVXzXVXVXxXVXmXnXmXBXBXVXj...hX3X1X=X1X-X1X-X=X=X-X=X=X=X=X=X=X*X*X.X.X*X.X*X|..X X.X{..X{.{.}.[.[.[.].].'.'.'.(.~.~.(.!.!./.R.Y.Y.Y.Y.U.U.I.I.P.g P.p P.p p y y y y e e 0 0 5 5 4 3 3 - 3 * - * 3 5 9 9 r % o O   + DXDXDXDXDXDXDXDXDXDXDXDXDXDXDXDXDX",
"DXDXDXDXDXDXDXDXDXDXDXDXDXDXDXDXDX. .         X 7 7 7 5 - O O o o o o o % % % & * & * & * * : , : < : , < 3 < < 4 4 < 8 4 8 8 8 9 6 K.4.J AXNXzXlXlXnXVXVXlXVXlXZXMX8XVXkXBXVXZXzXlXAXCXM | | #.>.m NXMXVXuXU ( | VXVXVXVXyXU 0.T CXNXCXuXL uX&.u.W uXVXvXnXmXVXVXxXVXVXcXVXxXVXBXBXVXBXBXxXVXnXVXwX..hX3X-X1X=X-X=X=X-X-X=X-X=X=X=X=X=X*X*X*X.X|.*X.X.X{..X.X{.}.}.}.}.[.[.].].].'._._.(.(.~.~.~.!.!.!.R.Y.Y.U.U.I.I.I.P.P.I.p p p p i i q q e 0 0 0 5 5 3 3 , - : * - * 4 4 0 q e o = O     DXDXDXDXDXDXDXDXDXDXDXDXDXDXDXDXDX",
"DXDXDXDXDXDXDXDXDXDXDXDXDXDXDXDXDX. .         X 7 7 7 2 2 O o o o % o % % % % & & & * * * * * - , , : < 3 3 < 4 4 < 8 8 8 4 8 8 9 8 K.2.M NXxXxXBXVXkXVXVXnXVXxXVXBXnXVX9XVXkXvXVXlXMXfXm |  .| Y L NXBXCXuXU  .[ VXVXVXVXyXU 0.~ NXBXVXtX} ..i.e...qXbXnXBXVXvXVXxXBXVXmXVXBXVXVXBXVXBXVXVXBXmXVXuX..hX3X1X=X=X-X-X=X=X=X=X=X=X1X.XXX=X.X*X.X*X*X|. X X{..X{.{.}.}.}.}.[.[.].].'.].(.(.(.(.~.~.!.!.!./.R.Y.U.Y.T.I.I.P.P.g P.p P.i i y y a e 0 0 0 0 4 5 6 3 3 : : * * & 4 0 0 q r o o +     DXDXDXDXDXDXDXDXDXDXDXDXDXDXDXDXDX",
"DXDXDXDXDXDXDXDXDXDXDXDXDXDXDXDXDX  .       X X 7 5 7 2 ; O o O o o o % % % & & & * * * * * > , , : < < < < 3 4 4 8 < 8 8 8 8 9 8 8 K.1.K >.NXBXnXVXzXVXcXcXVXlXVXnXnXVXzXVXmXxXVX8XVXNXM | [ &.I ZXNXVXNXuXI | | VXVXVXVXyXU 0.~ NXVXMXVXs.| u.u.U tXVXZXmXVXxXVXBXVXVXnXVXBXBXVXcXVXnXVXVXZXVXbXj...hX3X1X=X1X=X=X=X=X=X=X=X=XXX.X=XXX*X*X.X.X{.*X>X|..X|.{.{.}.}.}.[.[.[.].'.].'.(.(.(.~.~.!.!.!.!.!.Y.Y.Y.U.U.I.I.P.p P.P.p p p i y y y e e 0 0 0 5 5 3 3 3 - : : * & 5 0 0 q q = o O   + DXDXDXDXDXDXDXDXDXDXDXDXDXDXDXDXDX",
"DXDXDXDXDXDXDXDXDXDXDXDXDXDXDXDXDXo .     X     7 5 5 5 ; o o o o o % % % % & & & * * * * , * , , , 3 3 3 4 3 4 4 4 8 4 8 8 8 8 9 8 K.1.K b VXnXnXVX8XmX7XnXVX7XVX9XVXVXkXVXlXVXVXzXVXNXM ..[ [ Y qXNXBXVXuXI  . .VXVXVXVXyXU 0.~ CXCXBXNX3.0.e.u.U uXVXBXBXVXMXVXVXAXVXcXVXVXvXVXzXVXxXVXVXmXVXZX} r.hX,X1X=X=X=X=X=X=X=X=X=X=X1X.X.X=X.X.X.X.X.X.X.X{.{.{.}.}.}.}.[.[.[.].'.].].(.'.(.~.~.!.!.!.!.Y.!.Y.Y.Y.U.U.I.I.P.P.P.g p p p p y y y q e 0 0 0 < 4 3 : 2 - - * & * 5 8 0 q r o o O   - DXDXDXDXDXDXDXDXDXDXDXDXDXDXDXDXDX",
"DXDXDXDXDXDXDXDXDXDXDXDXDXDXDXDXDX2 .     X X X 5 7 2 2 o + O o o % o % % % % & * & * * , * , , : 3 < < 3 4 4 6 6 8 8 8 8 8 8 9 9 8 K.1.K G VXxXmXVXnX5XBXkX8X7XVX7XnXAX8XVX7XVXnXzXVXxXM  .&.} K L NXmXCXtXI  .| VXVXVXVXyXU r./ CXmXCXqXU U u.e.W qXVXVXzXVXmXnXVXkXVXzXmXBXkXnXVXnXxXVXVXmXVXVXR r.hXOX-X=X=X=X=X=X=X=X=X=X=X.X=XXX.X*X.X*X X|.{..X|..X|.}.}.}.[.}.[.].[.'.'.'.'.(.(.(.~.!.!.!.!.!.U.Y.Y.T.U.U.I.I.I.p I.p p p p p y y q a 0 0 0 0 5 5 3 3 3 : - * * & 0 9 r r r % o +   5 DXDXDXDXDXDXDXDXDXDXDXDXDXDXDXDXDX",
"DXDXDXDXDXDXDXDXDXDXDXDXDXDXDXDXDX, .         O 7 7 2 2 % o O o o o o % % % & * & & * * * : : : : 3 < < < 4 4 < < 8 8 8 8 8 w 0 9 9 t 3.K G VXxXBXVXVXxXVXVXMXxXxXBX5XVXlXkXzXnX8XmXCXfXL  .U d.NX:.VXNXCXqXU (  .VXVXVXVXyXU q.P NXNXVXcXqXNXX.u.| qXVXVXkXBXxXBXkXVXnXcXVXmXBXVXVXVXBXVXVXmXVXVX} r.hX3X=X=X=X=X=X=X=X=X=X.X.X=X.X.X=X.X.X.X.X{..X|.{.{.|.{.{.[.{.[.[.].].'.'.'.'.(.(.~.~.~.!.!.R.R.Y.R.U.U.U.U.U.I.P.p I.p p p p y i q y a 0 q 0 5 4 3 3 3 - - - * * * 8 0 q e r = o O   5 DXDXDXDXDXDXDXDXDXDXDXDXDXDXDXDXDX",
"DXDXDXDXDXDXDXDXDXDXDXDXDXDXDXDXDX2 .     X   X 5 2 7 5 o O o o o o % % % % & & * & - * * : : : : : 3 3 3 < 4 4 4 8 < 8 8 8 8 8 9 9 K.3.Y G VXxXmXVXVX8XVXVXMXxXVXmXVXVXnXVXkXkXVXlXAXbXL | U ,.NXVXAXtXd.I 0.| | VXVXVXVXyXU q. .@.yXkXVXVXcXU q.U uXNXcXBXBXxXVXVXBXVXmXVXVXxXVXVXVXnXVXVXmXVXBX~ r.hX3X=X.X=X.X=X.X=X.X=X=X.X.X.X.X.X.X.X.X|..X{..X{.{.{.[.[.[.[.[.].].'.'.'.'.(.(.~.(.~.!.!.!./.R.Y.R.U.U.U.U.P.P.I.P.p p p p i p q y q q q 0 0 8 4 5 3 - 3 - - * * - 5 0 0 r r o o O   r DXDXDXDXDXDXDXDXDXDXDXDXDXDXDXDXDX",
"DXDXDXDXDXDXDXDXDXDXDXDXDXDXDXDXDX5 .     X   X 5 5 2 2 o O o o % o % % % & & & & * - * : : : 3 < 3 < < 4 4 4 8 8 8 8 8 8 w 8 w 9 9 K.3.K S VXnXnXVXVXcXVXVXMXcXVXxXVXnXzXVXxXVXVXlXZXVXM | [ } I J I K Y &.0.( ( VXVXVXVXyXU q.q.&.P U U P U e.u.U uXVXcXBXVXVXBXVXxXVXBXVXVXnXVXVXBXVXVXVXmXVXZX} ..lX3X.X.X=X=X=X=X=X=X.X.X.X.X.X.X.X.X.X{..X{..X{.[.|.[.{.[.[.[.[.].].'.'.'.(.(.~.(.^.~.~.!.R.!.Y.R.R.U.U.U.U.P.P.p P.P.I.p P.q p q y y q 0 0 8 5 4 3 3 - , - - * * , 0 q q r 9 = o O   5 DXDXDXDXDXDXDXDXDXDXDXDXDXDXDXDXDX",
"DXDXDXDXDXDXDXDXDXDXDXDXDXDXDXDXDX- .     X   O 2 5 5 - o o o o o o % % % & & & & * * * * , , , : < < 3 < 4 < 8 < 8 8 8 8 0 w 0 w 8 K.2.K F CXMXmXVXVXlXVXVXZXxXVXlXVXBXmXVXkXVXMXMXVXNXL |  .[ &.[ &. .0.0.0. . .VXVXVXVXyXI q.q.q.r.e.q.q.e.e.u.W uXVXVXnXVXVXxXVXnXVXmXBXVXnXVXVXnXVXVXVXmXVXMXU r.hX3X.X=X.X.X.X.X.X.X.X=X.X.X.X.X.X.X.X{.{.{.{.{.{.[.{.[.[.[.[.[.].'.'.'.'.(.(.(.~.~.^.!.^.!.R.Y.Y.U.U.U.U.U.P.P.P.p p p p p p y i q y 0 0 0 0 8 5 3 3 3 , - - * * 4 0 0 y e 0 o o O   5 DXDXDXDXDXDXDXDXDXDXDXDXDXDXDXDXDX",
"DXDXDXDXDXDXDXDXDXDXDXDXDXDXDXDXDX2 . . X   O X 5 7 2 2 o O o o % o % % % & & & & * * * * , , : 3 < 3 4 3 8 4 4 8 8 8 8 9 9 9 w w 8 K.6.Y M bXCXnXVXVXtXVXVXmXMXVX8XVXkXVXmXmXVXBXzXVXbXM Y K K I K K U K P Y I I VXVXVXVXyXY U U P U U U U U U U U qXVXVXcXVXVXmXVXmXVXmXmXVXmXVXVXmXVXVXVXmXVXuX} r.tXQ.*X1X.X=X.X.X.X.X.X.X.X.X.X.X{..X.X|.{.{.|.{.[.{.[.[.[.].[.[.].'.'.'.(.(.(.~.(.!.!.!.Y./.U.U.R.U.U.U.U.I.P.I.P.I.p p p p y i y y 0 0 0 5 0 5 4 3 , - - * * * & 5 0 q e e 0 o o + . 5 DXDXDXDXDXDXDXDXDXDXDXDXDXDXDXDXDX",
"DXDXDXDXDXDXDXDXDXDXDXDXDXDXDXDXDX2 .         X 2 5 2 2 O o o o o % % % % & & & * * * - * , , , : 3 3 6 4 4 4 8 4 8 8 8 9 9 9 w w 9 K.1.Y v NXBXzXVXCXMXmXVXcXVXVXxXVXkXVXkXBXVXcXZXVX5X@.$Xh.l.k.h.k.l.k.@Xl.k.k.VXVXVXVXAXg.eXeXeXeXeXrXrXrXrXrXrX>.CXVXnXVXVXxXVXnXVXBXVXVXBXVXVXmXVXVXVXBXVXkX} r.hXQ..X.XXX.X.X.X.X.X.X.X.X{..X{..X{.{.{.{.{.{.{.|.{.[.{.'.[.[.'.'.'.'.(.(.(.~.~.~.~.R.!.!.!.R.R.R.U.U.U.P.P.I.p P.p p P.p p y e q y y 0 0 7 8 5 4 3 , , - * * * * 0 0 e y e 0 o o     5 DXDXDXDXDXDXDXDXDXDXDXDXDXDXDXDXDX",
"DXDXDXDXDXDXDXDXDXDXDXDXDXDXDXDXDX2 . .   X   O 2 2 5 2 O o o o o o % % & % = * & * * : : , : < 3 < 3 3 4 4 4 4 8 8 8 0 9 9 0 w q 9 K.6.Y v NXVXzXVXVXCXkXVXkXVXBXxXVXzXVXkXVXVXlXVXVX>.VXVXVXVXVXVXVXVXVXVXVXVXVXVXVXVXVXVXVXVXVXVXVXVXVXVXVXVXVXVXqXZXVXnXBXVXBXmXVXnXVXmXVXmXVXVXnXVXVXVXBXVXvXU r.fX3X.X.X.X.X.X.X.X.X.X.X.X{..X.X{.|.{.{.{.{.[.[.[.[.[.[.[.'.].].'.'.'.(.(.(.~.~.~.!.!.!.Y.Y.Y.Y.Y.U.U.U.U.P.P.P.p P.p p p i y y e q q q 0 8 4 4 < 3 - - - - * * & 0 0 e q e 5 = O   . 2 DXDXDXDXDXDXDXDXDXDXDXDXDXDXDXDXDX",
"DXDXDXDXDXDXDXDXDXDXDXDXDXDXDXDXDX+ .   O     O ; 7 5 2 O o o o o o % % & & & & * * * * : : : 3 : < 4 < 3 4 8 8 4 8 8 9 9 w 9 w 9 9 K.3.Y v NXVXzXVXVXlXkXVX5XVXlXcXmXxXmXnXVXVXcXVXVXv ZXVXVXVXVXVXVXVXVXVXVXVXVXVXVXVXVXVXVXVXVXVXVXVXVXVXVXVXVXVXd.yXVXVXBXVXVXxXVXxXVXlXVXnXnXVXkXVXVXBXVXVXyXU r.tX3X.X.X|..X.X.X.X{..X{.|..X.X{.|.{.{.{.{.[.{.{.[.[.[.'.[.'.].'.'.(.(.'.(.~.~.~.~.~.R.!.Y.R.U.U.U.U.U.U.P.P.I.P.p p p p p p i y e a 0 0 0 0 5 5 < 3 3 - - * * * , 0 e e e e 3 o o O . 2 DXDXDXDXDXDXDXDXDXDXDXDXDXDXDXDXDX",
"DXDXDXDXDXDXDXDXDXDXDXDXDXDXDXDXDX+ . .     X O ; 7 2 2 o o o o % % % % % & & & * * * * , , , , 3 6 < 4 4 6 4 8 8 9 8 9 9 w w q q 9 K.8.Y M NXVXxXmXVXmXnXVXlXVXzXVXxXVXMXMXVXMX8XVXmXM NXVXVXVXVXVXVXVXVXVXVXVXVXVXVXVXVXVXVXVXVXVXVXVXVXVXVXVXVXVXwXt.VXVXlXVXVXnXVXmXVXBXVXmXVXVXmXVXVXmXVXVXrXW &.hXQ..X.X.X.X|..X{..X.X{.{.{.{..X{.{.|.|.[.[.[.[.[.[.].].].].].'.(.'.~.'.(.~.~.~.~.!.R.R.!././.U.U.U.P.I.P.P.p p P.p p p p i y q y q q 0 8 5 5 5 3 , - - : * * * , r e e e i : o O X . ; DXDXDXDXDXDXDXDXDXDXDXDXDXDXDXDXDX",
"DXDXDXDXDXDXDXDXDXDXDXDXDXDXDXDXDX+ .     + X X + 5 5 2 o o o o % o % % & & & & * * * , * , , 3 < 3 3 4 4 8 4 8 8 8 8 w 9 w w w q 8 K.3.Y J kXVXxXBXVXBXnXVXzXVXlXVXxXVX5XAXVXd.>.CX>.I VXVXVXVXVXVXVXVXVXVXVXVXVXVXVXVXVXVXVXVXVXVXVXVXVXVXVXVXVXVXyXL VXVXn VXVX9XVXnXVXxXVXmXBXVXmXVXVXmXVXVXwX..&.fX3X.X{..X{..X.X{.{.{..X{.{.|.{.{.|.[.{.[.[.[.[.].].].'.].'.'.'.(.(.'.~.~.~.~.!.!.!.R.R.Y.U./.L.U.U.U.U.P.P.I.P.p p p p p p y y q q 0 0 5 8 5 < 3 , - * * * * * 8 r e e i i = = O   . + DXDXDXDXDXDXDXDXDXDXDXDXDXDXDXDXDX",
"DXDXDXDXDXDXDXDXDXDXDXDXDXDXDXDXDXDX  . X   X O o 5 5 2 % O % % o % % & & & & - * * * , , : , , 3 3 3 6 4 4 8 8 6 9 9 9 9 w w q w w K.3.Y J 0XVXmXxXVXmXmXVXnXVXxXVXzXVXc VXVXN L bXK L ,.&.&.&.0.0.0.0.0.0.q.0.0.VXVXVXVXyX| y.u.u.u.u.y.u.u.g.u.g.6.U uXzXR AXVXa.yXVXBXZXVXVXVXVXmXVXVXmXVXVX,.&.r.tXQ.|.{.|..X{.{..X{.{.{.{.{.{.|.[.[.[.{.[.[.[.[.[.].'.'.'.'.'.'.(.(.~.~.~.~.~.!.!.E.R.Y.R.U./.U.U.U.P.P.P.P.p P.P.p p p y y y y 0 e q 0 0 5 < < , , - - * * * * 0 e e t i e o o O O + DXDXDXDXDXDXDXDXDXDXDXDXDXDXDXDXDXDX",
"DXDXDXDXDXDXDXDXDXDXDXDXDXDXDXDXDXDX5 .   X O X X 5 5 2 ; O o o % % o ; & & & & * * - * , , , , < 3 4 4 4 4 8 4 8 9 9 9 9 w w q q w K.9.Y J :.VXVXcXVXnXmXVXcXVXkXVXbXMXM NXNXJ } J | Q m U P P P R P U R R } K U VXVXVXVXyXY } R } W R W | } } } | F u.| R | t.VXt.8.VXmXVXmXVXmXVXmXVXVXmXVXCXU u.&.fXQ.{..X{.|.{.{.{.{.{.{.{.{.[.[.|.[.[.[.[.[.[.[.'.].'.'.'.'.(.(.(.(.~.~.~.!.!.R.!.R.R.R.Y.U.L.I.U.U.U.P.P.p P.p p p p y p y y q e 0 0 0 8 0 < , , , - * * * * - 0 e e e i e = o O   7 DXDXDXDXDXDXDXDXDXDXDXDXDXDXDXDXDXDX",
"DXDXDXDXDXDXDXDXDXDXDXDXDXDXDXDXDXDX5 .   X O X O 5 5 5 ; o o o % % % % & & * & * * : : : : : 3 3 4 6 4 4 8 8 8 8 9 8 9 w w q w e w K.3.K K C bXVXcXVXAXBXVXlXVXkXMXCX:.Y >.F U ( U W J Q | ( ( } } | &.&.&.&.( ( VXVXVXVXyXI 0.0.0.q.0.&.&.0.q.q.q.^ ..&.q.u.U uX5.P CXmXVXnXVXnXVXmXVXVXBXVXvXU i...hXQ.|.|.{.{.{.{.{.{.{.{.[.[.[.|.[.[.[.[.[.[.[.].'.'.'.'.'.'.(.'.~.~.(.~.~.~.!.R.R.R.R.R.Y./.U.U.I.P.P.P.P.P.i P.i p p i e y q q e 0 0 0 5 < 5 , , - : & * & * 3 e y y i i r o o X   5 DXDXDXDXDXDXDXDXDXDXDXDXDXDXDXDXDXDX",
"DXDXDXDXDXDXDXDXDXDXDXDXDXDXDXDXDXDX2 .   O X O O 2 2 2 - o o % % % & & & & * * * * * : 3 : 3 < < 6 4 4 8 6 4 8 8 9 9 9 w q w q q e K.3.Y P v 9XVXzXVXcXVXVXlXVXBXNXNXJ P Y U R I M F >.! | [ T L ) I J K  .&.} | VXVXVXVXyXU 0.0.} I P ( @.U &.r.&.:.%X[ U U q.W w.U uXCXVXBXVXxXVXmXVXVXBXVX:.&.e...9XQ.|.{.{.{.|.[.{.[.{.[.{.|.[.].].].[.].].].'.'.'.'.'.'.(.(.(.~.(.(.~.~.~.~.!.R.R.R.Y.U.R.U.U.U.I.P.P.P.P.P.P.i P.p p i i y y y q 0 0 8 0 5 < - , - : * * * & 8 e e y i i 5 = o X   3 DXDXDXDXDXDXDXDXDXDXDXDXDXDXDXDXDXDX",
"DXDXDXDXDXDXDXDXDXDXDXDXDXDXDXDXDXDX;     X X O X - 5 2 ; o o o o % % & & & & * * * * : : , : 3 3 4 4 4 4 8 8 8 9 9 9 w w w q q q w K.8.K T M tXVXzXVXcXVXVXAXMXCXjXkXJ | ~ K v tXCXVXNXL W Y t.CXVXNXcXuXL | ( } VXVXVXVXyXY 0.W p.cXnXVXVXNXP q.U tXVXVXCXqXP &.e...y.NXNXnXVXnXVXmXVXmXVXVX8.*.e.r.tXQ.|.{.{.[.{.{.[.[.[.[.[.[.[.].|.].].[.].'.].].'.'.'.(.'.(.~.~.~.~.~.~.!.!.R.R.R.R.R.U.U.U.U.P.U.P.P.P.P.i P.P.e i i e e y q 0 e 0 0 0 < < 5 , - : * * * * & 0 y y i p i 5 o o X . 2 DXDXDXDXDXDXDXDXDXDXDXDXDXDXDXDXDXDX",
"DXDXDXDXDXDXDXDXDXDXDXDXDXDXDXDXDXDX+ .   X O X O ; 5 5 - o o % % % % % & * & * - * : - , , < 3 4 6 4 4 4 4 8 8 9 9 9 0 w w q q q w K.3.K P J qXVXzXVXcXVXvXZXzXbXV +.U U J :.VXVXxXVXbXA U R 9.tXv CXNXCXqXK | | VXVXVXVXyXP  .I NXNXVXtX9.zXW q.X.tXCXmXCXVXnXP U q.q.d.qXNXMXmXVXBXVXmXVXVX$.&.q...fXOX[.{.[.[.[.{.[.[.[.|.[.[.[.].'.[.'.'.[.'.'.'.'.'.(.'.(.(.(.(.~.~.~.!.!.R.R.R.R.U.U.R.U.U.P.U.P.P.P.p P.P.e e P.i i i e y 0 e 0 0 8 5 5 < < , - * * * * * , e y i p p d ; % o   . ; DXDXDXDXDXDXDXDXDXDXDXDXDXDXDXDXDXDX",
"DXDXDXDXDXDXDXDXDXDXDXDXDXDXDXDXDXDX  .     X O X % 5 3 - o o o % % % & & * * * * , * : , , , < 4 4 4 4 8 4 8 8 0 9 9 9 w w q q q w K.6.K T K >.BXvXVX9XVX8XZXNXAXJ U R M 9XVXBXkXmXlXNX+.Y [ R Y J CXBXNXuXK | ~ VXVXVXVXyXY &.! CXmXCXqXU U q.q.I cXNXxXZXcXVXNXt.| q.U a.VXZXnXVXAXVXBXVXNXP q.q...fXQ.|.'.[.[.[.[.[.[.[.[.[.'.[.'.'.|.'.'.'.'.'.'.'.'.'.(.'.~.~.~.~.~.!.!.!.R.Y./.L.U.U.U.U.U.U.P.P.P.P.P.P.P.q p p p q i q q y 0 0 0 8 8 4 3 , , - - & * * * 5 e e i i f f = % O   . DXDXDXDXDXDXDXDXDXDXDXDXDXDXDXDXDXDXDX",
"DXDXDXDXDXDXDXDXDXDXDXDXDXDXDXDXDXDXDX5 . + O X O O 3 5 3 o o o o & % & & & & * * * : : , , < < < 3 6 4 4 8 8 8 8 9 9 w q w q q q t K.3.Y L K G CXzXVXlXVXxXVXNXqXJ U M bXVXVXlXVXvXVXVXiXI |  .I kXNXVXCXqXY ( } VXVXVXVXyXY  .T NXCXmXNX6...0.| [ VXVXmXmXVXcXVXVXtXU r.T VXnXVXBXnXVXBXVXBXU r.q...fXQ.[.[.[.'.|.[.[.'.[.|.'.[.'.'.[.'.'.'.'.'.'.'.'.~.'.~.~.~.~.~.~.~.~.R.R.R.R.R./.!.U.U.U.U.P.P.U.P.P.P.p p P.p p y i q p e q 0 0 0 8 8 3 < , , - - - * & * r e f i f f e o o O   r DXDXDXDXDXDXDXDXDXDXDXDXDXDXDXDXDXDXDX",
"DXDXDXDXDXDXDXDXDXDXDXDXDXDXDXDXDXDXDX3 . X O O O O 3 5 5 o o % % % % & & * & * : * , : , , , < 6 4 4 4 8 4 8 8 9 9 w q q w q q q q K.8.K T K D VXzXVXlXVXzXcXVXD Y ~ P ! b >.VXlXVXVXVXzXv | ( K cXNXCXNXqXK ~ ( VXVXVXVXyXU  .T NXVXmXCX9.| 0.U >.VXVXVXMXVXNXG t.| q.q.P nXCXmXBXMXVXmXVXnXU e.q...9XQ.'.[.[.[.[.'.[.|.'.'.'.'.[.'.'.'.'.'.'.'.'.~.'.(.~.~.~.~.~.~.R.R.R.R.R.R.R./.U.U.U.U.U.U.P.P.P.P.P.p P.P.q p q i q i q q 0 q 0 5 8 5 3 < - - * & * * * * e e i d d P.0 o o     5 DXDXDXDXDXDXDXDXDXDXDXDXDXDXDXDXDXDXDX",
"DXDXDXDXDXDXDXDXDXDXDXDXDXDXDXDXDXDXDX2 . O O O X O 2 5 2 o % o % % % & & & * * * : : , , , , < 4 4 4 6 8 8 8 8 9 9 9 9 w q w t q q K.5.K T I L VXnXVXxXcXmXbXNXM R R ~ Y M CXNXcXVXMX9XNX:.Y ~ Y M NXBXNXuXY ( R VXVXVXVXyXY  .T NXZXVXqXU U 0.P NXvXxXZXVXzXVXuXP 0.q.q.U qXVXBXZXnXVXBXVXvXU q.*...hXQ.[.'.[.'.[.[.'.'.[.'.'.'.'.'.'.'.'.'.~.~.'.~.~.(.~.~.~.~.~.!.~.R.!.R.R.Y.Y.U.U./.L.U.I.P.P.P.P.P.P.p p p p p P.q i q q q q 0 0 8 5 4 < , , : * * * * * 5 e i i d f g 3 % o + . 2 DXDXDXDXDXDXDXDXDXDXDXDXDXDXDXDXDXDXDX",
"DXDXDXDXDXDXDXDXDXDXDXDXDXDXDXDXDXDXDX+ .   X O O o & 5 3 o o % % % & & & - * * - - - , , , 3 4 3 4 4 8 8 5 8 8 9 9 w w q w q q t r K.8.I P K m CXxXVXmXnXcXNXqXJ R ~ U M NXVX8XmXcX7XvXVXNXJ 6.uXM NXMXVXqXK } } VXVXVXVXyXY  .J NXNXNXuX@.iXU d.VXBXzXtXCXcXmXVXtXP w.q.&.T VXmXMXVXVXmXVXkXU q.q...9XQ.].'.'.].].'.].'.'.'.'.'.'.'.'.'.~.~.'.~.'.'.~.~.~.~.~.~.R.~.R.E.R.R.R.Y.E.U.U.U.U.U.I.P.P.P.P.p P.i i P.q q q y y q q q 0 0 8 8 < 5 , , - - * * * * * r f f i d P.d & o O O . ; DXDXDXDXDXDXDXDXDXDXDXDXDXDXDXDXDXDXDX",
"DXDXDXDXDXDXDXDXDXDXDXDXDXDXDXDXDXDXDXDX4 X X O o X o 5 3 ; % o % % & & & & * * : - , , , , < 3 4 4 4 8 6 8 8 9 9 9 9 q q q q r q w K.6.K T I M jXBXVXvXnXAXNXn Y T T R ~ +.c NXVXvXVXMXVXVX:.A CXNXVXkXtXT | } ~ VXVXVXVXyXY &.W d.kXNXCXCXNXL CXVXBXVXBXBXCXqX_ p. .q.q.0.I cXCXZXmXmXVXCXd.| q.q...9XQ.'.'.'.'.'.].OX'.'.'.'.'.'.~.'.'.'.'.'.(.~.~.(.~.~.~.~.R.~.R.R.R.R.R.U.U.U.R.U.U.U.I.P.P.P.P.P.P.i P.i P.y P.q q a q a 0 0 0 8 8 5 < , > * - * * * * * e e f f g P.f o o O   5 DXDXDXDXDXDXDXDXDXDXDXDXDXDXDXDXDXDXDXDX",
"DXDXDXDXDXDXDXDXDXDXDXDXDXDXDXDXDXDXDXDX5 . O O X O o 3 2 - o % % % & & & * - * * : - , , < , 3 6 4 4 6 8 8 8 8 9 9 w 9 w q q t q t K.9.Y T T M xXbXVXlXzXNXcXM R ~ T R ~ Y >.VXCXcXVXkXVXVXVXv J ,.J K J |  .~ } VXVXVXVXyXK &.&.Y Y I ' 9.m tXVXVXmXmXVXcXVXCXU | q.0.q.q.U s.CXnXmXnXVXCXs.U q.0...dXL.'.'.'.'.'.'.'.'.'.'.'.~.'.'.~.~.'.~.~.~.~.~.~.~.~.R.R.R.~.R.R.E.R.R.E.Y.U.U.L.L.p P.P.P.P.P.P.i P.q P.P.q q q y y q q q 0 0 5 8 4 3 3 - * * * * * - 4 i i f d g I.r o O O . 5 DXDXDXDXDXDXDXDXDXDXDXDXDXDXDXDXDXDXDXDX",
"DXDXDXDXDXDXDXDXDXDXDXDXDXDXDXDXDXDXDXDX2   X O o O o , 5 - o % % % & & & & * * * : - , , , < 4 4 4 4 8 4 8 8 8 8 9 q w q w q q q e K.9.Y L T M MXVXBXzXxXbXqXJ T T T T X.J bXmXiXCXVXxXVXVXVXNXM Y | ( ( ( ( ~ ~ VXVXVXVXyXK &.&.&.$.&...U qXCXVXVXbXVXVXcXVXVXt.} 0.0.&.q.&.~ NXMXmXmXVXVXs.U q.0.r.0XQ.~.'.(.'.'.'.'.'.~.'.~.'.'.~.'.~.~.~.~.~.~.~.~.~.~.R.~.R.R.R.R.Y.R.U.U.U.U.U.I.P.P.P.P.P.P.q P.P.i P.q q P.q P.y q q q 0 0 8 5 4 4 3 , - * * * * * - 0 i f f I.I.I.5 % o X   3 DXDXDXDXDXDXDXDXDXDXDXDXDXDXDXDXDXDXDXDX",
"DXDXDXDXDXDXDXDXDXDXDXDXDXDXDXDXDXDXDXDX+   X O o O o ; 7 , o % % % & & * & * * * , : : , , < < 4 < 4 4 8 8 8 8 9 9 w w q q q t q t K.d.Y L P J AXVXzXAXkXCX:.K T T T T W v c.c.c.NXVXVX>.CXmXbXVXn W | ( | ( R R VXVXVXVXyXY  .&. .$.&.I tXCXkXVXnXqXVXVXJ.v.b.o.;.q.0.0.0.0.U nXCXMXxXVXVXp.W q.0.r.:XQ.'.'.'.'.(.'.~.'.~.'.~.~.'.~.~.'.~.~.~.~.R.~.~.R.~.R.R.R.R.R.U.R.U.U.R.I.I.U.I.P.P.P.P.P.P.P.q P.q y P.w P.q q a q q 0 0 8 5 4 4 3 3 , - * * * * * * y i f f I.I.g * o O     ; DXDXDXDXDXDXDXDXDXDXDXDXDXDXDXDXDXDXDXDX",
"DXDXDXDXDXDXDXDXDXDXDXDXDXDXDXDXDXDXDXDXDX7   O O O o o 5 , o % % % & & & * * * * : : : , , , < 4 < 4 8 4 8 8 9 9 w 0 w w q q q q w K.&XY T P J vXVXzXNXbXjXL I T P T W B b.n.n.c.C VXhXM qXNXM uXG b ( | [ ( R } VXVXVXVXyXK  . .&. ._ m uX' t.NXJ m VXnXH n.n.m.o.;.q.0.0.0.Y tXbXVXMXVXVXp.W q. .r.1XL.'.~.'.'.~.~.'.~.'.~.~.'.~.~.~.~.~.~.~.~.~.R.~.R.R.R.E.R.E.R.Y.R.U.W.U.L.U.I.P.I.P.P.P.q P.P.P.P.q P.q q q y q q q q 0 0 8 8 4 4 < , - - - * * * * 5 p f f g T.T.u % o O   5 DXDXDXDXDXDXDXDXDXDXDXDXDXDXDXDXDXDXDXDXDX",
"DXDXDXDXDXDXDXDXDXDXDXDXDXDXDXDXDXDXDXDXDX5   O o X o o - 5 o % % & & & & * * * - : , , , < , 4 3 4 4 8 8 8 8 0 9 9 w w q q q q q q t z Y P P J tXVXNXkX5XM I R P ~ U m c.b.J.c.I K >.Q P J L W K W } C ! K Y W R VXVXVXVXyXY } K ~ G _ &.U U | I | U qX_ ;.x.b.N.n.o.;.0.0.2.0.U 9.lXCXCXVX9.} 0.| z.=XL.~.~.~.~.'.~.'.~.'.'.~.~.~.~.~.~.~.~.E.~.R.!.R.~.E.R.R.E.R.R.Y.U.U.U.L.U.U.P.P.P.P.P.P.P.P.q P.q P.q P.q q q y y q 0 0 8 8 8 < < , > - * * * * - * a p f g I.I.I.a % o O   5 DXDXDXDXDXDXDXDXDXDXDXDXDXDXDXDXDXDXDXDXDX",
"DXDXDXDXDXDXDXDXDXDXDXDXDXDXDXDXDXDXDXDXDX2 . X X o o o - 3 ; % % % & & & * * * * : : , , , < 4 4 4 < 4 8 8 4 9 9 9 w w q w q q q q 8 _.U I T J >.VX>X{ K U R P P P E c.n.n.c.I U ~ K U ~ ~ R | ~ ( ~ ..J 0Xd.M K VXVXVXVXrXM Q uXG W 0.&.&.&.&. .&.0.Y | 0.;.,.N.N.M.G ;.0.&.0.&.} I 9XxXVXL &.0.} k.Q.Q.~.'.~.~.~.~.~.~.~.~.~.~.~.~.R.~.E.~.~.~.R.R.E.E.R.R.R.R.U.L.U.Y.U.U.I.P.P.P.P.P.P.P.P.q P.P.q P.w P.y y P.q q q q 0 8 8 5 4 4 < , - * * * * * - 4 a p g I.T.T.T.- o o   . 2 DXDXDXDXDXDXDXDXDXDXDXDXDXDXDXDXDXDXDXDXDX",
"DXDXDXDXDXDXDXDXDXDXDXDXDXDXDXDXDXDXDXDXDX+ + X o o o o % 5 - % % % * % & & * * * * , , , 3 3 4 4 4 4 8 4 8 8 9 9 9 9 w q w q q q q s Q...I P I m jXM K U P T T L E o.J.b.o.E W T T ~ ~ ~ ~ ~ ~ ~ } ( Y :.VXNXNXkXtXyXkXvX9XVXbXVXNXJ  .&.[ &.[ &. .&.&.&.&.0.;.;.N.N.b.F ;.0.0.0.0.&.Y %XtXY 0.0.U rXQ.~.~.~.~.~.~.~.~.Q.~.~.~.~.~.~.~.~.R.R.~.R.R.R.R.L.!.R.E.R.U.U.W.U.U.U.P.L.p P.P.P.P.P.i P.P.P.q P.w q q y q q q q q 0 8 8 5 4 < , , - * * * * * * 0 p g g g T.Y.h o = X +   + DXDXDXDXDXDXDXDXDXDXDXDXDXDXDXDXDXDXDXDXDX",
"DXDXDXDXDXDXDXDXDXDXDXDXDXDXDXDXDXDXDXDXDXDX5   O o o X o 5 - % % % % * * * * : : - , , , , < < 3 4 4 4 8 8 8 8 9 9 w w q q q t t i q K.r.K L T I M L L E I T U I o.n.b.o.v m v W ~ ~ R W ~ ~ ~ ~ ~ } M NXVXzXVXxXVXxXVXnXVXNXVXkXVXd.K  . .| &. .$.&.[  .&.;.E G G b.M.N.;.;.0.0._ $.&.O.P 0.0.4...0XQ.~.~.~.~.~.~.~.~.~.~.~.~.~.~.R.!.R.~.R.R.R.E.L.E.U.R.Y.U.U.R.U.U.W.P.P.U.P.P.P.P.P.i P.P.P.w q P.w P.P.y w P.y q w 0 0 4 5 8 5 , , , - * * * * * , a p g T.T.T./.a o o X . 5 DXDXDXDXDXDXDXDXDXDXDXDXDXDXDXDXDXDXDXDXDXDX",
"DXDXDXDXDXDXDXDXDXDXDXDXDXDXDXDXDXDXDXDXDXDX-   X o o o o - , % % % % * & * * * * : - , , < < 3 < 4 4 8 4 8 8 8 9 9 9 w q q q q t q q K.t.Y L P B n.n.x v.v E B o.b.b.o.o.n.J.n.n W R ~ ~ ~ ~ ~ R ~ K qXVXlXVXcXNXAXBXVXkXVXkXVXxXCXCXM |  . . .[  . . .[ ;.v.n.n.M.G b.N.J.F ;.;.O.J.c.n.c.;.&.0...:XK.~.~.L.~.E.~.~.~.~.R.~.E.L.~.R.R.R.R.E.R.U.R.!.R.R.U.R.Y.W.L.U.U.U.P.U.P.P.P.P.P.P.q P.i P.q P.w q q P.q q q q q 0 0 8 4 4 8 , , , , - * * - * * 0 p g g T.T.T.T.- o o     2 DXDXDXDXDXDXDXDXDXDXDXDXDXDXDXDXDXDXDXDXDXDX",
"DXDXDXDXDXDXDXDXDXDXDXDXDXDXDXDXDXDXDXDXDXDX+   X X o % o * < % & & % * & * * * - , , < 2 < 3 3 4 4 4 5 8 9 9 9 0 9 q q q q q q q w P.s oXY L L L v o.FXn.n.v.b.n.v.b.n.n.b.o.N o.W T ~ ~ R ~ ~ ~ U M BXVXzXVXvXVXxXVXVXZXVXnXBXVXvXVXtXK  .[  . . . .[ &.4.o.' v.n.n.N.v.n.M.b.N.n.J.c.;.$.&.&.} z.3XE.~.~.(.~.~.~.R.~.~.~.~.R.~.R.~.~.R.~.R.R.R.R.R.R.R.R.U.U.Y.U.U.U.U.I.P.L.P.P.P.P.P.P.p p w P.q P.P.q q q q q q q 0 w 8 0 8 < < 3 , , - - * * > - a p g U.T././.g % % o     + DXDXDXDXDXDXDXDXDXDXDXDXDXDXDXDXDXDXDXDXDXDX",
"DXDXDXDXDXDXDXDXDXDXDXDXDXDXDXDXDXDXDXDXDXDXDX1 . . . . . . 1 X X X X . X X   X X X 1 X X 1 1 X 1 1 1 1 1 1 1 1 1 > 1 1 > 1 1 1 1 s 1 1 K...K L P I H O.o.b.n.n.n.n.n.J.c.M W W W E T R ~ ~ R ~ ( K qXVXcXVXVXzXVXlXVXVXBXcXVXzXVXcXVXVXm }  .|  . . . . . .;.;.;.` J.n.M.n.M.M.n.v.V.v.! *.| [ ..d.K.t K.K.K.K.K.K.K.K.K.K.t K.K.K.s K.K.t K.t t t t t s K.s s s t s s t s s s w s s s s s > > > > s > > > 1 s > = > 1 1 > 1 1 1 X 1 o X X X X X X X > > 8 q t y i p -   . . . 1 DXDXDXDXDXDXDXDXDXDXDXDXDXDXDXDXDXDXDXDXDXDXDX",
"DXDXDXDXDXDXDXDXDXDXDXDXDXDXDXDXDXDXDXDXDXDXDXl k z _.z z `.`.`.l `.`.`.`.`.`.`.`.`.`.6X4X>X6X6X6X6X6X6X6X6X6X0X6X0X6XaX6X0XaX0XaX0XaX0XdXp.J T P U P o.o.n.c.n.{ M o.o.B W E M W R ~ R T ~ R ~ U m CXVXlXVXVXlXVXlXVXVXMXxXVXzXVXlXBXVXtXK [ [ [ ( ( [  . .;./  .;.{ c.O.B n.b.N.M.o.x.;.*.[  .Y cXfXgXfXfXjXfXhXfXfXhXjXfXhXfXfXfXfXhXfXfXfXfXfXfXfXfXfXfXfXfX8XfXfXdXfXfXdX9XfX9X9XdXdX9X9XsX7XsX0X7XaX0XaX0X0XaX6X5X6X6X6X6X6X6X6X`.`.`.`.`.`.`.`.6X0XsX7X7XdX9X7X`.`.z k 7 l DXDXDXDXDXDXDXDXDXDXDXDXDXDXDXDXDXDXDXDXDXDXDX",
"DXDXDXDXDXDXDXDXDXDXDXDXDXDXDXDXDXDXDXDXDXDXDXz fX8XcXnXAXnXAXnXnXnXnXnXnXnXZXmXmXmXZXZXNXmXZXBXZXZXBXBXBXBXCXVXBXBXBXVXVXVXBXVXBXVXVXVXBXZXJ P I H J.x n.o.c.b.B W J U U W M n.m E P T ~ P ~ ~ K ,.NXcX7XVXlXlXVXlXVXVXBXcXVX7XVXxXlXBXxXK | (  .( [ ( | ;.b.b.;. .&.;.;.;.O.n.o.N.v.c.b./ &.R &.VXVXVXVXVXVXVXVXVXBXVXVXVXVXVXVXVXBXVXVXVXVXVXVXVXVXVXVXVXBXVXVXVXVXVXCXVXVXVXVXVXCXCXVXBXVXBXNXBXVXBXBXBXBXBXNXBXBXBXVXBXBXZXZXZXBXZXZXZXmXMXZXmXmXZXNXZXBXBXBXBXZXnXxXiX0X7Xz DXDXDXDXDXDXDXDXDXDXDXDXDXDXDXDXDXDXDXDXDXDXDX",
"DXDXDXDXDXDXDXDXDXDXDXDXDXDXDXDXDXDXDXDXDXDXDXDX7X7XkXnXnXnXnXnXnXmXnXmXnXnXmXmXmXmXZXZXZXZXZXZXZXZXBXBXBXBXBXBXVXBXBXVXVXVXVXBXVXBXBXVXBXVXT J m b.J.n.o.c.J.b.E T T T R I c.n.v.I R R ~ ~ R R T Y c VXVX7XCXxXmX8XVXVXmX8XVXxXxX8XVX9XM  .| ( ( ( | | ;.{ n.n.S | [ | ] ( @.n.c.c.v.n.n.O.;.K yXVXVXVXVXVXVXVXVXVXVXVXVXVXVXVXVXVXVXVXVXVXVXVXVXVXVXVXVXVXVXVXVXVXVXVXCXVXVXVXVXCXVXBXVXBXVXVXBXCXBXVXVXBXVXBXBXBXBXBXBXBXBXBXZXZXZXZXZXZXMXmXmXmXZXZXBXZXZXBXBXZXnXnXvX7X4X7XDXDXDXDXDXDXDXDXDXDXDXDXDXDXDXDXDXDXDXDXDXDXDXDX",
"DXDXDXDXDXDXDXDXDXDXDXDXDXDXDXDXDXDXDXDXDXDXDXDX>X5XlXxXnXAXnXnXnXnXnXnXnXmXnXmXnXZXnXZXZXZXZXBXBXZXBXBXBXBXBXBXVXBXBXBXBXVXVXBXBXVXVXBXVXVXrXJ o.n.v o.v.x n.o.I L R E W E n.N.n.m W Y U R R R R J xXVXnXZXCXiXxXnXZXVXvXVX7XVXVXzXVXVX:.Y ( ( | | W ;.W v.n.M.v.;.;.W &.;.F M.v.c.v.F O.n.! I VXVXVXVXVXVXVXVXVXVXVXVXVXVXVXVXVXVXVXVXVXVXVXVXVXVXVXVXVXVXVXVXVXVXVXVXVXVXVXVXBXVXVXBXVXVXVXBXVXBXVXBXVXBXBXBXCXBXBXBXBXBXBXBXZXZXZXZXmXmXmXmXmXmXZXZXZXBXBXBXBXmXnXnXkX7X4X`.DXDXDXDXDXDXDXDXDXDXDXDXDXDXDXDXDXDXDXDXDXDXDXDX",
"DXDXDXDXDXDXDXDXDXDXDXDXDXDXDXDXDXDXDXDXDXDXDXDXDXlX9XcXxXnXnXnXmXnXmXnXmXnXmXmXmXmXmXmXZXZXZXBXZXBXZXBXBXBXBXBXBXBXVXBXBXVXBXVXVXBXVXVXVXBXVXK b c W n n.b.n.n E E J o.o.c n.b.n.b D o.B W T T K :.VXVXkXVXVXxXVXVXkXVXcXVXBXnXVXAXBXVXNXJ | ( | ;.F c.E v.N.n.v.B c.{ W  .E N.n.N.N.;.;.V Y wXVXVXVXVXVXVXVXVXVXVXVXVXVXVXVXVXVXVXVXVXVXVXVXVXVXVXVXVXVXVXVXVXVXVXVXVXVXVXVXVXBXVXVXBXVXBXVXBXBXVXBXVXBXBXVXBXBXBXBXBXBXZXZXZXBXZXmXZXmXMXMXmXMXZXZXBXBXZXZXBXBXMXnXcX8X4X8XDXDXDXDXDXDXDXDXDXDXDXDXDXDXDXDXDXDXDXDXDXDXDXDXDX",
"DXDXDXDXDXDXDXDXDXDXDXDXDXDXDXDXDXDXDXDXDXDXDXDXDX0X0XkXxXxXxXnXnXnXnXnXnXmXnXZXmXmXmXmXZXZXZXZXZXBXBXBXBXBXBXBXBXVXBXVXVXBXVXBXVXBXBXVXVXBXBXl.J P R v c.b.c.M U M b.n.n.c.n.N.b.b.n.n.b.E R } M NXVXVXlXVXVXlXVXVXmX9XVXVXVXkXVXBXcXVXVX>.Y ( E o.n.n.n.N.v.n.v.b.n.n.O.;.W ' J.n.o.W  .;.I VXVXVXVXVXVXVXVXVXVXVXVXVXVXVXVXVXVXVXVXVXVXVXVXVXVXVXVXVXVXVXVXVXVXVXVXVXVXVXVXVXVXVXVXVXVXVXBXVXVXBXVXBXBXVXBXVXBXBXBXBXBXBXBXBXZXZXmXZXmXmXmXZXMXZXZXBXBXBXBXZXmXnXnXvX0XB.5XDXDXDXDXDXDXDXDXDXDXDXDXDXDXDXDXDXDXDXDXDXDXDXDXDX",
"DXDXDXDXDXDXDXDXDXDXDXDXDXDXDXDXDXDXDXDXDXDXDXDXDXl lXtXcXnXnXnXnXmXnXmXnXnXmXnXnXmXmXmXZXZXZXZXZXZXBXBXBXBXBXBXZXVXBXBXBXVXBXVXBXVXVXBXVXVXVXCXJ I E M n.o.E P E { n.n.n.v.n.b.b.b.n.n.n.o.E K :.VXVXmXmXVXVXvXVXVXBX8XVXVXBXxXVXVXcXVXVXNXM } E n.N.M.n.v.N.n.N.n.M.n.N.E $.W B n.O.;.[ Y Z.VXVXVXVXVXVXVXVXVXVXVXVXVXVXVXVXVXVXVXVXVXVXVXVXVXVXVXVXVXVXVXVXVXVXVXVXVXVXVXVXBXVXBXBXVXBXVXVXBXBXVXVXBXBXVXBXBXBXBXBXBXBXBXZXZXZXmXmXmXMXmXmXmXZXBXZXBXZXBXBXBXMXnXnXfX6X8Xz DXDXDXDXDXDXDXDXDXDXDXDXDXDXDXDXDXDXDXDXDXDXDXDXDX",
"DXDXDXDXDXDXDXDXDXDXDXDXDXDXDXDXDXDXDXDXDXDXDXDXDXDX7X7XzXAXnXnXnXnXnXnXnXmXmXMXMXmXmXmXZXZXZXZXZXBXBXNXBXBXBXBXBXBXCXBXVXBXVXVXVXBXVXVXBXVXVXVXrXJ T E v.o.L X.I o.n.n.v.b.n.b.n.b.v.n.n.o.Y J NXVXBX7XMXVXVXnXVXVXBX5XVXVXBXAXVXVX9XxXVXVXqXY B n.n.N.b.N.N.n.N.b.N.n.b.;.| | Q N.] | R K VXVXVXVXVXVXVXVXVXVXVXVXVXVXVXVXVXVXVXVXVXVXVXVXVXVXVXVXVXVXVXVXVXVXVXVXVXVXVXVXVXVXVXBXBXVXBXVXBXVXVXBXVXBXBXBXBXBXBXBXBXmXBXBXZXZXZXZXZXmXmXmXmXZXZXBXBXBXBXBXZXBXMXnXzX7X4X0XDXDXDXDXDXDXDXDXDXDXDXDXDXDXDXDXDXDXDXDXDXDXDXDXDXDX",
"DXDXDXDXDXDXDXDXDXDXDXDXDXDXDXDXDXDXDXDXDXDXDXDXDXDXl 5XlXxXAXnXnXnXnXnXnXnXnXmXMXMXmXMXmXZXZXZXZXBXZXZXmXBXBXBXBXBXVXBXBXBXBXBXBXVXVXBXVXBXBXVXCXL J P L H L P U H n.n J v b.n.b.M E n n.o.I P qX0XnX8XnXVXVXkXVXVXxXxXVXVXVXzXVXVX8XBXjXqXd.K E n.N.B E c.N.n.o.;.B N.b.E ( | o.G W [ I yXVXVXVXVXVXVXVXVXVXVXVXVXVXVXVXVXVXVXVXVXVXVXVXVXVXVXVXVXVXVXVXVXVXVXVXVXVXVXVXVXBXVXVXVXVXVXVXBXVXVXVXBXBXBXBXVXBXBXBXBXBXBXBXmXmXNXmXZXZXMXMXmXmXZXZXBXBXZXBXBXBXMXnXnXlX0X4Xl DXDXDXDXDXDXDXDXDXDXDXDXDXDXDXDXDXDXDXDXDXDXDXDXDXDX",
"DXDXDXDXDXDXDXDXDXDXDXDXDXDXDXDXDXDXDXDXDXDXDXDXDXDXDX8X7XzXnXnXAXnXnXnXmXmXnXnXnXZXmXmXMXZXZXZXBXZXZXBXBXBXBXBXBXBXBXBXBXVXBXVXVXVXBXVXVXVXVXVXVXBXM I T U P T P E c.M U E o.n.o.E U L c.E W U M NXVX7XVXVX4X9XVXVXkXVXcXVXVXl VXVX8XxXVX:.K  .W { o.W W B n.n.E ;.W c.O.~ ~ | | W [ K  .VXVXVXVXVXVXVXVXVXVXVXVXVXVXVXVXVXVXVXVXVXVXVXVXVXVXVXVXVXVXVXVXVXVXVXVXVXVXVXBXBXVXVXBXVXVXBXBXVXVXBXBXBXVXVXBXBXBXVXBXBXBXZXBXmXmXmXZXmXMXMXMXmXZXBXBXZXBXBXZXBXmXMXnXzX9X4X7XDXDXDXDXDXDXDXDXDXDXDXDXDXDXDXDXDXDXDXDXDXDXDXDXDXDXDX",
"DXDXDXDXDXDXDXDXDXDXDXDXDXDXDXDXDXDXDXDXDXDXDXDXDXDXDX4X5XlXxXnXnXnXnXnXnXnXnXmXZXnXmXMXZXMXZXZXZXZXZXBXBXBXmXBXCXBXBXBXBXVXBXBXBXBXVXBXBXVXBXBXVXBXl.J T T L L P P E L R E o.n.o.I U T I R R J 9XVXlXVXkXvX8XAXVXcXmXVXlXVXVXlXlXxXZXxXVXVXM U ( W E | } Z n.b.F W [ E W / ( ( ( | ~ K VXVXVXVXVXVXVXVXVXVXVXVXVXVXVXVXVXVXVXVXVXVXVXVXVXVXVXVXVXVXVXVXVXVXVXVXVXVXVXVXVXVXVXBXBXVXBXVXBXVXBXVXVXBXBXBXVXBXBXBXBXBXBXBXmXBXmXmXmXmXZXmXmXmXmXNXZXBXZXBXBXBXmXnXnXkX5X4X4XDXDXDXDXDXDXDXDXDXDXDXDXDXDXDXDXDXDXDXDXDXDXDXDXDXDXDX",
"DXDXDXDXDXDXDXDXDXDXDXDXDXDXDXDXDXDXDXDXDXDXDXDXDXDXDXDX8X9XzXAXAXnXnXnXnXnXnXmXnXmXmXmXMXZXZXZXZXBXmXBXBXBXBXBXBXBXBXBXVXBXVXBXBXVXVXBXVXVXVXVXBXVXBX~ J L L T L L T R K v c.b.c.M E P P R K b VXBXzXVX8XVXMXcXVX5XVXVXlXkXxXmXMXnXcXVXlXVXkXJ ( ( ( ( E o.v.b.o.W ( } ( ~ ( ( ( ( K yXVXVXVXVXVXVXVXVXVXVXVXVXVXVXVXVXVXVXVXVXVXVXVXVXVXVXVXVXVXVXVXVXVXVXVXVXVXVXBXBXBXVXVXVXVXVXBXVXBXVXBXBXBXVXBXVXBXBXBXBXBXmXBXBXZXmXZXmXmXmXmXmXmXZXBXZXZXBXBXBXBXZXMXnXzX9X4X7XDXDXDXDXDXDXDXDXDXDXDXDXDXDXDXDXDXDXDXDXDXDXDXDXDXDXDXDX",
"DXDXDXDXDXDXDXDXDXDXDXDXDXDXDXDXDXDXDXDXDXDXDXDXDXDXDXDX4X0XkXAXnXnXnXnXnXmXnXnXMXMXnXnXZXZXmXZXZXmXmXBXmXBXBXBXBXBXBXBXZXVXBXBXBXBXBXVXVXBXBXVXBXVXVXVXJ J T P P T P E o.v.c.n.b.v.o.W L R J kXVXlXVXcXBXZXnXVX9XVXcXVXcXmX8XVXiXVXlXVXcXVXVXC Y ~ W R c.v.n.b.v.c.E ( ( } } ( ( K h.VXVXVXVXVXVXVXVXVXVXVXVXVXVXVXVXVXVXVXVXVXVXVXVXVXVXVXVXVXVXVXVXVXVXVXVXVXVXVXVXVXVXVXBXBXVXBXVXBXVXBXVXBXBXBXBXBXBXBXBXBXBXBXBXmXZXZXmXmXmXMXmXmXZXZXZXBXBXBXBXBXBXmXnXnXlX7X4X4XDXDXDXDXDXDXDXDXDXDXDXDXDXDXDXDXDXDXDXDXDXDXDXDXDXDXDXDX",
"DXDXDXDXDXDXDXDXDXDXDXDXDXDXDXDXDXDXDXDXDXDXDXDXDXDXDXDXDX8X7XzXAXnXnXnXnXnXmXnXnXnXmXmXZXZXmXmXBXmXZXZXmXBXBXBXBXBXBXBXBXBXVXBXBXBXVXBXBXVXBXBXVXVXBXBXZXJ I P L T P P n v.c.n.c.v.Z P T Y b CXVXkXVXlXVXkXVXBXxXVXzX8XBXVXkXVXcXCXnXmXVXkXVXkXJ | ~ E v.c.n.n.c.v.E ( ( ~ ~ ( K ( VXVXVXVXVXVXVXVXVXVXVXVXVXVXVXVXVXVXVXVXVXVXVXVXVXVXVXVXVXVXVXVXVXVXVXVXVXVXBXVXVXVXVXBXVXVXVXBXBXVXBXVXVXBXVXBXBXBXBXBXBXBXBXBXmXBXmXZXmXmXmXmXmXZXZXBXBXBXBXBXBXBXZXnXnXzX7X4X7XDXDXDXDXDXDXDXDXDXDXDXDXDXDXDXDXDXDXDXDXDXDXDXDXDXDXDXDXDX",
"DXDXDXDXDXDXDXDXDXDXDXDXDXDXDXDXDXDXDXDXDXDXDXDXDXDXDXDXDX>X7XlXAXnXnXnXnXnXnXnXmXmXmXnXnXmXmXmXMXBXBXmXBXmXBXmXBXBXBXBXBXBXBXVXVXBXBXVXVXBXVXVXBXVXVXVXVXyXM I T L T P I E J J.M J T P R J 9XVXAXZXBXzXVXlXVXxXVXVXVXvXVXVXxXVXcXmXVXlXVXzXVXVXB U ~ ~ E E v.c.E E } ~ ~ ~ ( K I VXVXVXVXVXVXVXVXVXVXVXVXVXVXVXVXVXVXVXVXVXVXVXVXVXVXVXVXVXVXVXVXVXVXVXVXVXVXVXVXVXBXBXVXVXBXVXBXVXBXVXVXBXBXBXVXBXBXBXBXBXBXBXBXmXBXZXmXmXmXmXMXmXmXZXZXZXBXBXBXBXBXBXMXnXnXkX7X4X4XDXDXDXDXDXDXDXDXDXDXDXDXDXDXDXDXDXDXDXDXDXDXDXDXDXDXDXDXDX",
"DXDXDXDXDXDXDXDXDXDXDXDXDXDXDXDXDXDXDXDXDXDXDXDXDXDXDXDXDXDX8X7XvXAXnXnXnXnXnXMXMXnXmXmXmXmXmXmXmXBXmXBXmXBXBXZXBXBXBXBXBXBXBXCXBXBXBXBXVXBXVXBXBXVXBXVXBXVXyXM I P L T T P R B U T T T I M VXVX9XCXnXBXVXxXVXlXVXVXMX5XVXVXzXBXVXcXCXcXVXzXbXVXqXJ ( ~ ~ } E E W } ~ ~ ~ ~ J K VXVXVXVXVXVXVXVXVXVXVXVXVXVXVXVXVXVXVXVXVXVXVXVXVXVXVXVXVXVXVXVXVXVXVXVXVXVXBXVXVXBXVXBXVXVXBXVXVXBXVXVXBXBXBXVXBXBXBXBXBXBXBXBXBXmXBXmXmXmXmXmXmXmXmXBXBXBXBXBXBXBXBXmXnXnXvX9X4X7XDXDXDXDXDXDXDXDXDXDXDXDXDXDXDXDXDXDXDXDXDXDXDXDXDXDXDXDXDXDX",
"DXDXDXDXDXDXDXDXDXDXDXDXDXDXDXDXDXDXDXDXDXDXDXDXDXDXDXDXDXDXl 7XlXxXAXnXnXnXMXnXnXMXMXMXnXmXmXmXmXmXmXmXBXmXmXBXBXBXZXBXBXBXBXBXVXVXBXVXBXVXBXVXVXBXVXVXVXBXBXrXM I T P L T L R P E L T K >.VXV d.VXjXVXBXlXCXlXVXVXMX9XVXVXkXBXVXlXVXzXVXBXc NXNXJ R ~ ~ ~ R ~ ~ R ~ ~ ( K K VXVXVXVXVXVXVXVXVXVXVXVXVXVXVXVXVXVXVXVXVXVXVXVXVXVXVXVXVXVXVXVXVXVXVXVXVXVXBXVXVXVXVXVXBXVXBXVXBXBXVXBXBXBXVXBXVXBXBXBXBXBXZXBXZXBXZXmXZXmXmXMXmXmXmXmXBXBXmXBXBXBXBXBXmXnXxXlX0X5Xl DXDXDXDXDXDXDXDXDXDXDXDXDXDXDXDXDXDXDXDXDXDXDXDXDXDXDXDXDXDX",
"DXDXDXDXDXDXDXDXDXDXDXDXDXDXDXDXDXDXDXDXDXDXDXDXDXDXDXDXDXDXDX9X7XvXAXnXnXnXnXMXnXmXMXMXnXmXmXZXmXmXmXmXmXmXmXBXZXBXBXBXBXBXBXBXBXBXBXBXBXBXBXVXBXVXVXBXBXVXVXVXyXJ J T L P T T L T T T P ^ D J NXCX:.VXCXjXVXbXVXVXkXcXMXVXcXVXVXjXVXtX>.VX:.J :.T ~ R R T ~ T R R ~ ( J R VXVXVXVXVXVXVXVXVXVXVXVXVXVXVXVXVXVXVXVXVXVXVXVXVXVXVXVXVXVXVXVXVXVXVXVXVXVXVXVXBXBXBXBXVXVXVXBXBXVXVXBXBXVXBXBXVXBXBXBXBXBXBXBXBXBXZXmXmXmXZXMXmXmXmXmXBXBXBXmXBXBXBXBXmXnXnXkX7X4X0XDXDXDXDXDXDXDXDXDXDXDXDXDXDXDXDXDXDXDXDXDXDXDXDXDXDXDXDXDXDXDX",
"DXDXDXDXDXDXDXDXDXDXDXDXDXDXDXDXDXDXDXDXDXDXDXDXDXDXDXDXDXDXDXl vX8XxXAXAXnXnXnXnXnXMXnXmXnXmXnXmXmXmXBXmXBXBXZXBXmXBXBXBXBXBXBXBXBXVXBXBXVXBXVXBXVXBXVXBXVXBXVXBXmXJ J T T L L P P L T T I K I 8XM :.VX>.tXVX9XVXVXkXVXlXCXlXNXNX:.CXBXM qXd.Y K T T R T ~ R T ~ ~ R J 0.VXVXVXVXVXVXVXVXVXVXVXVXVXVXVXVXVXVXVXVXVXVXVXVXVXVXVXVXVXVXVXVXVXVXVXVXVXVXBXBXVXVXVXVXVXVXBXBXVXBXVXVXBXBXBXVXBXZXBXBXBXBXBXBXBXmXZXmXmXZXmXZXMXmXmXmXBXmXmXBXBXBXBXBXBXnXnXxXlX5X8Xl DXDXDXDXDXDXDXDXDXDXDXDXDXDXDXDXDXDXDXDXDXDXDXDXDXDXDXDXDXDXDX",
"DXDXDXDXDXDXDXDXDXDXDXDXDXDXDXDXDXDXDXDXDXDXDXDXDXDXDXDXDXDXDXDX5X7XkXAXnXnXnXnXMXmXnXmXnXmXmXmXmXmXmXmXmXBXmXmXZXBXBXBXBXBXBXBXBXBXBXVXVXBXBXBXBXVXBXVXVXVXBXVXVXVXVXT M P T L T T L T T T T P J Y :.9XM NXmX# VXbXZXVXkXVXtXc VXG M fXK K I T R T ~ T T T ~ ~ ~ K J rXVXVXVXVXVXVXVXVXVXVXVXVXVXVXVXVXVXVXVXVXVXVXVXVXVXVXVXVXVXVXVXVXVXVXVXVXBXVXVXVXVXVXVXBXBXVXVXBXVXBXVXBXCXVXBXBXBXCXBXBXBXBXBXBXZXBXBXmXZXZXZXmXmXMXZXZXBXZXBXBXBXBXBXBXBXmXnXnXkX7XB.>XDXDXDXDXDXDXDXDXDXDXDXDXDXDXDXDXDXDXDXDXDXDXDXDXDXDXDXDXDXDXDXDX",
"DXDXDXDXDXDXDXDXDXDXDXDXDXDXDXDXDXDXDXDXDXDXDXDXDXDXDXDXDXDXDXDXk lX9XzXAXnXnXnXnXnXnXmXnXmXnXmXMXmXmXmXmXmXZXBXZXmXmXBXmXBXBXBXBXBXBXBXBXBXBXVXVXBXBXVXBXVXVXBXVXBXVXBXh.J J P L L T T L T L T R T K J K :.M K bX>.VXVXnX0XqXK :.! Y J T T T T T T T R R R R T J K ZXVXVXVXVXVXVXVXVXVXVXVXVXVXVXVXVXVXVXVXVXVXVXVXVXVXVXVXVXVXVXVXVXVXVXVXVXVXVXVXBXVXBXBXVXVXVXBXVXVXBXVXBXVXBXBXBXVXBXBXBXBXBXBXBXBXBXZXZXmXZXmXZXmXmXmXmXBXmXBXBXBXBXBXBXBXmXnXnXcX8X4X9Xk DXDXDXDXDXDXDXDXDXDXDXDXDXDXDXDXDXDXDXDXDXDXDXDXDXDXDXDXDXDXDXDX",
"DXDXDXDXDXDXDXDXDXDXDXDXDXDXDXDXDXDXDXDXDXDXDXDXDXDXDXDXDXDXDXDXDX4X0XkXAXnXnXnXnXnXnXnXnXmXnXmXMXmXmXmXmXmXBXmXmXBXBXmXBXBXBXBXBXBXBXBXBXVXVXBXVXBXBXVXVXBXVXBXCXVXVXVXBXBXL J I T T L T L T T T L T T T K I T M M NXVXuXM J ~ K P ~ P T T T T T T T R R ~ K J h.VXVXVXVXVXVXVXVXVXVXVXVXVXVXVXVXVXVXVXVXVXVXVXVXVXVXVXVXVXVXVXVXVXVXVXVXVXVXVXVXBXVXBXVXVXBXVXBXVXVXBXVXBXBXVXBXVXBXBXBXBXBXBXBXBXBXBXZXZXZXZXmXZXmXMXZXMXZXBXBXBXBXBXBXBXBXZXnXnXxXkX7X4X>XDXDXDXDXDXDXDXDXDXDXDXDXDXDXDXDXDXDXDXDXDXDXDXDXDXDXDXDXDXDXDXDXDX",
"DXDXDXDXDXDXDXDXDXDXDXDXDXDXDXDXDXDXDXDXDXDXDXDXDXDXDXDXDXDXDXDXDXDX7X7XkXAXnXnXnXnXnXmXmXnXmXnXMXMXMXmXmXZXmXmXBXmXmXBXBXmXBXBXBXBXBXBXBXBXBXBXBXBXVXBXBXVXBXVXVXBXBXVXCXVXVXrXJ J J T T T P L P T L T L T T T P J 7XBXb K R T T T T P P T T R T T T T J J ( BXVXVXVXVXVXVXVXVXVXVXVXVXVXVXVXVXVXVXVXVXVXVXVXVXVXVXVXVXVXVXVXVXVXVXVXVXBXVXBXVXVXBXVXVXVXBXVXBXBXVXBXVXBXVXBXBXBXVXBXBXBXBXBXBXBXBXBXZXZXZXZXZXmXZXmXZXMXZXBXZXBXBXBXBXBXBXBXmXnXnXzX7X4X5XDXDXDXDXDXDXDXDXDXDXDXDXDXDXDXDXDXDXDXDXDXDXDXDXDXDXDXDXDXDXDXDXDXDX",
"DXDXDXDXDXDXDXDXDXDXDXDXDXDXDXDXDXDXDXDXDXDXDXDXDXDXDXDXDXDXDXDXDXDXz iX8XzXAXMXnXnXnXnXnXnXnXmXmXMXnXmXmXmXmXZXmXmXBXmXBXmXmXBXBXBXBXBXBXBXBXVXVXBXBXBXVXVXBXVXBXVXVXBXBXVXVXVXBX#XJ J J P T T P L T L T P T L T P m :.K T T P P T T T L T T T ~ P J K R AXVXVXVXVXVXVXVXVXVXVXVXVXVXVXVXVXVXVXVXVXVXVXVXVXVXVXVXVXVXVXVXVXVXVXVXVXVXVXVXVXBXBXVXVXVXBXVXBXVXVXVXBXVXBXBXVXBXVXBXBXBXBXBXBXBXBXBXBXmXBXZXmXmXmXNXMXmXmXZXZXBXBXBXBXBXBXBXBXmXnXnXcXtX5X8Xz DXDXDXDXDXDXDXDXDXDXDXDXDXDXDXDXDXDXDXDXDXDXDXDXDXDXDXDXDXDXDXDXDXDX",
"DXDXDXDXDXDXDXDXDXDXDXDXDXDXDXDXDXDXDXDXDXDXDXDXDXDXDXDXDXDXDXDXDXDXDX5X0XkXnXAXnXnXnXnXmXmXnXmXmXMXmXmXmXmXmXmXBXmXmXBXmXBXBXBXBXBXBXBXBXBXBXBXBXBXVXBXBXBXVXBXVXBXVXVXVXVXBXBXVXCXCXrXL J J J P P T T T T P T P L P K R L T T T P T T R T P J J J 0.nXVXVXVXVXVXVXVXVXVXVXVXVXVXVXVXVXVXVXVXVXVXVXVXVXVXVXVXVXVXVXVXVXVXVXVXVXVXVXVXBXBXVXVXVXVXBXVXVXBXVXBXVXBXVXVXBXBXVXBXBXBXBXBXBXBXBXZXBXBXBXZXZXmXmXmXmXmXmXmXBXZXBXZXBXBXBXBXBXBXBXnXnXAXlX7X`.B.DXDXDXDXDXDXDXDXDXDXDXDXDXDXDXDXDXDXDXDXDXDXDXDXDXDXDXDXDXDXDXDXDXDXDX",
"DXDXDXDXDXDXDXDXDXDXDXDXDXDXDXDXDXDXDXDXDXDXDXDXDXDXDXDXDXDXDXDXDXDXDXDX9X7XzXAXnXnXnXnXAXnXnXnXnXmXmXnXmXmXmXmXmXmXmXBXBXBXmXBXBXBXBXBXBXBXBXBXBXVXBXBXBXBXVXVXBXVXVXBXBXVXVXVXVXVXBXBXVXnXt.I J J J I L P T L T T T T T T P T T P I I J J J ( rXVXVXVXVXVXVXVXVXVXVXVXVXVXVXVXVXVXVXVXVXVXVXVXVXVXVXVXVXVXVXVXVXVXVXVXVXVXVXBXVXVXVXBXBXVXVXVXVXVXBXVXVXBXBXVXBXVXBXBXBXBXVXBXBXBXVXZXBXBXBXBXmXmXZXmXZXZXBXmXMXmXmXZXZXZXBXBXBXBXBXBXBXmXnXnXkX7X4X7XDXDXDXDXDXDXDXDXDXDXDXDXDXDXDXDXDXDXDXDXDXDXDXDXDXDXDXDXDXDXDXDXDXDXDXDX",
"DXDXDXDXDXDXDXDXDXDXDXDXDXDXDXDXDXDXDXDXDXDXDXDXDXDXDXDXDXDXDXDXDXDXDXDXz lX8XcXAXnXnXnXnXMXmXnXmXnXnXmXmXMXmXmXmXmXBXmXmXmXBXmXZXBXZXBXBXBXBXBXBXZXVXVXVXBXBXBXVXBXBXVXBXVXBXVXBXVXVXVXBXVXCXVXZXwX] I J J J J J J J J J J J J J J J T e.yXVXVXVXVXVXVXVXVXVXVXVXVXVXVXVXVXVXVXVXVXVXVXVXVXVXVXVXVXVXVXVXVXVXVXVXVXVXVXVXBXVXVXBXBXVXVXVXVXBXVXBXBXVXBXVXBXVXBXBXBXBXVXVXBXBXBXBXBXBXBXBXBXZXBXBXZXZXmXZXZXMXmXmXmXZXZXBXBXBXBXCXBXBXBXmXnXnXcXSX5X8Xz DXDXDXDXDXDXDXDXDXDXDXDXDXDXDXDXDXDXDXDXDXDXDXDXDXDXDXDXDXDXDXDXDXDXDXDX",
"DXDXDXDXDXDXDXDXDXDXDXDXDXDXDXDXDXDXDXDXDXDXDXDXDXDXDXDXDXDXDXDXDXDXDXDXDX4X7XlXnXAXnXnXnXnXnXmXmXnXnXmXnXnXmXmXmXmXmXmXZXBXZXNXZXBXZXBXBXBXBXBXBXVXBXBXBXBXBXVXBXBXVXBXVXBXVXBXVXVXBXVXVXVXVXBXVXVXBXBXBXAXyXl.y.5.2.4.2.7.h.wXyXZXVXVXVXVXVXVXVXVXVXVXVXVXVXVXVXVXVXVXVXVXVXVXVXVXVXVXVXVXVXVXVXVXVXVXVXVXVXVXVXVXVXBXVXVXBXVXVXVXVXBXVXVXVXBXVXBXVXBXVXBXBXVXVXBXVXBXBXBXBXBXBXBXBXBXZXBXBXZXmXmXmXmXZXMXZXZXMXBXmXBXBXBXBXBXBXBXBXmXnXnXxXiX7X4X4XDXDXDXDXDXDXDXDXDXDXDXDXDXDXDXDXDXDXDXDXDXDXDXDXDXDXDXDXDXDXDXDXDXDXDXDXDX",
"DXDXDXDXDXDXDXDXDXDXDXDXDXDXDXDXDXDXDXDXDXDXDXDXDXDXDXDXDXDXDXDXDXDXDXDXDXDX7X7XkXAXnXnXnXnXnXnXnXnXmXnXmXmXnXmXmXmXmXMXmXmXZXZXZXZXBXBXBXBXBXBXBXBXBXBXVXVXBXBXBXVXBXVXBXVXBXVXBXBXVXVXVXBXVXVXBXVXVXVXBXBXBXBXCXVXVXVXVXVXVXVXVXVXVXVXVXVXVXVXVXVXVXVXVXVXVXVXVXVXVXVXVXVXVXVXVXVXVXVXVXVXVXVXVXVXVXVXVXVXVXVXVXVXVXBXVXBXVXVXVXBXVXBXVXBXBXVXBXVXVXBXVXBXBXVXVXBXBXVXBXBXBXBXBXBXBXBXBXBXZXZXmXmXmXBXZXMXZXMXZXZXBXmXBXBXBXBXBXBXZXMXnXnXkX7X4X5XDXDXDXDXDXDXDXDXDXDXDXDXDXDXDXDXDXDXDXDXDXDXDXDXDXDXDXDXDXDXDXDXDXDXDXDXDXDX",
"DXDXDXDXDXDXDXDXDXDXDXDXDXDXDXDXDXDXDXDXDXDXDXDXDXDXDXDXDXDXDXDXDXDXDXDXDXDXj 8X9XzXAXnXnXnXnXnXmXnXnXmXmXmXmXmXmXmXmXmXZXmXBXZXZXZXZXBXBXBXZXBXBXBXBXVXZXBXVXBXBXVXBXBXBXVXVXBXVXBXVXBXVXBXBXVXBXVXVXVXBXVXVXVXVXBXVXVXVXVXVXVXVXVXVXVXVXVXVXVXVXVXVXVXVXVXVXVXVXVXVXVXVXVXVXVXVXVXVXVXVXVXVXVXVXVXVXVXVXVXBXBXVXVXVXVXVXVXBXBXVXBXVXVXBXVXVXBXVXBXVXVXBXBXBXBXBXVXZXBXBXBXVXBXBXZXBXZXZXBXmXmXmXmXmXmXMXZXmXZXBXZXBXBXBXBXBXBXBXBXMXnXnXvX9X5X7Xk DXDXDXDXDXDXDXDXDXDXDXDXDXDXDXDXDXDXDXDXDXDXDXDXDXDXDXDXDXDXDXDXDXDXDXDXDXDX",
"DXDXDXDXDXDXDXDXDXDXDXDXDXDXDXDXDXDXDXDXDXDXDXDXDXDXDXDXDXDXDXDXDXDXDXDXDXDXDXl kXtXcXnXnXnXnXAXmXnXmXnXnXnXmXnXmXmXmXmXmXZXZXZXBXZXBXZXZXZXBXBXBXZXBXBXBXBXZXVXBXBXBXVXVXBXBXVXBXVXBXVXBXVXBXVXVXVXBXBXVXVXBXVXVXVXVXBXVXVXVXVXVXVXVXVXVXVXVXVXVXVXVXVXVXVXVXVXVXVXVXVXVXVXVXVXVXVXVXVXVXVXVXVXVXVXVXVXBXVXVXVXVXBXBXVXBXVXVXVXBXVXBXVXVXBXBXVXBXVXBXBXBXVXVXBXBXBXBXBXBXBXZXBXBXBXBXBXmXZXmXmXmXZXMXmXmXMXBXBXmXBXBXBXBXBXBXBXBXMXnXnXxX8X5X8Xz DXDXDXDXDXDXDXDXDXDXDXDXDXDXDXDXDXDXDXDXDXDXDXDXDXDXDXDXDXDXDXDXDXDXDXDXDXDXDX",
"DXDXDXDXDXDXDXDXDXDXDXDXDXDXDXDXDXDXDXDXDXDXDXDXDXDXDXDXDXDXDXDXDXDXDXDXDXDXDXDX4X8XkXnXnXnXnXnXnXnXnXMXmXnXmXZXmXmXZXZXmXmXmXZXZXBXmXmXBXBXBXBXBXBXBXBXBXBXBXCXBXBXBXVXBXBXBXBXVXVXBXVXBXVXVXBXVXVXBXVXBXVXVXVXBXVXBXVXVXVXBXVXVXVXBXBXVXVXVXVXVXVXVXVXVXVXVXVXVXVXVXVXVXVXVXVXVXVXVXBXVXBXBXVXVXVXVXBXVXBXBXVXVXBXBXVXVXVXVXBXVXBXVXBXBXVXBXVXVXBXBXBXCXBXCXBXBXBXBXCXBXBXBXmXBXBXBXZXZXZXmXmXBXMXZXmXMXBXZXZXBXBXBXBXBXBXBXBXMXnXnXxXlX7X7Xl DXDXDXDXDXDXDXDXDXDXDXDXDXDXDXDXDXDXDXDXDXDXDXDXDXDXDXDXDXDXDXDXDXDXDXDXDXDXDXDX",
"DXDXDXDXDXDXDXDXDXDXDXDXDXDXDXDXDXDXDXDXDXDXDXDXDXDXDXDXDXDXDXDXDXDXDXDXDXDXDXDXDX5X7XkXnXxXnXnXnXnXMXnXnXmXnXnXmXnXnXmXmXmXmXmXmXBXZXBXZXmXmXBXBXmXBXBXBXBXBXBXBXBXBXVXBXVXBXVXBXBXVXBXBXVXBXVXBXVXVXBXVXVXBXVXBXVXVXVXBXVXBXVXBXVXVXVXBXVXVXBXVXBXBXVXVXBXVXBXVXBXVXVXVXBXVXBXBXVXVXVXVXVXVXVXBXBXVXVXVXVXVXVXVXVXVXVXBXBXVXVXBXVXBXVXVXBXVXBXBXBXVXVXBXBXBXBXBXBXBXBXBXBXBXBXBXBXZXZXmXmXmXZXMXmXmXmXZXBXBXBXBXZXBXBXBXBXCXmXnXnXAXzX7X4X5XDXDXDXDXDXDXDXDXDXDXDXDXDXDXDXDXDXDXDXDXDXDXDXDXDXDXDXDXDXDXDXDXDXDXDXDXDXDXDXDXDX",
"DXDXDXDXDXDXDXDXDXDXDXDXDXDXDXDXDXDXDXDXDXDXDXDXDXDXDXDXDXDXDXDXDXDXDXDXDXDXDXDXDXDX7X7XkXAXnXnXnXnXnXnXZXnXnXmXnXmXmXmXmXmXmXmXmXZXZXZXZXmXBXBXmXBXBXmXBXBXBXBXBXVXBXBXBXBXBXVXBXVXBXVXVXVXVXBXVXBXVXBXVXBXBXVXVXVXBXBXVXBXVXVXBXVXVXVXVXVXVXVXVXBXVXVXVXVXBXVXBXVXBXVXBXVXVXVXVXVXBXVXBXVXVXBXVXVXBXVXBXVXVXBXBXVXVXBXVXBXVXBXVXVXBXVXBXBXBXVXBXVXBXBXBXBXBXBXBXBXBXBXZXBXBXBXmXZXmXmXmXNXZXmXmXmXmXZXBXZXBXZXBXBXBXBXBXBXMXnXnXAXzX9X4X5XDXDXDXDXDXDXDXDXDXDXDXDXDXDXDXDXDXDXDXDXDXDXDXDXDXDXDXDXDXDXDXDXDXDXDXDXDXDXDXDXDXDX",
"DXDXDXDXDXDXDXDXDXDXDXDXDXDXDXDXDXDXDXDXDXDXDXDXDXDXDXDXDXDXDXDXDXDXDXDXDXDXDXDXDXDXk 8X9XzXAXnXnXnXnXnXnXnXMXnXmXnXnXmXMXmXmXmXmXMXBXZXmXBXZXmXmXBXBXBXBXBXBXBXBXBXBXBXBXVXBXBXBXVXBXBXBXBXBXVXBXVXBXVXVXBXVXBXBXVXVXVXVXVXVXBXVXVXBXBXVXBXBXVXVXVXVXBXBXVXVXVXBXVXVXVXBXVXBXVXVXBXVXVXBXVXVXBXVXBXVXVXBXVXVXBXVXBXBXVXBXVXBXVXVXBXVXBXBXVXBXVXBXBXVXBXBXBXBXBXBXBXmXBXBXBXBXmXZXZXmXmXZXmXmXMXmXmXZXBXZXBXZXBXBXBXBXBXBXmXnXnXxXzX8X4X7Xk DXDXDXDXDXDXDXDXDXDXDXDXDXDXDXDXDXDXDXDXDXDXDXDXDXDXDXDXDXDXDXDXDXDXDXDXDXDXDXDXDXDX",
"DXDXDXDXDXDXDXDXDXDXDXDXDXDXDXDXDXDXDXDXDXDXDXDXDXDXDXDXDXDXDXDXDXDXDXDXDXDXDXDXDXDXDXl lX8XzXnXnXnXnXnXnXMXMXMXnXmXnXZXnXnXmXZXmXmXmXmXZXBXZXZXBXmXBXBXBXBXmXBXBXBXBXBXBXBXBXVXBXVXBXBXVXBXBXBXVXBXVXVXBXVXVXVXVXBXBXVXBXVXVXBXVXVXVXVXVXBXBXVXBXVXBXVXVXBXVXBXVXVXVXBXVXBXVXVXVXVXBXVXBXVXVXVXVXBXVXBXVXBXVXVXVXBXVXBXVXBXVXVXBXBXBXBXBXBXVXBXBXBXVXBXBXBXBXBXBXmXBXBXBXBXmXBXNXmXmXZXZXmXmXmXmXmXmXBXZXBXBXBXBXBXBXBXZXnXnXnXzXfX5X9Xl DXDXDXDXDXDXDXDXDXDXDXDXDXDXDXDXDXDXDXDXDXDXDXDXDXDXDXDXDXDXDXDXDXDXDXDXDXDXDXDXDXDXDX",
"DXDXDXDXDXDXDXDXDXDXDXDXDXDXDXDXDXDXDXDXDXDXDXDXDXDXDXDXDXDXDXDXDXDXDXDXDXDXDXDXDXDXDXDXl kXfXzXnXnXnXnXnXnXnXMXnXnXmXnXmXmXnXmXmXmXmXmXZXZXZXZXmXBXmXBXBXmXBXBXBXBXBXBXBXBXBXBXBXBXBXVXBXBXVXVXBXVXBXVXVXBXBXVXBXVXVXBXVXBXBXVXBXVXBXVXVXVXVXVXBXVXVXVXVXVXVXBXVXBXVXVXVXBXVXBXBXVXBXVXVXVXBXVXBXVXBXVXBXVXVXBXBXVXBXVXBXVXBXBXBXVXBXVXVXBXBXBXBXBXBXBXBXBXBXBXBXBXBXmXZXBXmXZXmXmXmXZXmXmXmXmXmXBXBXmXZXBXBXBXBXBXBXmXMXnXnXxXiX5X8Xl DXDXDXDXDXDXDXDXDXDXDXDXDXDXDXDXDXDXDXDXDXDXDXDXDXDXDXDXDXDXDXDXDXDXDXDXDXDXDXDXDXDXDXDX",
"DXDXDXDXDXDXDXDXDXDXDXDXDXDXDXDXDXDXDXDXDXDXDXDXDXDXDXDXDXDXDXDXDXDXDXDXDXDXDXDXDXDXDXDXDX4XvXiXxXAXnXnXnXnXnXMXmXnXnXmXMXmXmXmXmXmXmXmXZXmXZXZXmXBXmXmXmXBXBXBXBXBXBXBXBXBXBXBXBXVXBXBXBXVXBXBXBXBXBXBXBXVXBXBXVXBXBXVXVXBXVXBXVXBXVXVXBXVXVXBXVXVXBXVXBXVXVXVXVXBXBXVXVXVXVXVXBXVXVXBXVXBXVXBXBXVXVXVXVXBXVXVXBXVXVXBXVXBXVXBXBXVXBXVXVXBXBXBXBXBXBXBXBXBXmXBXBXBXBXmXmXmXmXmXZXmXmXmXmXmXZXBXBXZXBXBXBXBXBXBXBXBXmXMXnXMXxXiX0X8Xl DXDXDXDXDXDXDXDXDXDXDXDXDXDXDXDXDXDXDXDXDXDXDXDXDXDXDXDXDXDXDXDXDXDXDXDXDXDXDXDXDXDXDXDXDX",
"DXDXDXDXDXDXDXDXDXDXDXDXDXDXDXDXDXDXDXDXDXDXDXDXDXDXDXDXDXDXDXDXDXDXDXDXDXDXDXDXDXDXDXDXDXDX4XlXlXxXAXnXnXnXnXAXnXmXnXmXnXnXmXnXmXMXmXmXmXmXmXZXBXmXmXBXBXmXmXBXBXBXBXBXBXBXBXBXBXBXBXBXBXBXVXBXVXBXVXBXBXVXBXVXBXVXVXBXVXVXBXVXBXVXBXBXVXBXBXVXBXVXVXBXVXBXBXVXVXVXBXVXBXVXBXBXVXVXBXVXBXVXBXVXVXBXVXBXBXVXBXBXVXBXVXBXBXBXBXBXBXBXBXBXBXBXBXBXBXBXBXBXBXBXBXBXmXBXBXmXmXBXmXmXmXmXmXmXmXZXZXZXmXBXBXBXBXNXBXBXBXZXnXnXnXxXlX0X8X4XDXDXDXDXDXDXDXDXDXDXDXDXDXDXDXDXDXDXDXDXDXDXDXDXDXDXDXDXDXDXDXDXDXDXDXDXDXDXDXDXDXDXDXDXDXDX",
"DXDXDXDXDXDXDXDXDXDXDXDXDXDXDXDXDXDXDXDXDXDXDXDXDXDXDXDXDXDXDXDXDXDXDXDXDXDXDXDXDXDXDXDXDXDXDX5X8XlXxXnXnXnXnXnXnXnXnXmXnXnXmXmXmXmXmXmXmXmXmXmXmXBXZXZXBXZXBXZXZXBXBXBXmXBXBXBXBXBXBXBXBXBXBXBXVXBXBXBXBXVXVXBXVXBXBXVXBXBXVXVXVXBXVXBXVXVXVXBXVXBXVXBXVXBXVXBXBXVXBXVXBXBXVXBXBXVXBXVXBXVXBXVXBXVXBXVXBXBXVXBXBXBXVXVXBXBXBXVXVXBXBXBXBXVXBXBXBXBXBXmXBXBXBXBXmXmXmXmXBXmXBXmXmXmXmXmXZXZXBXZXmXBXBXBXBXBXBXBXZXMXnXnXxXlX7X5X4XDXDXDXDXDXDXDXDXDXDXDXDXDXDXDXDXDXDXDXDXDXDXDXDXDXDXDXDXDXDXDXDXDXDXDXDXDXDXDXDXDXDXDXDXDXDXDX",
"DXDXDXDXDXDXDXDXDXDXDXDXDXDXDXDXDXDXDXDXDXDXDXDXDXDXDXDXDXDXDXDXDXDXDXDXDXDXDXDXDXDXDXDXDXDXDXDX5X9XkXAXxXnXnXnXnXnXmXnXnXmXnXnXnXmXnXmXnXmXmXmXmXmXZXBXZXZXZXZXBXmXmXBXBXBXBXBXBXBXBXBXBXBXCXBXBXBXVXVXBXBXBXBXBXBXVXBXBXVXBXBXBXVXBXVXVXBXVXBXBXVXBXVXVXVXBXVXVXBXVXBXVXVXBXVXVXBXVXBXBXVXVXBXVXBXVXBXVXBXVXBXBXVXBXBXBXVXVXBXBXBXBXBXBXBXBXBXmXBXBXBXBXBXmXBXmXBXmXmXmXmXmXmXmXmXmXmXmXBXZXBXBXBXBXBXBXBXBXMXnXnXnXxXkX7X5X4XDXDXDXDXDXDXDXDXDXDXDXDXDXDXDXDXDXDXDXDXDXDXDXDXDXDXDXDXDXDXDXDXDXDXDXDXDXDXDXDXDXDXDXDXDXDXDXDX",
"DXDXDXDXDXDXDXDXDXDXDXDXDXDXDXDXDXDXDXDXDXDXDXDXDXDXDXDXDXDXDXDXDXDXDXDXDXDXDXDXDXDXDXDXDXDXDXDXDX5X9XkXxXnXnXnXnXnXnXnXnXmXmXnXmXnXmXmXmXmXmXmXmXmXmXZXZXZXZXZXBXmXBXZXBXBXBXBXBXmXBXBXBXBXBXBXBXBXBXBXVXBXVXBXVXVXBXBXBXBXVXBXVXBXBXBXBXBXVXVXVXVXVXBXBXVXVXBXBXVXBXVXBXVXVXBXVXVXBXVXBXBXVXVXBXVXBXBXVXBXBXBXBXBXBXCXBXBXBXBXBXBXBXBXBXBXBXBXBXBXBXBXmXBXmXZXmXmXmXBXmXMXmXmXmXZXZXmXBXBXNXBXBXBXBXBXBXBXMXnXnXnXxXkX7X5X4XDXDXDXDXDXDXDXDXDXDXDXDXDXDXDXDXDXDXDXDXDXDXDXDXDXDXDXDXDXDXDXDXDXDXDXDXDXDXDXDXDXDXDXDXDXDXDXDXDX",
"DXDXDXDXDXDXDXDXDXDXDXDXDXDXDXDXDXDXDXDXDXDXDXDXDXDXDXDXDXDXDXDXDXDXDXDXDXDXDXDXDXDXDXDXDXDXDXDXDXDX5X8XlXxXxXnXnXnXnXnXnXnXnXmXmXnXnXnXmXnXmXmXmXmXmXZXMXBXZXZXmXmXBXmXmXBXmXBXBXBXBXBXBXBXBXBXBXBXBXBXBXBXBXBXBXBXBXVXVXVXBXBXBXBXVXVXBXVXBXBXBXBXVXBXBXBXVXBXVXBXVXBXVXBXVXBXBXBXVXBXVXBXBXBXBXBXBXVXBXBXVXBXVXBXBXBXBXBXBXBXBXBXBXBXBXBXZXBXBXBXmXmXmXmXBXmXmXBXmXmXmXmXmXmXZXZXBXBXBXZXmXZXBXBXBXBXBXmXnXnXnXxXkX7X0X4XDXDXDXDXDXDXDXDXDXDXDXDXDXDXDXDXDXDXDXDXDXDXDXDXDXDXDXDXDXDXDXDXDXDXDXDXDXDXDXDXDXDXDXDXDXDXDXDXDXDX",
"DXDXDXDXDXDXDXDXDXDXDXDXDXDXDXDXDXDXDXDXDXDXDXDXDXDXDXDXDXDXDXDXDXDXDXDXDXDXDXDXDXDXDXDXDXDXDXDXDXDXDX5XlXlXnXnXxXnXnXnXnXnXnXmXnXmXnXmXMXZXnXmXMXZXZXmXmXmXZXZXmXBXZXZXBXmXmXBXBXmXBXmXBXBXBXBXBXBXBXBXBXBXBXBXBXBXBXVXBXBXVXBXVXBXBXBXBXVXVXBXBXBXVXBXBXVXBXBXVXBXBXBXBXVXBXBXVXBXBXBXBXBXBXBXBXBXBXBXBXVXBXBXBXBXBXBXBXBXBXBXBXBXBXBXBXBXBXZXBXmXBXBXmXBXZXZXZXmXMXmXmXmXmXBXZXBXZXZXBXBXBXBXBXBXBXBXMXnXnXnXAXlX0X8X4XDXDXDXDXDXDXDXDXDXDXDXDXDXDXDXDXDXDXDXDXDXDXDXDXDXDXDXDXDXDXDXDXDXDXDXDXDXDXDXDXDXDXDXDXDXDXDXDXDXDXDX",
"DXDXDXDXDXDXDXDXDXDXDXDXDXDXDXDXDXDXDXDXDXDXDXDXDXDXDXDXDXDXDXDXDXDXDXDXDXDXDXDXDXDXDXDXDXDXDXDXDXDXDXDX4XkXlXxXnXxXnXnXnXnXnXnXnXmXmXnXmXnXmXMXMXMXZXMXmXmXZXZXBXmXZXBXmXZXBXmXmXBXBXBXBXBXBXBXBXBXBXBXBXBXBXBXBXBXBXBXBXBXVXBXBXVXVXBXBXBXBXBXVXBXBXBXBXVXBXVXBXBXVXVXBXBXBXVXBXBXBXVXVXBXVXVXVXVXBXVXBXBXBXBXBXBXBXBXBXBXBXBXmXBXBXBXZXBXBXZXmXBXmXmXmXZXmXmXmXmXmXmXmXmXmXmXZXZXBXBXBXZXBXBXBXBXBXnXnXnXnXcXlX7X8X4XDXDXDXDXDXDXDXDXDXDXDXDXDXDXDXDXDXDXDXDXDXDXDXDXDXDXDXDXDXDXDXDXDXDXDXDXDXDXDXDXDXDXDXDXDXDXDXDXDXDXDXDX",
"DXDXDXDXDXDXDXDXDXDXDXDXDXDXDXDXDXDXDXDXDXDXDXDXDXDXDXDXDXDXDXDXDXDXDXDXDXDXDXDXDXDXDXDXDXDXDXDXDXDXDXDXDX4XkXlXcXnXnXnXnXnXnXnXnXnXnXnXnXnXnXZXMXmXMXmXZXZXmXmXmXMXBXZXBXBXZXBXBXBXBXBXmXBXBXmXBXBXBXBXBXBXBXBXBXVXBXBXBXBXBXBXBXBXBXBXVXBXVXBXBXVXVXBXBXBXCXBXBXVXBXBXVXBXBXVXBXVXVXBXBXBXBXBXBXBXBXBXBXBXBXBXBXBXBXBXBXBXBXmXBXBXBXmXmXBXZXBXBXmXZXZXZXZXmXmXmXmXmXmXmXBXBXBXBXBXBXZXBXBXBXBXBXmXnXnXnXAXcXlX5X8Xl DXDXDXDXDXDXDXDXDXDXDXDXDXDXDXDXDXDXDXDXDXDXDXDXDXDXDXDXDXDXDXDXDXDXDXDXDXDXDXDXDXDXDXDXDXDXDXDXDXDXDXDXDX",
"DXDXDXDXDXDXDXDXDXDXDXDXDXDXDXDXDXDXDXDXDXDXDXDXDXDXDXDXDXDXDXDXDXDXDXDXDXDXDXDXDXDXDXDXDXDXDXDXDXDXDXDXDXDXl lXtXvXnXnXnXnXnXnXnXnXmXmXnXmXmXnXMXMXmXMXnXmXmXmXmXmXmXMXZXmXmXmXmXmXmXmXBXmXBXBXBXZXBXBXBXBXBXBXBXBXBXBXBXBXBXBXBXBXBXBXBXBXBXBXBXBXBXBXBXBXBXBXBXBXBXBXBXBXBXBXBXBXBXBXBXBXBXBXBXBXBXBXBXBXBXBXBXBXBXmXBXBXBXBXBXmXBXmXBXZXZXmXmXmXmXZXmXmXMXmXmXmXmXBXmXmXBXmXZXBXBXBXBXBXBXZXmXnXnXnXnXzX8X5X8Xl DXDXDXDXDXDXDXDXDXDXDXDXDXDXDXDXDXDXDXDXDXDXDXDXDXDXDXDXDXDXDXDXDXDXDXDXDXDXDXDXDXDXDXDXDXDXDXDXDXDXDXDXDXDX",
"DXDXDXDXDXDXDXDXDXDXDXDXDXDXDXDXDXDXDXDXDXDXDXDXDXDXDXDXDXDXDXDXDXDXDXDXDXDXDXDXDXDXDXDXDXDXDXDXDXDXDXDXDXDXDXl 9X8XvXxXnXnXnXnXnXnXnXnXnXMXMXMXMXMXmXnXmXmXnXmXmXmXmXmXmXmXZXZXmXBXBXmXZXZXBXBXZXBXBXmXBXBXmXBXBXmXBXBXBXBXBXBXBXBXBXBXBXBXBXBXBXBXBXBXBXBXBXBXBXBXBXBXBXBXBXBXBXBXBXBXBXBXBXBXBXBXBXBXBXBXBXBXBXBXBXBXBXBXBXBXBXBXZXmXZXZXZXZXBXmXmXmXmXMXmXmXmXmXmXmXBXBXZXBXBXBXBXBXBXBXZXmXnXnXnXxXzX8X4X7Xz DXDXDXDXDXDXDXDXDXDXDXDXDXDXDXDXDXDXDXDXDXDXDXDXDXDXDXDXDXDXDXDXDXDXDXDXDXDXDXDXDXDXDXDXDXDXDXDXDXDXDXDXDXDXDX",
"DXDXDXDXDXDXDXDXDXDXDXDXDXDXDXDXDXDXDXDXDXDXDXDXDXDXDXDXDXDXDXDXDXDXDXDXDXDXDXDXDXDXDXDXDXDXDXDXDXDXDXDXDXDXDXDXk 7X9XkXxXnXxXnXnXnXnXnXnXMXMXnXnXMXnXmXnXmXmXmXnXmXmXmXMXmXZXmXmXZXmXBXZXZXZXZXZXZXBXBXBXBXBXBXBXBXBXBXBXmXBXBXBXBXBXBXBXBXBXBXBXBXBXBXBXBXBXBXBXBXBXBXBXBXBXBXBXCXBXBXBXBXBXBXBXBXBXBXBXmXmXBXBXmXBXmXBXmXZXmXZXmXZXBXZXZXZXZXmXMXMXmXmXmXmXmXBXmXBXmXBXmXBXZXZXNXBXBXBXmXnXnXnXnXnXkX7X5X5Xk DXDXDXDXDXDXDXDXDXDXDXDXDXDXDXDXDXDXDXDXDXDXDXDXDXDXDXDXDXDXDXDXDXDXDXDXDXDXDXDXDXDXDXDXDXDXDXDXDXDXDXDXDXDXDXDX",
"DXDXDXDXDXDXDXDXDXDXDXDXDXDXDXDXDXDXDXDXDXDXDXDXDXDXDXDXDXDXDXDXDXDXDXDXDXDXDXDXDXDXDXDXDXDXDXDXDXDXDXDXDXDXDXDXDX@ 5XiXkXxXnXnXnXnXnXnXnXnXnXMXnXmXmXnXnXmXnXmXmXnXmXmXZXZXmXmXmXmXZXZXBXZXZXZXZXZXmXmXmXBXmXBXBXBXBXBXBXmXBXBXmXBXBXBXBXBXBXBXBXBXBXBXBXBXBXBXBXBXBXBXBXBXBXBXBXBXBXBXBXBXBXBXmXBXBXBXBXBXBXBXBXBXBXmXBXmXBXmXmXBXmXmXmXZXMXmXmXmXmXmXmXZXZXZXZXBXBXZXBXBXBXBXBXBXBXZXmXnXnXnXxXxXkX7X7X5X@ DXDXDXDXDXDXDXDXDXDXDXDXDXDXDXDXDXDXDXDXDXDXDXDXDXDXDXDXDXDXDXDXDXDXDXDXDXDXDXDXDXDXDXDXDXDXDXDXDXDXDXDXDXDXDXDXDX",
"DXDXDXDXDXDXDXDXDXDXDXDXDXDXDXDXDXDXDXDXDXDXDXDXDXDXDXDXDXDXDXDXDXDXDXDXDXDXDXDXDXDXDXDXDXDXDXDXDXDXDXDXDXDXDXDXDXDXDX4XkXfXxXxXnXnXnXnXnXnXnXMXnXnXnXmXmXnXmXmXmXmXmXMXmXMXmXmXmXmXZXZXZXZXZXZXBXZXBXZXmXZXBXmXmXBXmXBXBXBXBXBXBXBXBXmXBXBXBXBXmXBXBXBXBXBXBXZXBXBXBXBXBXBXBXZXBXBXmXBXBXmXBXBXBXBXBXBXmXBXmXBXmXmXBXmXZXBXmXmXmXmXmXBXMXmXmXmXmXmXmXmXZXZXZXZXZXBXmXBXBXZXBXBXBXBXmXMXnXnXnXAXxXlX5X8Xl DXDXDXDXDXDXDXDXDXDXDXDXDXDXDXDXDXDXDXDXDXDXDXDXDXDXDXDXDXDXDXDXDXDXDXDXDXDXDXDXDXDXDXDXDXDXDXDXDXDXDXDXDXDXDXDXDXDXDX",
"DXDXDXDXDXDXDXDXDXDXDXDXDXDXDXDXDXDXDXDXDXDXDXDXDXDXDXDXDXDXDXDXDXDXDXDXDXDXDXDXDXDXDXDXDXDXDXDXDXDXDXDXDXDXDXDXDXDXDXDXl 8X8XvXnXAXAXnXnXnXnXnXnXmXnXmXnXmXmXnXnXmXnXmXMXmXmXZXmXmXmXmXmXmXZXZXmXmXBXmXBXZXmXBXBXmXBXBXZXBXZXBXmXBXBXBXBXBXBXBXBXBXBXBXBXZXBXBXZXBXZXBXBXBXBXBXBXBXBXBXBXBXmXBXBXBXmXmXZXBXZXZXmXBXBXmXmXBXmXZXmXBXmXmXMXmXmXmXmXMXmXBXBXmXBXmXZXZXBXBXBXZXBXZXmXMXnXnXnXAXnXzX8X5X7Xl DXDXDXDXDXDXDXDXDXDXDXDXDXDXDXDXDXDXDXDXDXDXDXDXDXDXDXDXDXDXDXDXDXDXDXDXDXDXDXDXDXDXDXDXDXDXDXDXDXDXDXDXDXDXDXDXDXDXDXDX",
"DXDXDXDXDXDXDXDXDXDXDXDXDXDXDXDXDXDXDXDXDXDXDXDXDXDXDXDXDXDXDXDXDXDXDXDXDXDXDXDXDXDXDXDXDXDXDXDXDXDXDXDXDXDXDXDXDXDXDXDXDXj 0X8XkXAXnXAXnXnXnXnXnXnXnXnXnXnXnXmXnXmXnXmXMXZXnXZXMXmXmXmXmXmXmXmXmXBXmXmXmXBXmXZXmXmXmXmXZXZXZXBXBXBXmXmXmXBXBXmXmXBXmXBXBXBXBXBXBXBXBXBXBXZXBXZXmXmXBXBXmXBXBXmXmXZXmXBXZXZXBXZXBXmXmXZXmXmXmXmXmXMXmXmXmXmXmXmXmXBXmXmXZXBXZXBXZXBXBXBXBXBXBXmXMXnXnXnXnXAXkX7X5X5Xj DXDXDXDXDXDXDXDXDXDXDXDXDXDXDXDXDXDXDXDXDXDXDXDXDXDXDXDXDXDXDXDXDXDXDXDXDXDXDXDXDXDXDXDXDXDXDXDXDXDXDXDXDXDXDXDXDXDXDXDXDX",
"DXDXDXDXDXDXDXDXDXDXDXDXDXDXDXDXDXDXDXDXDXDXDXDXDXDXDXDXDXDXDXDXDXDXDXDXDXDXDXDXDXDXDXDXDXDXDXDXDXDXDXDXDXDXDXDXDXDXDXDXDXDXDX4XkXlXcXnXnXAXnXnXnXnXnXnXmXnXnXnXnXmXmXnXZXnXMXMXMXmXMXZXmXmXmXmXmXmXmXmXBXmXBXmXZXBXZXZXZXBXZXZXmXBXmXBXBXmXmXBXmXBXBXZXmXBXBXmXZXBXBXBXZXBXmXBXBXmXBXmXmXBXmXBXmXBXZXmXBXZXmXZXmXZXZXZXmXmXMXmXmXmXmXmXmXmXZXZXBXmXmXBXmXBXBXBXBXBXBXBXBXMXmXnXnXnXAXAXcXfX5X8Xl DXDXDXDXDXDXDXDXDXDXDXDXDXDXDXDXDXDXDXDXDXDXDXDXDXDXDXDXDXDXDXDXDXDXDXDXDXDXDXDXDXDXDXDXDXDXDXDXDXDXDXDXDXDXDXDXDXDXDXDXDXDXDX",
"DXDXDXDXDXDXDXDXDXDXDXDXDXDXDXDXDXDXDXDXDXDXDXDXDXDXDXDXDXDXDXDXDXDXDXDXDXDXDXDXDXDXDXDXDXDXDXDXDXDXDXDXDXDXDXDXDXDXDXDXDXDXDXDXk 9X9XkXxXnXAXnXnXnXnXnXnXnXmXnXmXnXmXnXnXZXnXmXMXmXMXMXmXnXmXmXmXmXmXmXmXmXmXmXmXBXZXBXZXZXmXZXmXmXBXmXmXBXmXmXBXZXmXBXmXmXmXBXZXZXmXZXmXmXBXmXmXBXmXmXBXmXmXZXZXBXmXBXZXZXmXmXmXmXMXmXmXmXmXmXmXmXMXmXmXZXZXBXZXBXBXmXBXmXBXBXZXBXBXZXmXnXnXnXnXAXnXvX9X5X7Xk DXDXDXDXDXDXDXDXDXDXDXDXDXDXDXDXDXDXDXDXDXDXDXDXDXDXDXDXDXDXDXDXDXDXDXDXDXDXDXDXDXDXDXDXDXDXDXDXDXDXDXDXDXDXDXDXDXDXDXDXDXDXDXDX",
"DXDXDXDXDXDXDXDXDXDXDXDXDXDXDXDXDXDXDXDXDXDXDXDXDXDXDXDXDXDXDXDXDXDXDXDXDXDXDXDXDXDXDXDXDXDXDXDXDXDXDXDXDXDXDXDXDXDXDXDXDXDXDXDXDXDX4XzXiXzXAXnXnXnXnXnXnXnXnXnXnXnXnXmXnXnXmXmXmXmXnXmXmXnXmXmXmXmXmXmXmXmXmXmXmXmXmXmXmXZXZXZXBXmXZXBXmXZXBXBXmXmXZXZXBXmXZXZXBXmXmXZXBXZXZXZXmXBXBXZXmXmXBXmXZXZXZXmXmXmXmXmXmXmXZXMXmXmXmXmXMXmXZXmXmXBXBXmXBXBXBXBXmXBXBXmXBXZXMXmXnXnXnXnXxXcXiX7X8X4XDXDXDXDXDXDXDXDXDXDXDXDXDXDXDXDXDXDXDXDXDXDXDXDXDXDXDXDXDXDXDXDXDXDXDXDXDXDXDXDXDXDXDXDXDXDXDXDXDXDXDXDXDXDXDXDXDXDXDXDXDXDXDXDXDXDX",
"DXDXDXDXDXDXDXDXDXDXDXDXDXDXDXDXDXDXDXDXDXDXDXDXDXDXDXDXDXDXDXDXDXDXDXDXDXDXDXDXDXDXDXDXDXDXDXDXDXDXDXDXDXDXDXDXDXDXDXDXDXDXDXDXDXDXDXz 7X9XvXnXnXxXnXnXnXnXnXnXnXnXnXmXmXnXnXnXnXmXmXnXmXmXmXnXMXmXmXmXmXZXmXmXmXmXmXmXmXmXZXZXMXBXZXmXmXZXmXmXZXBXZXZXmXBXBXmXZXZXBXZXZXZXZXmXBXmXmXZXBXmXBXmXmXmXmXmXmXMXmXmXmXMXZXZXmXMXmXmXBXZXBXBXBXmXBXmXBXmXmXBXBXBXmXBXMXnXnXnXnXxXnXnXvX9X6X7Xk DXDXDXDXDXDXDXDXDXDXDXDXDXDXDXDXDXDXDXDXDXDXDXDXDXDXDXDXDXDXDXDXDXDXDXDXDXDXDXDXDXDXDXDXDXDXDXDXDXDXDXDXDXDXDXDXDXDXDXDXDXDXDXDXDXDXDX",
"DXDXDXDXDXDXDXDXDXDXDXDXDXDXDXDXDXDXDXDXDXDXDXDXDXDXDXDXDXDXDXDXDXDXDXDXDXDXDXDXDXDXDXDXDXDXDXDXDXDXDXDXDXDXDXDXDXDXDXDXDXDXDXDXDXDXDXDXDX4XlX8XvXAXnXxXnXnXnXnXnXnXnXnXnXnXmXnXnXnXnXnXnXnXmXmXmXMXMXMXnXmXmXmXmXmXmXmXmXmXmXmXmXmXmXmXmXmXmXmXmXmXBXZXZXZXZXZXmXBXZXBXZXZXmXmXmXmXmXmXmXmXMXmXmXmXmXmXmXmXmXZXmXMXMXMXmXmXZXBXBXmXBXmXmXBXBXBXBXBXBXBXBXZXmXMXnXnXnXnXnXnXzX8X5X9Xl DXDXDXDXDXDXDXDXDXDXDXDXDXDXDXDXDXDXDXDXDXDXDXDXDXDXDXDXDXDXDXDXDXDXDXDXDXDXDXDXDXDXDXDXDXDXDXDXDXDXDXDXDXDXDXDXDXDXDXDXDXDXDXDXDXDXDXDXDX",
"DXDXDXDXDXDXDXDXDXDXDXDXDXDXDXDXDXDXDXDXDXDXDXDXDXDXDXDXDXDXDXDXDXDXDXDXDXDXDXDXDXDXDXDXDXDXDXDXDXDXDXDXDXDXDXDXDXDXDXDXDXDXDXDXDXDXDXDXDXDXj 5XzXlXxXxXnXAXnXnXnXnXnXnXmXnXmXnXmXnXmXmXnXmXnXmXnXMXMXMXmXmXnXmXmXmXnXmXmXmXmXmXmXmXmXmXmXmXmXmXmXmXmXmXmXmXZXmXmXmXmXmXmXZXmXmXmXmXMXmXmXmXMXmXMXmXmXZXmXMXMXMXmXmXBXmXmXBXZXBXmXBXZXBXmXBXmXBXmXBXZXBXMXMXnXAXnXnXxXnXxXlX7X8X4Xk DXDXDXDXDXDXDXDXDXDXDXDXDXDXDXDXDXDXDXDXDXDXDXDXDXDXDXDXDXDXDXDXDXDXDXDXDXDXDXDXDXDXDXDXDXDXDXDXDXDXDXDXDXDXDXDXDXDXDXDXDXDXDXDXDXDXDXDXDXDX",
"DXDXDXDXDXDXDXDXDXDXDXDXDXDXDXDXDXDXDXDXDXDXDXDXDXDXDXDXDXDXDXDXDXDXDXDXDXDXDXDXDXDXDXDXDXDXDXDXDXDXDXDXDXDXDXDXDXDXDXDXDXDXDXDXDXDXDXDXDXDXDXDXz 9XSXvXAXAXnXAXnXnXnXnXnXnXnXnXmXnXmXnXMXMXMXMXmXnXmXmXnXmXmXnXnXmXnXmXmXmXmXmXmXmXZXmXmXmXZXmXmXmXmXmXmXmXmXmXmXmXmXmXmXmXmXmXmXmXmXmXmXmXMXmXMXMXmXMXMXmXmXmXZXZXZXBXBXZXBXmXBXZXBXBXBXBXBXBXBXmXMXnXnXnXnXnXnXxXxXkX8X0X0Xz DXDXDXDXDXDXDXDXDXDXDXDXDXDXDXDXDXDXDXDXDXDXDXDXDXDXDXDXDXDXDXDXDXDXDXDXDXDXDXDXDXDXDXDXDXDXDXDXDXDXDXDXDXDXDXDXDXDXDXDXDXDXDXDXDXDXDXDXDXDXDXDX",
"DXDXDXDXDXDXDXDXDXDXDXDXDXDXDXDXDXDXDXDXDXDXDXDXDXDXDXDXDXDXDXDXDXDXDXDXDXDXDXDXDXDXDXDXDXDXDXDXDXDXDXDXDXDXDXDXDXDXDXDXDXDXDXDXDXDXDXDXDXDXDXDXDXDXl 8XfXjXAXnXAXnXnXnXnXnXnXnXnXnXnXmXnXnXMXnXnXmXnXnXmXnXmXnXnXmXmXmXmXnXmXnXMXMXMXmXMXMXZXZXmXmXmXmXmXmXmXmXmXMXmXmXmXmXMXmXnXmXnXmXMXmXnXmXMXmXmXZXZXmXBXZXZXZXBXZXZXBXmXBXBXZXZXBXBXZXmXmXnXnXnXnXnXnXAXAXnXcX8X5X7Xl DXDXDXDXDXDXDXDXDXDXDXDXDXDXDXDXDXDXDXDXDXDXDXDXDXDXDXDXDXDXDXDXDXDXDXDXDXDXDXDXDXDXDXDXDXDXDXDXDXDXDXDXDXDXDXDXDXDXDXDXDXDXDXDXDXDXDXDXDXDXDXDXDXDX",
"DXDXDXDXDXDXDXDXDXDXDXDXDXDXDXDXDXDXDXDXDXDXDXDXDXDXDXDXDXDXDXDXDXDXDXDXDXDXDXDXDXDXDXDXDXDXDXDXDXDXDXDXDXDXDXDXDXDXDXDXDXDXDXDXDXDXDXDXDXDXDXDXDXDXDXDX>.SX8XzXnXxXnXAXnXnXnXnXnXnXnXnXmXmXmXmXmXMXnXnXnXnXnXmXnXmXnXnXnXmXnXmXmXMXMXmXnXZXMXnXMXnXmXmXnXmXnXnXmXMXMXMXmXnXnXmXmXMXmXnXmXmXmXmXmXmXmXBXZXZXZXZXZXBXZXBXBXZXZXBXBXBXBXZXMXmXnXnXnXnXnXnXnXnXAXcXSX5X7X4XDXDXDXDXDXDXDXDXDXDXDXDXDXDXDXDXDXDXDXDXDXDXDXDXDXDXDXDXDXDXDXDXDXDXDXDXDXDXDXDXDXDXDXDXDXDXDXDXDXDXDXDXDXDXDXDXDXDXDXDXDXDXDXDXDXDXDXDXDXDXDXDXDXDXDXDX",
"DXDXDXDXDXDXDXDXDXDXDXDXDXDXDXDXDXDXDXDXDXDXDXDXDXDXDXDXDXDXDXDXDXDXDXDXDXDXDXDXDXDXDXDXDXDXDXDXDXDXDXDXDXDXDXDXDXDXDXDXDXDXDXDXDXDXDXDXDXDXDXDXDXDXDXDXDX@ >XfXtXzXnXAXAXAXnXnXnXnXnXnXnXnXnXMXmXnXZXmXmXmXmXnXmXnXnXmXnXmXmXnXMXnXmXnXZXnXnXZXMXmXnXmXmXnXmXmXnXMXMXMXnXmXmXmXmXmXmXmXmXZXZXZXNXmXmXmXmXBXZXBXZXZXBXZXZXZXBXBXZXMXmXMXnXnXnXnXnXnXxXnXAXcXSX5X7Xl @ DXDXDXDXDXDXDXDXDXDXDXDXDXDXDXDXDXDXDXDXDXDXDXDXDXDXDXDXDXDXDXDXDXDXDXDXDXDXDXDXDXDXDXDXDXDXDXDXDXDXDXDXDXDXDXDXDXDXDXDXDXDXDXDXDXDXDXDXDXDXDXDXDXDXDXDXDX",
"DXDXDXDXDXDXDXDXDXDXDXDXDXDXDXDXDXDXDXDXDXDXDXDXDXDXDXDXDXDXDXDXDXDXDXDXDXDXDXDXDXDXDXDXDXDXDXDXDXDXDXDXDXDXDXDXDXDXDXDXDXDXDXDXDXDXDXDXDXDXDXDXDXDXDXDXDXDXDX@ l 8X8XzXnXxXnXAXxXnXnXnXnXnXnXnXnXnXMXnXmXmXMXMXmXmXMXmXmXnXMXMXmXnXnXnXmXnXnXmXmXnXMXMXMXmXmXmXZXZXZXmXmXmXmXmXZXZXmXmXmXmXmXmXZXZXNXmXZXZXZXBXBXZXZXBXZXmXmXmXnXnXnXnXnXnXnXnXxXnXnXkX8X5X7Xl @ DXDXDXDXDXDXDXDXDXDXDXDXDXDXDXDXDXDXDXDXDXDXDXDXDXDXDXDXDXDXDXDXDXDXDXDXDXDXDXDXDXDXDXDXDXDXDXDXDXDXDXDXDXDXDXDXDXDXDXDXDXDXDXDXDXDXDXDXDXDXDXDXDXDXDXDXDXDXDX",
"DXDXDXDXDXDXDXDXDXDXDXDXDXDXDXDXDXDXDXDXDXDXDXDXDXDXDXDXDXDXDXDXDXDXDXDXDXDXDXDXDXDXDXDXDXDXDXDXDXDXDXDXDXDXDXDXDXDXDXDXDXDXDXDXDXDXDXDXDXDXDXDXDXDXDXDXDXDXDXDXDXDXl 9XcXkXxXnXnXAXnXxXnXnXnXnXnXnXnXnXnXMXMXMXmXnXmXmXmXmXmXmXmXmXZXmXmXmXmXnXmXMXmXmXmXMXmXmXmXmXMXmXmXmXmXmXZXmXZXZXmXNXmXBXBXmXZXZXBXZXBXZXBXmXmXMXMXnXnXnXnXnXnXnXnXxXxXxXxXkX7XlX7Xl DXDXDXDXDXDXDXDXDXDXDXDXDXDXDXDXDXDXDXDXDXDXDXDXDXDXDXDXDXDXDXDXDXDXDXDXDXDXDXDXDXDXDXDXDXDXDXDXDXDXDXDXDXDXDXDXDXDXDXDXDXDXDXDXDXDXDXDXDXDXDXDXDXDXDXDXDXDXDXDXDXDX",
"DXDXDXDXDXDXDXDXDXDXDXDXDXDXDXDXDXDXDXDXDXDXDXDXDXDXDXDXDXDXDXDXDXDXDXDXDXDXDXDXDXDXDXDXDXDXDXDXDXDXDXDXDXDXDXDXDXDXDXDXDXDXDXDXDXDXDXDXDXDXDXDXDXDXDXDXDXDXDXDXDXDXDXDXk 7XkXlXzXAXnXAXnXnXxXnXnXnXnXnXnXnXnXnXnXnXnXmXmXmXmXmXmXmXnXmXmXmXmXmXmXMXmXMXmXmXmXmXmXZXmXZXmXmXZXZXZXZXmXZXZXZXZXZXZXmXZXZXZXZXmXMXMXnXnXnXnXnXnXnXnXnXnXnXxXnXcXlX7XlX5Xk DXDXDXDXDXDXDXDXDXDXDXDXDXDXDXDXDXDXDXDXDXDXDXDXDXDXDXDXDXDXDXDXDXDXDXDXDXDXDXDXDXDXDXDXDXDXDXDXDXDXDXDXDXDXDXDXDXDXDXDXDXDXDXDXDXDXDXDXDXDXDXDXDXDXDXDXDXDXDXDXDXDXDXDX",
"DXDXDXDXDXDXDXDXDXDXDXDXDXDXDXDXDXDXDXDXDXDXDXDXDXDXDXDXDXDXDXDXDXDXDXDXDXDXDXDXDXDXDXDXDXDXDXDXDXDXDXDXDXDXDXDXDXDXDXDXDXDXDXDXDXDXDXDXDXDXDXDXDXDXDXDXDXDXDXDXDXDXDXDXDXDX@ l 8XcXvXxXxXnXnXxXAXAXnXnXnXnXnXnXnXnXnXnXnXnXnXMXnXmXmXmXmXmXmXmXmXmXmXmXmXmXmXZXZXZXZXmXmXmXmXmXmXZXZXZXZXmXZXmXmXmXmXMXnXnXnXnXnXnXnXnXnXnXnXxXxXnXAXAXkX8XlX7Xl @ DXDXDXDXDXDXDXDXDXDXDXDXDXDXDXDXDXDXDXDXDXDXDXDXDXDXDXDXDXDXDXDXDXDXDXDXDXDXDXDXDXDXDXDXDXDXDXDXDXDXDXDXDXDXDXDXDXDXDXDXDXDXDXDXDXDXDXDXDXDXDXDXDXDXDXDXDXDXDXDXDXDXDXDXDXDX",
"DXDXDXDXDXDXDXDXDXDXDXDXDXDXDXDXDXDXDXDXDXDXDXDXDXDXDXDXDXDXDXDXDXDXDXDXDXDXDXDXDXDXDXDXDXDXDXDXDXDXDXDXDXDXDXDXDXDXDXDXDXDXDXDXDXDXDXDXDXDXDXDXDXDXDXDXDXDXDXDXDXDXDXDXDXDXDXDXDXk 5XlX8XvXnXnXnXxXnXAXnXxXMXnXnXnXnXnXnXnXnXnXnXnXnXnXnXnXmXmXnXZXmXmXmXZXmXmXmXZXZXZXmXmXmXmXmXmXnXmXmXnXnXnXnXnXnXnXnXnXMXnXnXnXnXAXxXnXxXnXAXzXlX7X8X4Xk DXDXDXDXDXDXDXDXDXDXDXDXDXDXDXDXDXDXDXDXDXDXDXDXDXDXDXDXDXDXDXDXDXDXDXDXDXDXDXDXDXDXDXDXDXDXDXDXDXDXDXDXDXDXDXDXDXDXDXDXDXDXDXDXDXDXDXDXDXDXDXDXDXDXDXDXDXDXDXDXDXDXDXDXDXDXDXDXDX",
"DXDXDXDXDXDXDXDXDXDXDXDXDXDXDXDXDXDXDXDXDXDXDXDXDXDXDXDXDXDXDXDXDXDXDXDXDXDXDXDXDXDXDXDXDXDXDXDXDXDXDXDXDXDXDXDXDXDXDXDXDXDXDXDXDXDXDXDXDXDXDXDXDXDXDXDXDXDXDXDXDXDXDXDXDXDXDXDXDXDXDXDXz 5XlXvXzXnXxXnXxXnXAXnXnXnXnXnXnXnXnXnXnXnXnXnXnXnXnXnXnXnXnXnXnXnXnXnXnXnXnXnXAXMXnXAXnXnXnXnXnXnXnXnXnXnXnXnXnXnXxXnXxXnXxXnXnXxXzXlX9X8X4Xk DXDXDXDXDXDXDXDXDXDXDXDXDXDXDXDXDXDXDXDXDXDXDXDXDXDXDXDXDXDXDXDXDXDXDXDXDXDXDXDXDXDXDXDXDXDXDXDXDXDXDXDXDXDXDXDXDXDXDXDXDXDXDXDXDXDXDXDXDXDXDXDXDXDXDXDXDXDXDXDXDXDXDXDXDXDXDXDXDXDXDXDX",
"DXDXDXDXDXDXDXDXDXDXDXDXDXDXDXDXDXDXDXDXDXDXDXDXDXDXDXDXDXDXDXDXDXDXDXDXDXDXDXDXDXDXDXDXDXDXDXDXDXDXDXDXDXDXDXDXDXDXDXDXDXDXDXDXDXDXDXDXDXDXDXDXDXDXDXDXDXDXDXDXDXDXDXDXDXDXDXDXDXDXDXDXDXDXDXk 4X8XxXkXxXnXxXnXxXnXxXnXAXnXnXnXnXnXnXnXnXnXnXnXnXnXnXnXnXnXnXnXnXAXnXnXnXnXnXnXnXnXnXnXnXnXnXnXnXnXnXxXAXxXnXxXnXAXxXkX8XkX7X4Xk DXDXDXDXDXDXDXDXDXDXDXDXDXDXDXDXDXDXDXDXDXDXDXDXDXDXDXDXDXDXDXDXDXDXDXDXDXDXDXDXDXDXDXDXDXDXDXDXDXDXDXDXDXDXDXDXDXDXDXDXDXDXDXDXDXDXDXDXDXDXDXDXDXDXDXDXDXDXDXDXDXDXDXDXDXDXDXDXDXDXDXDXDXDXDX",
"DXDXDXDXDXDXDXDXDXDXDXDXDXDXDXDXDXDXDXDXDXDXDXDXDXDXDXDXDXDXDXDXDXDXDXDXDXDXDXDXDXDXDXDXDXDXDXDXDXDXDXDXDXDXDXDXDXDXDXDXDXDXDXDXDXDXDXDXDXDXDXDXDXDXDXDXDXDXDXDXDXDXDXDXDXDXDXDXDXDXDXDXDXDXDXDXDXDX@ l 5XtXnXvXxXxXnXxXAXnXxXxXnXxXnXnXxXnXxXxXnXnXnXnXnXnXnXnXnXnXnXnXnXnXAXnXAXnXAXAXnXxXAXnXxXxXxXnXnXnXxXvXfXvX8X4Xl @ DXDXDXDXDXDXDXDXDXDXDXDXDXDXDXDXDXDXDXDXDXDXDXDXDXDXDXDXDXDXDXDXDXDXDXDXDXDXDXDXDXDXDXDXDXDXDXDXDXDXDXDXDXDXDXDXDXDXDXDXDXDXDXDXDXDXDXDXDXDXDXDXDXDXDXDXDXDXDXDXDXDXDXDXDXDXDXDXDXDXDXDXDXDXDXDXDXDX",
"DXDXDXDXDXDXDXDXDXDXDXDXDXDXDXDXDXDXDXDXDXDXDXDXDXDXDXDXDXDXDXDXDXDXDXDXDXDXDXDXDXDXDXDXDXDXDXDXDXDXDXDXDXDXDXDXDXDXDXDXDXDXDXDXDXDXDXDXDXDXDXDXDXDXDXDXDXDXDXDXDXDXDXDXDXDXDXDXDXDXDXDXDXDXDXDXDXDXDXDXDXDX@ l 5X8XcXlXcXAXxXnXxXnXnXAXAXnXxXnXxXnXxXxXnXxXnXAXnXAXnXAXnXxXnXxXnXAXnXnXAXAXnXAXnXxXcXlX8XkX7X4Xl @ DXDXDXDXDXDXDXDXDXDXDXDXDXDXDXDXDXDXDXDXDXDXDXDXDXDXDXDXDXDXDXDXDXDXDXDXDXDXDXDXDXDXDXDXDXDXDXDXDXDXDXDXDXDXDXDXDXDXDXDXDXDXDXDXDXDXDXDXDXDXDXDXDXDXDXDXDXDXDXDXDXDXDXDXDXDXDXDXDXDXDXDXDXDXDXDXDXDXDXDXDXDX",
"DXDXDXDXDXDXDXDXDXDXDXDXDXDXDXDXDXDXDXDXDXDXDXDXDXDXDXDXDXDXDXDXDXDXDXDXDXDXDXDXDXDXDXDXDXDXDXDXDXDXDXDXDXDXDXDXDXDXDXDXDXDXDXDXDXDXDXDXDXDXDXDXDXDXDXDXDXDXDXDXDXDXDXDXDXDXDXDXDXDXDXDXDXDXDXDXDXDXDXDXDXDXDXDXDXDXDXj l 4X7XlXxXzXcXxXnXxXnXAXnXxXnXnXxXnXAXAXAXnXnXAXxXnXAXnXxXnXxXxXcXkXlXzXfX6XB.l j DXDXDXDXDXDXDXDXDXDXDXDXDXDXDXDXDXDXDXDXDXDXDXDXDXDXDXDXDXDXDXDXDXDXDXDXDXDXDXDXDXDXDXDXDXDXDXDXDXDXDXDXDXDXDXDXDXDXDXDXDXDXDXDXDXDXDXDXDXDXDXDXDXDXDXDXDXDXDXDXDXDXDXDXDXDXDXDXDXDXDXDXDXDXDXDXDXDXDXDXDXDXDXDXDXDXDX",
"DXDXDXDXDXDXDXDXDXDXDXDXDXDXDXDXDXDXDXDXDXDXDXDXDXDXDXDXDXDXDXDXDXDXDXDXDXDXDXDXDXDXDXDXDXDXDXDXDXDXDXDXDXDXDXDXDXDXDXDXDXDXDXDXDXDXDXDXDXDXDXDXDXDXDXDXDXDXDXDXDXDXDXDXDXDXDXDXDXDXDXDXDXDXDXDXDXDXDXDXDXDXDXDXDXDXDXDXDXDXDXDXDX@ k l l 5X0X8XlXvXxXnXMXMXnXxXxXAXnXAXxXzXkX8X9X0X4X`.l k @ DXDXDXDXDXDXDXDXDXDXDXDXDXDXDXDXDXDXDXDXDXDXDXDXDXDXDXDXDXDXDXDXDXDXDXDXDXDXDXDXDXDXDXDXDXDXDXDXDXDXDXDXDXDXDXDXDXDXDXDXDXDXDXDXDXDXDXDXDXDXDXDXDXDXDXDXDXDXDXDXDXDXDXDXDXDXDXDXDXDXDXDXDXDXDXDXDXDXDXDXDXDXDXDXDXDXDXDXDXDXDXDXDX",
"DXDXDXDXDXDXDXDXDXDXDXDXDXDXDXDXDXDXDXDXDXDXDXDXDXDXDXDXDXDXDXDXDXDXDXDXDXDXDXDXDXDXDXDXDXDXDXDXDXDXDXDXDXDXDXDXDXDXDXDXDXDXDXDXDXDXDXDXDXDXDXDXDXDXDXDXDXDXDXDXDXDXDXDXDXDXDXDXDXDXDXDXDXDXDXDXDXDXDXDXDXDXDXDXDXDXDXDXDXDXDXDXDXDXDXDXDXDXDXDXDXDXDXDXDXDXDXDXDXDXDXDXDXDXDXDXDXDXDXDXDXDXDXDXDXDXDXDXDXDXDXDXDXDXDXDXDXDXDXDXDXDXDXDXDXDXDXDXDXDXDXDXDXDXDXDXDXDXDXDXDXDXDXDXDXDXDXDXDXDXDXDXDXDXDXDXDXDXDXDXDXDXDXDXDXDXDXDXDXDXDXDXDXDXDXDXDXDXDXDXDXDXDXDXDXDXDXDXDXDXDXDXDXDXDXDXDXDXDXDXDXDXDXDXDXDXDXDXDXDXDXDXDXDXDXDX",
"DXDXDXDXDXDXDXDXDXDXDXDXDXDXDXDXDXDXDXDXDXDXDXDXDXDXDXDXDXDXDXDXDXDXDXDXDXDXDXDXDXDXDXDXDXDXDXDXDXDXDXDXDXDXDXDXDXDXDXDXDXDXDXDXDXDXDXDXDXDXDXDXDXDXDXDXDXDXDXDXDXDXDXDXDXDXDXDXDXDXDXDXDXDXDXDXDXDXDXDXDXDXDXDXDXDXDXDXDXDXDXDXDXDXDXDXDXDXDXDXDXDXDXDXDXDXDXDXDXDXDXDXDXDXDXDXDXDXDXDXDXDXDXDXDXDXDXDXDXDXDXDXDXDXDXDXDXDXDXDXDXDXDXDXDXDXDXDXDXDXDXDXDXDXDXDXDXDXDXDXDXDXDXDXDXDXDXDXDXDXDXDXDXDXDXDXDXDXDXDXDXDXDXDXDXDXDXDXDXDXDXDXDXDXDXDXDXDXDXDXDXDXDXDXDXDXDXDXDXDXDXDXDXDXDXDXDXDXDXDXDXDXDXDXDXDXDXDXDXDXDXDXDXDXDXDX",
"DXDXDXDXDXDXDXDXDXDXDXDXDXDXDXDXDXDXDXDXDXDXDXDXDXDXDXDXDXDXDXDXDXDXDXDXDXDXDXDXDXDXDXDXDXDXDXDXDXDXDXDXDXDXDXDXDXDXDXDXDXDXDXDXDXDXDXDXDXDXDXDXDXDXDXDXDXDXDXDXDXDXDXDXDXDXDXDXDXDXDXDXDXDXDXDXDXDXDXDXDXDXDXDXDXDXDXDXDXDXDXDXDXDXDXDXDXDXDXDXDXDXDXDXDXDXDXDXDXDXDXDXDXDXDXDXDXDXDXDXDXDXDXDXDXDXDXDXDXDXDXDXDXDXDXDXDXDXDXDXDXDXDXDXDXDXDXDXDXDXDXDXDXDXDXDXDXDXDXDXDXDXDXDXDXDXDXDXDXDXDXDXDXDXDXDXDXDXDXDXDXDXDXDXDXDXDXDXDXDXDXDXDXDXDXDXDXDXDXDXDXDXDXDXDXDXDXDXDXDXDXDXDXDXDXDXDXDXDXDXDXDXDXDXDXDXDXDXDXDXDXDXDXDXDXDX",
"DXDXDXDXDXDXDXDXDXDXDXDXDXDXDXDXDXDXDXDXDXDXDXDXDXDXDXDXDXDXDXDXDXDXDXDXDXDXDXDXDXDXDXDXDXDXDXDXDXDXDXDXDXDXDXDXDXDXDXDXDXDXDXDXDXDXDXDXDXDXDXDXDXDXDXDXDXDXDXDXDXDXDXDXDXDXDXDXDXDXDXDXDXDXDXDXDXDXDXDXDXDXDXDXDXDXDXDXDXDXDXDXDXDXDXDXDXDXDXDXDXDXDXDXDXDXDXDXDXDXDXDXDXDXDXDXDXDXDXDXDXDXDXDXDXDXDXDXDXDXDXDXDXDXDXDXDXDXDXDXDXDXDXDXDXDXDXDXDXDXDXDXDXDXDXDXDXDXDXDXDXDXDXDXDXDXDXDXDXDXDXDXDXDXDXDXDXDXDXDXDXDXDXDXDXDXDXDXDXDXDXDXDXDXDXDXDXDXDXDXDXDXDXDXDXDXDXDXDXDXDXDXDXDXDXDXDXDXDXDXDXDXDXDXDXDXDXDXDXDXDXDXDXDXDXDX",
"DXDXDXDXDXDXDXDXDXDXDXDXDXDXDXDXDXDXDXDXDXDXDXDXDXDXDXDXDXDXDXDXDXDXDXDXDXDXDXDXDXDXDXDXDXDXDXDXDXDXDXDXDXDXDXDXDXDXDXDXDXDXDXDXDXDXDXDXDXDXDXDXDXDXDXDXDXDXDXDXDXDXDXDXDXDXDXDXDXDXDXDXDXDXDXDXDXDXDXDXDXDXDXDXDXDXDXDXDXDXDXDXDXDXDXDXDXDXDXDXDXDXDXDXDXDXDXDXDXDXDXDXDXDXDXDXDXDXDXDXDXDXDXDXDXDXDXDXDXDXDXDXDXDXDXDXDXDXDXDXDXDXDXDXDXDXDXDXDXDXDXDXDXDXDXDXDXDXDXDXDXDXDXDXDXDXDXDXDXDXDXDXDXDXDXDXDXDXDXDXDXDXDXDXDXDXDXDXDXDXDXDXDXDXDXDXDXDXDXDXDXDXDXDXDXDXDXDXDXDXDXDXDXDXDXDXDXDXDXDXDXDXDXDXDXDXDXDXDXDXDXDXDXDXDXDX",
"DXDXDXDXDXDXDXDXDXDXDXDXDXDXDXDXDXDXDXDXDXDXDXDXDXDXDXDXDXDXDXDXDXDXDXDXDXDXDXDXDXDXDXDXDXDXDXDXDXDXDXDXDXDXDXDXDXDXDXDXDXDXDXDXDXDXDXDXDXDXDXDXDXDXDXDXDXDXDXDXDXDXDXDXDXDXDXDXDXDXDXDXDXDXDXDXDXDXDXDXDXDXDXDXDXDXDXDXDXDXDXDXDXDXDXDXDXDXDXDXDXDXDXDXDXDXDXDXDXDXDXDXDXDXDXDXDXDXDXDXDXDXDXDXDXDXDXDXDXDXDXDXDXDXDXDXDXDXDXDXDXDXDXDXDXDXDXDXDXDXDXDXDXDXDXDXDXDXDXDXDXDXDXDXDXDXDXDXDXDXDXDXDXDXDXDXDXDXDXDXDXDXDXDXDXDXDXDXDXDXDXDXDXDXDXDXDXDXDXDXDXDXDXDXDXDXDXDXDXDXDXDXDXDXDXDXDXDXDXDXDXDXDXDXDXDXDXDXDXDXDXDXDXDXDXDX",
"DXDXDXDXDXDXDXDXDXDXDXDXDXDXDXDXDXDXDXDXDXDXDXDXDXDXDXDXDXDXDXDXDXDXDXDXDXDXDXDXDXDXDXDXDXDXDXDXDXDXDXDXDXDXDXDXDXDXDXDXDXDXDXDXDXDXDXDXDXDXDXDXDXDXDXDXDXDXDXDXDXDXDXDXDXDXDXDXDXDXDXDXDXDXDXDXDXDXDXDXDXDXDXDXDXDXDXDXDXDXDXDXDXDXDXDXDXDXDXDXDXDXDXDXDXDXDXDXDXDXDXDXDXDXDXDXDXDXDXDXDXDXDXDXDXDXDXDXDXDXDXDXDXDXDXDXDXDXDXDXDXDXDXDXDXDXDXDXDXDXDXDXDXDXDXDXDXDXDXDXDXDXDXDXDXDXDXDXDXDXDXDXDXDXDXDXDXDXDXDXDXDXDXDXDXDXDXDXDXDXDXDXDXDXDXDXDXDXDXDXDXDXDXDXDXDXDXDXDXDXDXDXDXDXDXDXDXDXDXDXDXDXDXDXDXDXDXDXDXDXDXDXDXDXDXDX",
"DXDXDXDXDXDXDXDXDXDXDXDXDXDXDXDXDXDXDXDXDXDXDXDXDXDXDXDXDXDXDXDXDXDXDXDXDXDXDXDXDXDXDXDXDXDXDXDXDXDXDXDXDXDXDXDXDXDXDXDXDXDXDXDXDXDXDXDXDXDXDXDXDXDXDXDXDXDXDXDXDXDXDXDXDXDXDXDXDXDXDXDXDXDXDXDXDXDXDXDXDXDXDXDXDXDXDXDXDXDXDXDXDXDXDXDXDXDXDXDXDXDXDXDXDXDXDXDXDXDXDXDXDXDXDXDXDXDXDXDXDXDXDXDXDXDXDXDXDXDXDXDXDXDXDXDXDXDXDXDXDXDXDXDXDXDXDXDXDXDXDXDXDXDXDXDXDXDXDXDXDXDXDXDXDXDXDXDXDXDXDXDXDXDXDXDXDXDXDXDXDXDXDXDXDXDXDXDXDXDXDXDXDXDXDXDXDXDXDXDXDXDXDXDXDXDXDXDXDXDXDXDXDXDXDXDXDXDXDXDXDXDXDXDXDXDXDXDXDXDXDXDXDXDXDXDX",
"DXDXDXDXDXDXDXDXDXDXDXDXDXDXDXDXDXDXDXDXDXDXDXDXDXDXDXDXDXDXDXDXDXDXDXDXDXDXDXDXDXDXDXDXDXDXDXDXDXDXDXDXDXDXDXDXDXDXDXDXDXDXDXDXDXDXDXDXDXDXDXDXDXDXDXDXDXDXDXDXDXDXDXDXDXDXDXDXDXDXDXDXDXDXDXDXDXDXDXDXDXDXDXDXDXDXDXDXDXDXDXDXDXDXDXDXDXDXDXDXDXDXDXDXDXDXDXDXDXDXDXDXDXDXDXDXDXDXDXDXDXDXDXDXDXDXDXDXDXDXDXDXDXDXDXDXDXDXDXDXDXDXDXDXDXDXDXDXDXDXDXDXDXDXDXDXDXDXDXDXDXDXDXDXDXDXDXDXDXDXDXDXDXDXDXDXDXDXDXDXDXDXDXDXDXDXDXDXDXDXDXDXDXDXDXDXDXDXDXDXDXDXDXDXDXDXDXDXDXDXDXDXDXDXDXDXDXDXDXDXDXDXDXDXDXDXDXDXDXDXDXDXDXDXDXDX",
"DXDXDXDXDXDXDXDXDXDXDXDXDXDXDXDXDXDXDXDXDXDXDXDXDXDXDXDXDXDXDXDXDXDXDXDXDXDXDXDXDXDXDXDXDXDXDXDXDXDXDXDXDXDXDXDXDXDXDXDXDXDXDXDXDXDXDXDXDXDXDXDXDXDXDXDXDXDXDXDXDXDXDXDXDXDXDXDXDXDXDXDXDXDXDXDXDXDXDXDXDXDXDXDXDXDXDXDXDXDXDXDXDXDXDXDXDXDXDXDXDXDXDXDXDXDXDXDXDXDXDXDXDXDXDXDXDXDXDXDXDXDXDXDXDXDXDXDXDXDXDXDXDXDXDXDXDXDXDXDXDXDXDXDXDXDXDXDXDXDXDXDXDXDXDXDXDXDXDXDXDXDXDXDXDXDXDXDXDXDXDXDXDXDXDXDXDXDXDXDXDXDXDXDXDXDXDXDXDXDXDXDXDXDXDXDXDXDXDXDXDXDXDXDXDXDXDXDXDXDXDXDXDXDXDXDXDXDXDXDXDXDXDXDXDXDXDXDXDXDXDXDXDXDXDXDX",
"DXDXDXDXDXDXDXDXDXDXDXDXDXDXDXDXDXDXDXDXDXDXDXDXDXDXDXDXDXDXDXDXDXDXDXDXDXDXDXDXDXDXDXDXDXDXDXDXDXDXDXDXDXDXDXDXDXDXDXDXDXDXDXDXDXDXDXDXDXDXDXDXDXDXDXDXDXDXDXDXDXDXDXDXDXDXDXDXDXDXDXDXDXDXDXDXDXDXDXDXDXDXDXDXDXDXDXDXDXDXDXDXDXDXDXDXDXDXDXDXDXDXDXDXDXDXDXDXDXDXDXDXDXDXDXDXDXDXDXDXDXDXDXDXDXDXDXDXDXDXDXDXDXDXDXDXDXDXDXDXDXDXDXDXDXDXDXDXDXDXDXDXDXDXDXDXDXDXDXDXDXDXDXDXDXDXDXDXDXDXDXDXDXDXDXDXDXDXDXDXDXDXDXDXDXDXDXDXDXDXDXDXDXDXDXDXDXDXDXDXDXDXDXDXDXDXDXDXDXDXDXDXDXDXDXDXDXDXDXDXDXDXDXDXDXDXDXDXDXDXDXDXDXDXDXDX",
"DXDXDXDXDXDXDXDXDXDXDXDXDXDXDXDXDXDXDXDXDXDXDXDXDXDXDXDXDXDXDXDXDXDXDXDXDXDXDXDXDXDXDXDXDXDXDXDXDXDXDXDXDXDXDXDXDXDXDXDXDXDXDXDXDXDXDXDXDXDXDXDXDXDXDXDXDXDXDXDXDXDXDXDXDXDXDXDXDXDXDXDXDXDXDXDXDXDXDXDXDXDXDXDXDXDXDXDXDXDXDXDXDXDXDXDXDXDXDXDXDXDXDXDXDXDXDXDXDXDXDXDXDXDXDXDXDXDXDXDXDXDXDXDXDXDXDXDXDXDXDXDXDXDXDXDXDXDXDXDXDXDXDXDXDXDXDXDXDXDXDXDXDXDXDXDXDXDXDXDXDXDXDXDXDXDXDXDXDXDXDXDXDXDXDXDXDXDXDXDXDXDXDXDXDXDXDXDXDXDXDXDXDXDXDXDXDXDXDXDXDXDXDXDXDXDXDXDXDXDXDXDXDXDXDXDXDXDXDXDXDXDXDXDXDXDXDXDXDXDXDXDXDXDXDXDX",
"DXDXDXDXDXDXDXDXDXDXDXDXDXDXDXDXDXDXDXDXDXDXDXDXDXDXDXDXDXDXDXDXDXDXDXDXDXDXDXDXDXDXDXDXDXDXDXDXDXDXDXDXDXDXDXDXDXDXDXDXDXDXDXDXDXDXDXDXDXDXDXDXDXDXDXDXDXDXDXDXDXDXDXDXDXDXDXDXDXDXDXDXDXDXDXDXDXDXDXDXDXDXDXDXDXDXDXDXDXDXDXDXDXDXDXDXDXDXDXDXDXDXDXDXDXDXDXDXDXDXDXDXDXDXDXDXDXDXDXDXDXDXDXDXDXDXDXDXDXDXDXDXDXDXDXDXDXDXDXDXDXDXDXDXDXDXDXDXDXDXDXDXDXDXDXDXDXDXDXDXDXDXDXDXDXDXDXDXDXDXDXDXDXDXDXDXDXDXDXDXDXDXDXDXDXDXDXDXDXDXDXDXDXDXDXDXDXDXDXDXDXDXDXDXDXDXDXDXDXDXDXDXDXDXDXDXDXDXDXDXDXDXDXDXDXDXDXDXDXDXDXDXDXDXDXDX",
"DXDXDXDXDXDXDXDXDXDXDXDXDXDXDXDXDXDXDXDXDXDXDXDXDXDXDXDXDXDXDXDXDXDXDXDXDXDXDXDXDXDXDXDXDXDXDXDXDXDXDXDXDXDXDXDXDXDXDXDXDXDXDXDXDXDXDXDXDXDXDXDXDXDXDXDXDXDXDXDXDXDXDXDXDXDXDXDXDXDXDXDXDXDXDXDXDXDXDXDXDXDXDXDXDXDXDXDXDXDXDXDXDXDXDXDXDXDXDXDXDXDXDXDXDXDXDXDXDXDXDXDXDXDXDXDXDXDXDXDXDXDXDXDXDXDXDXDXDXDXDXDXDXDXDXDXDXDXDXDXDXDXDXDXDXDXDXDXDXDXDXDXDXDXDXDXDXDXDXDXDXDXDXDXDXDXDXDXDXDXDXDXDXDXDXDXDXDXDXDXDXDXDXDXDXDXDXDXDXDXDXDXDXDXDXDXDXDXDXDXDXDXDXDXDXDXDXDXDXDXDXDXDXDXDXDXDXDXDXDXDXDXDXDXDXDXDXDXDXDXDXDXDXDXDXDX",
"DXDXDXDXDXDXDXDXDXDXDXDXDXDXDXDXDXDXDXDXDXDXDXDXDXDXDXDXDXDXDXDXDXDXDXDXDXDXDXDXDXDXDXDXDXDXDXDXDXDXDXDXDXDXDXDXDXDXDXDXDXDXDXDXDXDXDXDXDXDXDXDXDXDXDXDXDXDXDXDXDXDXDXDXDXDXDXDXDXDXDXDXDXDXDXDXDXDXDXDXDXDXDXDXDXDXDXDXDXDXDXDXDXDXDXDXDXDXDXDXDXDXDXDXDXDXDXDXDXDXDXDXDXDXDXDXDXDXDXDXDXDXDXDXDXDXDXDXDXDXDXDXDXDXDXDXDXDXDXDXDXDXDXDXDXDXDXDXDXDXDXDXDXDXDXDXDXDXDXDXDXDXDXDXDXDXDXDXDXDXDXDXDXDXDXDXDXDXDXDXDXDXDXDXDXDXDXDXDXDXDXDXDXDXDXDXDXDXDXDXDXDXDXDXDXDXDXDXDXDXDXDXDXDXDXDXDXDXDXDXDXDXDXDXDXDXDXDXDXDXDXDXDXDXDXDX",
"DXDXDXDXDXDXDXDXDXDXDXDXDXDXDXDXDXDXDXDXDXDXDXDXDXDXDXDXDXDXDXDXDXDXDXDXDXDXDXDXDXDXDXDXDXDXDXDXDXDXDXDXDXDXDXDXDXDXDXDXDXDXDXDXDXDXDXDXDXDXDXDXDXDXDXDXDXDXDXDXDXDXDXDXDXDXDXDXDXDXDXDXDXDXDXDXDXDXDXDXDXDXDXDXDXDXDXDXDXDXDXDXDXDXDXDXDXDXDXDXDXDXDXDXDXDXDXDXDXDXDXDXDXDXDXDXDXDXDXDXDXDXDXDXDXDXDXDXDXDXDXDXDXDXDXDXDXDXDXDXDXDXDXDXDXDXDXDXDXDXDXDXDXDXDXDXDXDXDXDXDXDXDXDXDXDXDXDXDXDXDXDXDXDXDXDXDXDXDXDXDXDXDXDXDXDXDXDXDXDXDXDXDXDXDXDXDXDXDXDXDXDXDXDXDXDXDXDXDXDXDXDXDXDXDXDXDXDXDXDXDXDXDXDXDXDXDXDXDXDXDXDXDXDXDXDX",
"DXDXDXDXDXDXDXDXDXDXDXDXDXDXDXDXDXDXDXDXDXDXDXDXDXDXDXDXDXDXDXDXDXDXDXDXDXDXDXDXDXDXDXDXDXDXDXDXDXDXDXDXDXDXDXDXDXDXDXDXDXDXDXDXDXDXDXDXDXDXDXDXDXDXDXDXDXDXDXDXDXDXDXDXDXDXDXDXDXDXDXDXDXDXDXDXDXDXDXDXDXDXDXDXDXDXDXDXDXDXDXDXDXDXDXDXDXDXDXDXDXDXDXDXDXDXDXDXDXDXDXDXDXDXDXDXDXDXDXDXDXDXDXDXDXDXDXDXDXDXDXDXDXDXDXDXDXDXDXDXDXDXDXDXDXDXDXDXDXDXDXDXDXDXDXDXDXDXDXDXDXDXDXDXDXDXDXDXDXDXDXDXDXDXDXDXDXDXDXDXDXDXDXDXDXDXDXDXDXDXDXDXDXDXDXDXDXDXDXDXDXDXDXDXDXDXDXDXDXDXDXDXDXDXDXDXDXDXDXDXDXDXDXDXDXDXDXDXDXDXDXDXDXDXDXDX",
"DXDXDXDXDXDXDXDXDXDXDXDXDXDXDXDXDXDXDXDXDXDXDXDXDXDXDXDXDXDXDXDXDXDXDXDXDXDXDXDXDXDXDXDXDXDXDXDXDXDXDXDXDXDXDXDXDXDXDXDXDXDXDXDXDXDXDXDXDXDXDXDXDXDXDXDXDXDXDXDXDXDXDXDXDXDXDXDXDXDXDXDXDXDXDXDXDXDXDXDXDXDXDXDXDXDXDXDXDXDXDXDXDXDXDXDXDXDXDXDXDXDXDXDXDXDXDXDXDXDXDXDXDXDXDXDXDXDXDXDXDXDXDXDXDXDXDXDXDXDXDXDXDXDXDXDXDXDXDXDXDXDXDXDXDXDXDXDXDXDXDXDXDXDXDXDXDXDXDXDXDXDXDXDXDXDXDXDXDXDXDXDXDXDXDXDXDXDXDXDXDXDXDXDXDXDXDXDXDXDXDXDXDXDXDXDXDXDXDXDXDXDXDXDXDXDXDXDXDXDXDXDXDXDXDXDXDXDXDXDXDXDXDXDXDXDXDXDXDXDXDXDXDXDXDXDX",
"DXDXDXDXDXDXDXDXDXDXDXDXDXDXDXDXDXDXDXDXDXDXDXDXDXDXDXDXDXDXDXDXDXDXDXDXDXDXDXDXDXDXDXDXDXDXDXDXDXDXDXDXDXDXDXDXDXDXDXDXDXDXDXDXDXDXDXDXDXDXDXDXDXDXDXDXDXDXDXDXDXDXDXDXDXDXDXDXDXDXDXDXDXDXDXDXDXDXDXDXDXDXDXDXDXDXDXDXDXDXDXDXDXDXDXDXDXDXDXDXDXDXDXDXDXDXDXDXDXDXDXDXDXDXDXDXDXDXDXDXDXDXDXDXDXDXDXDXDXDXDXDXDXDXDXDXDXDXDXDXDXDXDXDXDXDXDXDXDXDXDXDXDXDXDXDXDXDXDXDXDXDXDXDXDXDXDXDXDXDXDXDXDXDXDXDXDXDXDXDXDXDXDXDXDXDXDXDXDXDXDXDXDXDXDXDXDXDXDXDXDXDXDXDXDXDXDXDXDXDXDXDXDXDXDXDXDXDXDXDXDXDXDXDXDXDXDXDXDXDXDXDXDXDXDXDX",
"DXDXDXDXDXDXDXDXDXDXDXDXDXDXDXDXDXDXDXDXDXDXDXDXDXDXDXDXDXDXDXDXDXDXDXDXDXDXDXDXDXDXDXDXDXDXDXDXDXDXDXDXDXDXDXDXDXDXDXDXDXDXDXDXDXDXDXDXDXDXDXDXDXDXDXDXDXDXDXDXDXDXDXDXDXDXDXDXDXDXDXDXDXDXDXDXDXDXDXDXDXDXDXDXDXDXDXDXDXDXDXDXDXDXDXDXDXDXDXDXDXDXDXDXDXDXDXDXDXDXDXDXDXDXDXDXDXDXDXDXDXDXDXDXDXDXDXDXDXDXDXDXDXDXDXDXDXDXDXDXDXDXDXDXDXDXDXDXDXDXDXDXDXDXDXDXDXDXDXDXDXDXDXDXDXDXDXDXDXDXDXDXDXDXDXDXDXDXDXDXDXDXDXDXDXDXDXDXDXDXDXDXDXDXDXDXDXDXDXDXDXDXDXDXDXDXDXDXDXDXDXDXDXDXDXDXDXDXDXDXDXDXDXDXDXDXDXDXDXDXDXDXDXDXDXDX",
"DXDXDXDXDXDXDXDXDXDXDXDXDXDXDXDXDXDXDXDXDXDXDXDXDXDXDXDXDXDXDXDXDXDXDXDXDXDXDXDXDXDXDXDXDXDXDXDXDXDXDXDXDXDXDXDXDXDXDXDXDXDXDXDXDXDXDXDXDXDXDXDXDXDXDXDXDXDXDXDXDXDXDXDXDXDXDXDXDXDXDXDXDXDXDXDXDXDXDXDXDXDXDXDXDXDXDXDXDXDXDXDXDXDXDXDXDXDXDXDXDXDXDXDXDXDXDXDXDXDXDXDXDXDXDXDXDXDXDXDXDXDXDXDXDXDXDXDXDXDXDXDXDXDXDXDXDXDXDXDXDXDXDXDXDXDXDXDXDXDXDXDXDXDXDXDXDXDXDXDXDXDXDXDXDXDXDXDXDXDXDXDXDXDXDXDXDXDXDXDXDXDXDXDXDXDXDXDXDXDXDXDXDXDXDXDXDXDXDXDXDXDXDXDXDXDXDXDXDXDXDXDXDXDXDXDXDXDXDXDXDXDXDXDXDXDXDXDXDXDXDXDXDXDXDXDX"
};
