/* XPM */
static const char *UnitedKingsom_128[] = {
/* columns rows colors chars-per-pixel */
"128 85 198 2 ",
"   c #0D2574",
".  c #162D7A",
"X  c #1B327C",
"o  c #21367F",
"O  c #D4001F",
"+  c #D50024",
"@  c #D7002C",
"#  c #D9002E",
"$  c #D70031",
"%  c #D80034",
"&  c #D80837",
"*  c #DD013B",
"=  c #DA0C3C",
"-  c #DA103E",
";  c #E40036",
":  c #E2003C",
">  c #DE0740",
",  c #DE0A43",
"<  c #DC1543",
"1  c #DC1947",
"2  c #DF174A",
"3  c #DD1E4B",
"4  c #E30143",
"5  c #EA0044",
"6  c #E30C47",
"7  c #E70048",
"8  c #EB004C",
"9  c #E30D4A",
"0  c #F4004C",
"q  c #E4134F",
"w  c #E11B4F",
"e  c #EF0052",
"r  c #EC0C53",
"t  c #F20055",
"y  c #F90054",
"u  c #FE005A",
"i  c #E81656",
"p  c #EA1B5B",
"a  c #DD234D",
"s  c #DE2B53",
"d  c #DF3259",
"f  c #E52658",
"g  c #F02458",
"h  c #E0385D",
"j  c #EE1E63",
"k  c #F81A64",
"l  c #ED2264",
"z  c #EC2A65",
"x  c #F0266B",
"c  c #F9236A",
"v  c #E63766",
"b  c #FE2971",
"n  c #F23874",
"m  c #E14265",
"M  c #E3496C",
"N  c #E84A73",
"B  c #F1457C",
"V  c #E65778",
"C  c #E7617F",
"Z  c #1E3583",
"A  c #1F3788",
"S  c #213780",
"D  c #273C83",
"F  c #293E87",
"G  c #243C8B",
"H  c #293F89",
"J  c #233E96",
"K  c #2C4186",
"L  c #2B428D",
"P  c #33468A",
"I  c #35498C",
"U  c #3B4E8E",
"Y  c #2C4393",
"T  c #2A4499",
"R  c #2D479A",
"E  c #344B97",
"W  c #364C94",
"Q  c #364D99",
"!  c #3A519B",
"~  c #2A48A7",
"^  c #314CA3",
"/  c #314DAA",
"(  c #3A52A0",
")  c #3450AC",
"_  c #3D56A9",
"`  c #2F4EB6",
"'  c #3653B2",
"]  c #3956B7",
"[  c #3855B8",
"{  c #3A58BE",
"}  c #465997",
"|  c #4F609A",
" . c #54649D",
".. c #475DA5",
"X. c #4159AB",
"o. c #445EB2",
"O. c #596AA5",
"+. c #4761B4",
"@. c #4863BB",
"#. c #4E68BE",
"$. c #536AB6",
"%. c #6473A6",
"&. c #6877AB",
"*. c #6A79AA",
"=. c #717FAD",
"-. c #6B7CB5",
";. c #3456C6",
":. c #3B5BC3",
">. c #3D5DC8",
",. c #385CD1",
"<. c #3F61CE",
"1. c #3E61D4",
"2. c #4A67C6",
"3. c #536EC6",
"4. c #506ECD",
"5. c #5671CA",
"6. c #5A75CE",
"7. c #4063D4",
"8. c #516FD1",
"9. c #5875D7",
"0. c #5F7BDA",
"q. c #637CCE",
"w. c #F75488",
"e. c #F7558A",
"r. c #E76582",
"t. c #E96887",
"y. c #EA738E",
"u. c #F06E94",
"i. c #F76A99",
"p. c #EB7894",
"a. c #F57DA5",
"s. c #7280AE",
"d. c #7886B6",
"f. c #7489CD",
"g. c #7D95E0",
"h. c #8590B9",
"j. c #8A95BC",
"k. c #EB839B",
"l. c #EC899F",
"z. c #EF86A0",
"x. c #ED8BA1",
"c. c #EE93A8",
"v. c #EF9AAC",
"b. c #F292AC",
"n. c #F198AD",
"m. c #F49DB5",
"M. c #F1A3B5",
"N. c #F4A4BA",
"B. c #F2AABA",
"V. c #F8A8BF",
"C. c #8796C8",
"Z. c #929DC4",
"A. c #8699D6",
"S. c #9BA5C8",
"D. c #8CA0DD",
"F. c #95A6D9",
"G. c #A2ABCA",
"H. c #AAB3CE",
"J. c #ABB6D6",
"K. c #B3BBD4",
"L. c #92A6E3",
"P. c #A9B8E5",
"I. c #F9ACC4",
"U. c #F4B6C4",
"Y. c #F6B9C9",
"T. c #FFBFD4",
"R. c #BBC2D9",
"E. c #BDC7E7",
"W. c #C2C8DC",
"Q. c #C4CADD",
"!. c #F6C2CE",
"~. c #F6C6D1",
"^. c #F9C8D5",
"/. c #F8D4DD",
"(. c #C6CDE3",
"). c #CCD1E3",
"_. c #CED6E9",
"`. c #D3D8E7",
"'. c #DBDEEB",
"]. c #CBD6F5",
"[. c #FCDAE6",
"{. c #F9DEE5",
"}. c #DDE0EB",
"|. c #DFE4F3",
" X c #E2E4EE",
".X c #FAE1E7",
"XX c #FAE4EA",
"oX c #FCE9EE",
"OX c #E5E8F3",
"+X c #E6E9F2",
"@X c #EAEDF4",
"#X c #FFE1F0",
"$X c #FDEEF3",
"%X c #EEF1F8",
"&X c #FDF3F5",
"*X c #F4F5F9",
"=X c #FEF6F9",
"-X c #FEFEFE",
/* pixels */
"= g T.=X-X=X-X-X-X-X-X-X*X-X-X-X-X*XZ.W J E E Q Q Q E Q Q Q Q Q Q Q Q Q Q Q Q Q Q Q Q Q Q Q Q Q Q Q ^ Q R d.-X-X-XXXa 4 6 , 2 , , , , , , 2 * m.-X=X-X}...Q Q Q Q Q Q Q Q Q Q Q Q Q Q Q Q Q Q Q Q Q Q Q Q Q Q Q W Q Q Q Q Y O.).-X-X-X-X=XN 6 , 2 > , , > : 6 n.",
"x b B T.-X-X-X-X-X-X-X-X-X-X-X-X-X-X-X].g.9.0.0.0.0.0.0.0.0.0.0.0.0.0.0.0.0.0.0.0.0.0.0.0.0.0.0.0.0.9.f.9.P.-X-X-X=Xw.c b b b b b b b b b b c ^.-X-X-X-Xf.9.0.0.0.0.0.0.9.f.0.0.0.0.0.0.0.0.0.0.0.0.0.0.0.0.0.0.0.0.0.9.0.L.%X-X-X-X-X[.i.b b b b b b b c w.^.-X",
"x b j j i.[.-X-X-X-X-X-X-X-X-X-X-X-X-X-X@XF.5.5.6.6.6.6.6.6.6.6.6.6.6.6.6.6.6.6.6.6.6.6.6.6.6.6.6.6.6.6.5.F.-X-X-X$XB j x x x x x x x x x x j Y.-X-X-X@Xq.5.9.6.6.6.6.6.9.6.6.6.6.6.6.6.6.6.6.6.6.6.6.6.6.6.6.6.6.6.4.q.E.-X-X-X-X-XN.n j x x x x x j x a.$X-X-X",
"l c l l i n N.-X-X-X-X-X-X-X-X-X-X-X-X-X-X-XE.6.2.3.3.3.3.3.3.3.3.3.3.3.3.3.3.3.3.3.3.3.3.3.3.3.3.3.3.3.3.D.-X-X-X#Xn j l l l l l l l l j j j I.-X-X-X@Xq.3.3.3.3.3.3.3.3.3.3.3.3.3.3.3.3.3.3.3.3.3.3.3.3.3.3.3.3.@.g.OX-X-X-X-X[.e.p j l l l j j p n Y.-X-X-X-X",
"q k p j p p i e./.-X-X-X-X-X-X-X-X-X-X-X-X-X-X Xf.@.@.2.2.#.#.#.#.#.#.#.#.#.#.#.#.#.#.#.#.#.#.#.#.#.#.2.@.A.-X-X-XoXn p p j p j j j j j j p i I.-X-X-X+X5.#.#.#.2.#.#.#.#.#.#.2.#.#.2.#.#.#.#.#.#.#.#.2.#.#.#.+.3.J.*X-X-X=X=Xm.z i j p p j p i p u..X-X-X-X-X-X",
"u.c q i i i i q l m.=X-X-X-X-X-X-X-X-X-X-X-X-X-X-XJ.$.] +.+.+.+.+.+.+.+.+.+.+.+.+.+.+.+.+.+.+.+.+.+.+.+.o.C.-X-X-XXXv q p i i i i i i i i i q B.-X-X-X+X$.+.+.+.+.+.+.+.+.+.+.+.+.+.+.+.+.+.+.+.+.+.+.+.+.+._ f.'.-X-X-X-X[.t.q i i p i p q r v I.-X-X-X-X-X-X-X",
"-X^.v 7 q q q q 9 9 r./.-X-X-X-X-X-X-X-X-X-X-X-X-X-X`.-./ _ X.X.X.X.X.X.X.X.X.X.X.X.X.X.X.X.X.X.X.X.X.X._ C.-X-X-XXXz q q q q q q q q q q q 9 I.-X-X-X+X+.X.X.X.X.X.X.X.X.X.X.X.X.X.X.X.X.X.X.X.X.X._ X.) _ S.%X-X-X-X-XM.f 7 q q q q q , 2 e.{.-X-X-X-X-X-X-X-X",
"-X-X$Xy.6 > 9 9 6 6 : w b.=X-X-X-X-X-X*X-X-X-X-X-X-X-X*XS.( Q ! ( ( ( ( ( ( ( ( ! ( ( ( ( ( ( ( ( ! ( ! ^ d.-X-X-XXXf > 6 2 2 9 2 , 2 9 2 , > m.-X-X-X X..( ! ! ( ! ( ( ( ! ( ( ( ! ( ( ! ( ( ( ( ! ( R O.(.-X-X-X-XXXt.4 6 2 9 , 9 6 > p v.*X-X-X-X-X-X-X-X-X-X",
"'.-X-X-XB.f * > , , , * * N ^.-X-X-X-X-X-X-X-X-X-X-X-X-X-XW.O.J E W Q W Q E Q W Q W Q W E E Q W W Q W Q Y d.-X-X-X.Xa > , > , , , 4 , , , , * m.-X-X-X X} E E E Q E W Q W Q W W W Q W Q Q W Q W Q Y Y d.+X-X-X-X-XB.f * > , > , 6 * * N ^.-X-X-X-X-X-X-X-X-X-X-X",
"W Z.*X-X-XXXt.& % * = = * % 1 l.=X-X-X-X-X-X-X-X-X-X-X-X-X-X%Xd.K G L Y Y L L L L L Y Y L E L L Y L Y L L =.-X-X-XXXw * > * = * * * = = = * % M.-X-X-X XQ L L Y Y P Y L Y L Y L Y L Y L L Y L L G } K.-X-X-X-X.Xr.% % & > & * & @ < c.*X-X-X-X-X-X-X-X-X*X-X-XR.",
"S S O.`.-X-X-XM.3 @ % * % & % @ m ~.-X-X-X-X-X-X-X-X-X-X-X-X-X-XK.} X D K K D L L K K D K K K K K K K K D *.-X-X-X.X3 % & % % % & * * % % % @ n.-X-X-X}.I D K L K D K K K K K H K K D K L K S S *.}.-X-X-X-XB.a @ % * * & % $ @ m ^.-X-X-X-X-X-X-X-X-X-X-X%Xd.H ",
"F H X P S.=X-X-X{.V @ @ % % % % @ = l.&X-X-X-X-X-X-X-X-X-X-X-X-X-X X=.o X K D D D D D D D D o K D D D D o *.-X-X-X{.1 % % % % % % % % % % % @ v.-X-X-X}.P D D D D D D D D D D D D D D D D X P G.-X-X-X-XoXt.@ @ % % % % $ @ = p.=X-X-X-X-X-X-X-X-X-X-X-XQ.} . H ",
"F G D S X &.'.-X-X-Xv.1 + % % % % @ @ m !.-X-X-X-X-X-X-X-X-X-X-X-X-X-XG.I X D D D D D D K o K D D D D D S *.-X-X-X.X1 % % % % % % % % % % % @ v.-X-X-X}.P D D D D K o K D D D D D D D S X  ._.-X-X-X-XU.s @ % % % % % @ @ d !.-X-X-X-X-X-X-X-X-X-X-X*Xj.D X D L ",
"F H D D D X I H.-X-X-X/.M @ @ % % % % @ - l.*X-X-X-X-X-X-X-X-X-X-X-X-X-X`.%.X o D D D D o K o K D D D D o *.-X-X-X{.1 @ % % % % % % % % % % @ v.-X-X-X}.P D D D D D K o D K D D D D X K Z.*X-X-X-X&Xy.& @ % % % % % @ & p.&X-X-X-X-X-X-X-X-X-X-X-X). .X D D D D ",
"D H F D D D o o *. X-X-X=Xx.- @ % % % % $ @ m !.-X-X-X-X-X-X-X-X-X-X-X-X-X-XS.P X K D D K o K o D D D D o *.-X-X-X{.1 % % % % % % % % % % % @ v.-X-X-X}.P D D D D D D D D D D D o X | (.-X-X-X-XY.d @ @ % % % % @ @ d Y.-X-X-X-X-X-X-X-X-X-X-X*XS.F X D D D D L ",
"D H D D D D D D X } K.-X-X-X^.m @ @ % % % $ + = l.=X-X-X-X-X=X-X-X-X-X-X-X-X-X). .X o D D K o K D D D D o *.-X-X-X.X1 % % % % % % % % % % $ @ n.-X-X-X'.P D D D D D D D D D D o D h.%X-X-X-X=Xp.& @ $ & % % % @ & t.$X-X-X-X-X-X-X-X-X-X-X-X'.%.X o D D D D D H ",
"o K K D D D D D D o o d.+X-X-X&Xk.= + % % % % @ @ m ~.-X-X-X-X-X-X-X-X-X-X-X-X-X*Xj.K o o K K o D D D D o *.-X-X-X{.1 $ % % % % % % % % % % @ v.-X-X-X}.P D D D D D D D D D X } R.-X-X-X-X~.m @ @ % % % % % + s B.-X-X-X-X-X-X-X*X-X-X-X-XH.I X o K D D D D D K ",
"K K D D D D D K D K o X } W.-X-X-X!.d @ @ % % % % @ = l.=X-X-X-X-X-X-X-X-X-X-X-X-X-XW.} o o o K D D D D o *.-X-X-X{.1 $ % % % % % % % % % % @ v.-X-X-X}.P D D D D D D D X S s.+X-X-X-X*Xx.= @ % % % % % @ $ r.XX-X-X-X=X-X-X-X-X-X-X-X X=.o o D D D D D D D D K ",
"o P D D D D D D D D K K o K j.%X-X-X&Xk.& @ % % % % @ @ m !.-X-X-X-X-X-X*X-X-X-X-X-X-X%Xh.o X D D D D D o *.-X-X-X.X1 $ % % % % % % % % % % @ v.-X-X-X}.P D D D D D D X U H.-X-X-X-X/.M @ @ % % % % % @ s B.-X-X-X-X-X-X-X-X-X-X-X-XK.U X o K D D D D D D D D L ",
"D K D D D D D D D D o K o o X | ).-X-X-XY.h @ @ % % % % + = k.=X-X-X-X-X-X-X-X-X-X-X-X-X-XR.} X D D D D o &.-X-X-X{.1 $ % % % % % % % % % % @ v.-X-X-X}.P D D D D o o *. X-X-X-X-Xc.- @ % % % % % @ @ C XX-X-X-X-X-X-X-X-X-X-X-X+Xs.D X D D D D D D D D D D D H ",
"D H D D D D D D D D D D o K D o K S.*X-X-X$Xy.& @ % % % % % @ m ~.-X-X-X-X-X-X-X-X-X-X-X-X-X Xs.o o D D o *.-X-X-X{.1 $ % % % % % % % % % % @ v.-X-X-X}.P D D D X P G.-X-X-X-X[.V @ @ % % % & $ + 3 M.-X-X-X-X-X-X-X-X-X-X-X-XQ.} X D D D D D D D D D D D D D K ",
"D L D D D D D D D D D D K D D D o X %.`.-X-X-XB.s + $ % % % % + = l.=X-X-X-X-X-X-X-X=X-X-X-X-X-XH.U X D X &.-X-X-X.X1 $ % % % % % % % % % % @ v.-X-X-X}.P D o o  ._.-X-X-X-Xv.1 + % % % % % @ @ V {.-X-X-X-X-X-X-X-X-X-X-X*Xh.X S D D D D D D D D D D D D D F L ",
"D L D D D D D D D D D D D D D D D o X I G.-X-X-XoXr.% @ % % % % @ @ m ~.-X-X-X-X-X-X-X-X-X-X-X-X-X}.*.X X &.-X-X-X.X1 $ % % % % % % % % % % @ v.-X-X-X}.P X K j.*X-X-X-XoXV $ @ % % % % % + < v.-X-X-X-X-X-X-X-X-X-X-X-X). .o o D D D D D D D D D D D D D D D H ",
"D L D D D D K D D D D D D D D D D D K o o *.}.-X-X-XB.s + % % % % % @ - k.*X-X-X-X-X-X-X-X-X-X-X-X-X-XG.K O.-X-X-X{.1 $ % % % % % % % % % % @ v.-X-X-X}.D | (.-X-X-X-XB.a + % & % % % @ @ V /.-X-X-X-X-X-X-X-X-X-X-X*XZ.K o o D D D D D D D D D D D D D D D F H ",
"D H D D D D D D o K o D D D D D D K o K o o U H.-X-X-XXXC % @ % % % % @ @ m ~.-X-X-X-X-X-X-X-X*X-X-X-X-X).G.-X-X-X.X1 $ % % % % % % % % % % @ v.-X-X-X}.Z.%X-X-X-XoXr.% @ % % % % $ @ < c.-X-X-X-X-X-X-X-X-X-X-X-X`. .o o o D D K o D D D D D D D D D D D D D L ",
"D H D D D D D D K o K D D D D D D o K o K o o o d.+X-X-X-XM.a + % % % % % + = k.&X-X-X-X-X-X-X-X-X-X-X-X-X-X-X-X-X{.1 $ % % % % % % % % % % @ v.-X-X-X-X-X-X-X-XU.s + % % $ % % @ @ V /.-X-X-X-X-X-X-X-X-X-X-X-XG.P o o D K D o D K D o D D D o D D D D D D D D ",
". Z . X . X X X . X X . X X . X X X X . X X X .   I H.*X-X-X.XV $ @ + + + @ + O s U.-X-X-X-X-X-X-X-X-X-X-X-X-X-X-X.X1 $ % % % % % % % % % % @ v.-X-X-X-X-X-X.Xr.+ O @ @ + @ @ + < c.*X-X-X-X=X-X-X-X-X*X-X-X). .  . X . X X X X X X X X X X X X X X . X . X X Z ",
"=.d.s.s.s.s.s.=.s.s.s.s.s.s.s.s.s.s.s.s.s.s.s.s.s.&.s.).-X-X-X-XB.p.k.k.k.k.k.k.y.c.oX-X-X-X-X-X-X-X-X-X-X-X=X-X-X{.1 $ % % % % % % % % % % @ v.-X-X-X-X-X-XB.y.p.k.k.k.k.k.k.k./.-X-X-X-X-X-X-X-X-X-X-X-X%Xh.&.=.s.s.s.s.s.s.s.s.s.s.s.s.s.s.s.=.=.s.s.s.=.=.d.",
"-X-X-X-X-X-X-X-X-X-X-X-X-X-X-X-X-X-X-X-X-X-X-X-X-X-X-X-X-X-X-X-X-X-X-X-X-X-X-X-X-X-X-X-X=X-X-X-X-X-X-X-X-X-X-X-X-X.X1 $ % % % % % % % % % % @ v.-X-X-X-X-X-X-X-X-X-X-X-X-X-X-X-X-X-X-X*X-X-X-X-X-X-X-X-X-X-X-X-X-X-X-X-X-X-X-X-X-X-X-X-X-X-X-X-X-X-X-X-X-X-X-X-X",
"-X-X-X-X-X-X-X-X-X-X-X-X-X-X-X-X-X-X-X-X-X-X-X-X-X-X-X-X-X-X-X-X-X-X-X-X-X-X-X-X-X-X-X-X-X-X-X-X-X*X-X-X-X-X-X-X-X{.1 $ % % % % % % % % % % @ v.-X-X-X-X-X-X-X-X-X-X-X-X-X-X-X-X-X-X-X-X-X-X-X-X-X-X-X-X-X-X-X-X-X-X-X-X-X-X-X-X-X-X-X-X-X-X-X-X-X-X-X-X-X-X-X-X",
"-X-X-X-X-X-X-X-X-X-X-X-X-X-X-X-X-X-X-X-X-X-X-X-X-X-X*X-X-X-X-X-X-X-X-X-X-X-X-X-X-X-X-X-X-X-X-X-X-X-X-X-X-X-X-X-X-X.X1 $ % % % % % % % % % % @ v.-X-X-X-X-X-X-X-X-X-X-X-X-X-X-X-X-X-X-X-X-X-X-X-X-X-X-X-X-X-X-X-X-X-X-X-X-X-X-X-X-X-X-X-X-X-X-X-X-X-X-X-X-X-X-X-X",
"-X-X-X-X-X-X-X-X-X-X-X-X-X-X-X-X-X-X-X-X-X-X-X-X-X-X-X-X-X-X-X-X-X-X-X-X-X-X-X-X*X-X-X-X-X-X-X-X-X-X-X-X=X-X-X-X-X{.1 % % % % % % % % % % % @ v.-X-X-X-X*X-X-X-X-X-X-X-X-X-X-X-X-X-X-X-X-X-X-X-X-X-X=X-X-X-X-X-X-X-X-X-X-X-X-X-X-X-X-X-X-X-X-X-X-X-X-X-X-X-X-X-X",
"-X-X-X-X-X-X-X-X-X-X-X-X-X-X-X-X-X-X-X-X-X-X-X-X-X-X-X-X-X-X-X-X-X-X-X-X-X-X-X-X-X-X-X-X-X-X-X-X-X-X-X-X-X-X-X-X-XoX1 $ % % % % % % % % % % @ M.-X-X-X-X-X-X-X-X-X-X-X-X-X-X-X-X-X-X-X-X-X-X-X-X-X-X-X-X-X-X-X-X-X-X-X-X-X-X-X-X-X-X-X-X-X-X-X-X-X-X-X-X-X-X-X-X",
"B.!.U.U.U.U.U.U.U.U.U.U.U.U.U.U.U.U.U.U.U.U.U.U.U.U.U.U.U.U.U.U.U.U.U.U.U.U.U.U.U.U.U.U.U.U.U.U.U.U.U.U.U.U.U.U.U.M.< $ % % % % % % % % % $ @ y.Y.U.U.U.U.U.U.U.U.U.U.U.U.U.U.U.U.U.U.U.U.U.U.U.U.B.U.U.U.U.U.U.U.U.U.U.U.U.U.U.U.U.U.U.U.U.U.U.U.U.U.U.U.U.Y.Y.",
"% ; % % % % % % % % % % % % % % % $ % % % $ % % % % % % % $ % % % % % % % % % % % % % % % % % % % % % % % $ % $ % % % % % % % % % % % % % % % % % $ % $ % $ % % % % % % % % $ % % % % $ % $ % % $ $ & % % % % % % $ % % % $ % $ % % % % % % % $ % % % % % % % ; ",
"@ ; @ % % % @ % @ % @ % @ % @ % $ $ % % $ $ $ $ @ % @ % $ $ $ $ @ % @ % $ $ $ % % @ % @ @ % @ % $ $ $ % $ $ $ $ $ $ % % % % % % % % % % % % % $ $ $ $ $ $ $ $ % @ % $ $ @ % $ $ $ $ $ $ $ $ $ % $ $ $ $ @ % @ % $ $ $ % $ $ $ $ $ $ $ $ $ $ $ $ % % @ $ @ % @ ; ",
"% ; % % % % % % % % % % % % % % % % % % % % % % % % % % % % % % % % % % % % % % % % % % % % % % % % % % % % % % % % % % % % % % % % % % % % % % % % % % % % % % % % % % % % % % % % % % % % % % % % % % % % % % % % % % % % % % % % % % % % % % % % % % % % % : ",
"% ; % % % % % % % % % % % % % % % % % % % % % % % % % % % % % % % % % % % % % % % % % % % % % % % % % % % % % % % % % % % % % % % % % % % % % % % % % % % % % % % % % % % % % % % % % % % % % % % % % % % % % % % % % % % % % % $ % % % % % % % % % % % % % % ; ",
"% ; % % % % % % % % % % % % % % % % % % % % % % % % % % % % % % % % % % % % % % % % % % % % % % % % % % % % % % % % % % % % % % % % % % % % % % % % % % % % % % % % % % % % % % % % % % % % % % % % % % % % % % % % % % % % % % % % % % % % % % % % % % % % % ; ",
"% ; % % % % % % % % % % % % % % % % % % % % % % % % % % % % % % % % % % % % % % % % % % % % % % % % % % % % % % % % % % % % % % % % % % % % % % % % % % % % % % % % % % % % % % % % % % % % % % % % % % % % % % % % % % % % % % % % % % % % % % % % % % % % % ; ",
"% : % % % % % % % % % % % % % % % % % % % % % % % % % % % % % % % % % % % % % % % % % % % % % % % % % % % % % % % % % % % % % % % % % % % % % % % % % % % % % % % % % % % % % % % % % % % % % % % % % % % % % % % % % % % % % % % % % % % % % % % % % % % % % ; ",
"% : % % % % % % % % % % % % % % % % % % % % % % % % % % % % % % % % % % % % % % % % % % % % % % % % % % % % % % % % % % % % % % % % % % % % % % % % % % % % % % % % % % % % % % % % % % % % % % % % % % % % % % % % % % % % % % % % % % % % % % % % % % % % % ; ",
"% ; % % % % % % % % % % % % % % % % % % % % % % % % % % % % % % % % % % % % % % % % % % % % % % % % % % % % % % % % % % % % % % % % % % % % % % % % % % % % % % % % % % % % % % % % % % % % % % % % % % % % % % % % % % % % % % % % % % % % % % % % % % % % % ; ",
"% ; % % % % % % % % % % % % % % % % % % % % % % % % % % % % % % % % % % % % % % % % % % % % % % % % % % % % % % % % % % % % % % % % % % % % % % % % % % % % % % % % % % % % % % % % % % % % % % % % % % % % % % % % % % % % % % % % % % % % % % % % % % % % % : ",
"% ; % % % % % % % % % % % % % % % % % % % % % % % % % % % % % % % % % % % % % % % % % % % % % % % % % % % % % % % % % % % % % % % % % % % % % % % % % % % % % % % % % % % % % % % % % % % % % % % % % % % % % % % % % % % % % % % % % % % % % % % % % % % % % ; ",
"@ ; % % % % % % % % % % % % % % % % % % % % % % % % % % % % % % % % % % % % % % % % % % % % % % % % % % % % % % % % % % % % % % % % % % % % % % % % % % % % % % % % % % % % % % % % % % % % % % % % % % % % % % % % % % % % % % % % % % % % % % % % % % % % % ; ",
"% ; % % % % % % % % % % % % % % % % % % % % % % % % % % % % % % % % % % % % % % % % % % % % % % % % % % % % % % % % % % % % % % % % % % % % % % % % % % % % % % % % % % % % % % % % % % % % % % % % % % % % % % % % % % % % % % % % % % % % % % % % % % % % % ; ",
"% : % % % % % % % % % % % % % % % % % % % % % % % % % % % % % % % % % % % % % % % % % % % % % % % % % % % % % % % % % % % % % % % % % % % % % % % % % % % % % % % % % % % % % % % % % % % % % % % % % % % % % % % % % % % % % % % % % % % % % % % % % % % % % ; ",
"% ; $ % % % % % % % % % % % % % % % % % % % % % % % % % % % % % % % % % % % % % % % % % % % % % % % % % % % % % % % % % % % % % % % % % % % % % $ % % % % % % % % % % % % % % % % % % % % % % % % % % % % % % % % % % % % % % % % % % % % % % % % % % % % % % : ",
"% ; $ $ % % % % % % % % % % % % % % % % % % % % % % % % % % % % % % % % % % % % % % % % % % % % % % % % % % % % % % % % % % % % % % % % % % % % % % % % % % % % % % % % % % % % % % % % % % % % % % % % % % % % % % % % % % % % % % % % % % % % % % % % % % % ; ",
"@ ; @ @ @ @ # # @ @ @ @ @ @ % @ @ @ @ @ @ @ % @ @ @ @ @ @ @ @ @ $ @ @ $ @ @ @ @ @ @ @ @ % @ @ @ @ @ @ @ @ @ % @ @ $ $ % % % % % % % % % % % $ $ @ $ @ @ @ @ @ $ @ @ @ @ @ @ $ @ @ @ @ @ @ @ @ @ @ % @ @ @ @ @ @ % @ @ @ @ @ @ @ @ % @ @ @ @ @ @ @ @ @ $ @ @ @ # ",
"3 w 3 3 a 3 3 3 3 3 3 3 3 3 3 3 3 3 3 3 a 3 3 3 3 3 3 3 3 3 3 3 3 3 3 3 3 3 3 3 3 3 3 3 3 3 3 3 a 3 3 3 3 3 3 3 3 1 & % % % % % % % % % % % % < 3 3 3 3 3 3 3 3 3 3 3 3 3 3 3 3 3 3 a 3 3 3 3 3 3 3 3 3 3 3 3 3 3 3 3 3 3 3 3 3 3 3 3 3 3 3 3 3 3 3 3 3 3 3 3 g ",
".XoXXXXXXXXXXXXXXXXXXXXXXXXXXXXXXXXXXXXXXXXXXXXX.XXXXXXXXXXXXX.XXXXXXX.XXXXXXXXXXXXXXXXXXXXXXXXXXXXXXXXXXXXXXXXXXX^.1 $ % % % % % % % % % % @ x.XXXXXX.X+XXXXXXX.XXXXXXXXXXXXX.XXXXXXXXXXXXXXXXXXXXXXXXXXXXXXXXXXXXXXXXXXXXXXXXXXXXXXXXXXXXXXXXXXXXXXXXXXXXXXXoX",
"-X-X-X-X-X-X-X-X-X-X-X-X-X-X-X-X-X-X-X-X-X-X-X-X-X-X-X-X-X-X-X-X-X-X-X-X-X-X-X-X-X-X-X-X-X-X-X-X-X-X-X-X-X-X-X-X-XXX1 $ % % % % % % % % % % @ M.-X-X-X-X-X-X-X-X-X-X-X-X-X-X-X-X-X-X-X-X-X-X-X-X-X-X-X-X-X-X-X-X-X-X-X-X-X-X-X-X-X-X-X-X-X-X-X-X-X-X-X-X-X-X-X-X",
"-X-X-X-X-X-X-X-X-X-X-X-X-X-X-X-X-X-X-X-X-X-X-X-X-X-X-X-X-X-X-X-X-X-X-X-X-X-X-X-X*X-X-X-X-X-X-X-X-X-X-X-X-X-X-X-X-X.X1 $ % % % % % % % % % % @ v.-X-X-X-X-X-X-X-X-X-X-X-X-X-X-X-X-X-X-X-X-X-X-X-X-X-X-X-X-X-X-X-X-X-X-X-X-X-X-X-X-X-X-X-X-X-X-X-X-X-X-X-X-X-X-X-X",
"-X-X-X-X-X-X-X-X-X-X-X-X-X-X-X-X-X-X-X-X-X-X-X-X-X-X-X-X-X-X-X-X-X-X-X-X-X-X-X-X-X-X-X-X-X-X-X-X-X-X-X-X-X-X-X-X-X{.1 $ % % % % % % % % % % @ n.-X-X-X-X-X-X-X-X-X-X-X-X-X-X-X-X-X-X-X-X-X-X-X-X-X-X-X-X-X-X-X-X-X-X-X-X-X-X-X-X-X-X-X-X-X-X-X-X-X-X-X-X-X-X-X-X",
"-X-X-X-X-X-X-X-X-X-X-X-X-X-X-X-X-X-X-X-X-X-X-X-X-X-X-X-X-X-X-X-X-X-X-X-X-X-X-X-X-X-X-X-X-X-X-X-X-X-X-X-X=X-X-X-X-X{.< @ % % $ % % % % % % % @ v.-X-X-X-X-X-X-X-X-X-X-X-X-X-X-X-X-X-X-X-X-X-X-X-X-X-X-X-X-X-X-X-X-X-X-X-X-X-X-X-X-X-X-X-X-X-X-X-X-X-X-X-X-X-X-X-X",
"W.).Q.Q.Q.Q.Q.Q.Q.Q.Q.Q.Q.Q.Q.Q.Q.W.Q.Q.Q.Q.Q.Q.Q.Q.W.R.%X-X-X-X-X-X-X-X-X-X-X-X.XB.M.B.B.B.B.B.M.v.^.-X-X-X-X-X-X.X1 % % % % % % % % % % % @ v.-X-X-X-X-X-X-X-X-X-X-X-X-X-X&XB.v.B.B.B.B.B.B.M.~.-X-X-X-X XR.W.Q.Q.Q.Q.Q.Q.Q.Q.Q.Q.Q.Q.Q.Q.Q.Q.Q.Q.Q.Q.Q.Q.Q.).",
"X F S S X o o D S X S S o o S o S S S S o o o o D . D j.*X-X-X*X-X-X-X-X-X-X-XU.s @ @ @ @ @ @ + + V /.-X-X-X-X-X-X.X1 % % % % % % % % % % % @ v.-X-X-X-X-X-X*X-X-X-X-X-X-X-X=XB.a + + @ @ @ @ @ & p.&X-X-X@Xd.o X o o o o o o X S S S S S S o o o X S S o o S G ",
"D G D D D D D D D D D D D D D D D D S D D D o o .  .).-X-X-X-X-X-X*X-X-X-X*Xy.& @ % % % % @ @ < v.-X-X-X-X-X-X-X-X.X1 @ % % % % % % % % % % @ v.-X-X-X-X-X-X-X-X-X*X-X-X-X-X-X-XXXr.% @ @ % % % % @ m ~.-X-X-XR.} X o D D D D D D D S D D D o D D D D D D D D G ",
"F G D D D D D D D D D D D D D D D D D D D D o P Z.=X-X-X-X-X-X-X-X-X-X-X~.h @ $ % % % % $ @ M /.-X-X-X-X-X@X-X-X-X.X1 $ % % % % % % % % % % @ v.-X-X-X*X*X-X-X-X-X-X-X-X-X*X-X-X-X-XB.s @ % % % % % @ = l.-X-X-X@Xd.o o D D D D D D D D D D D K D D D D D D D H ",
"D L D D D D D D D D D D D D D D D D D D o X } Q.-X-X-X-X-X-X-X-X-X-X-Xc.- @ % % % % & + & k.=X-X-X-X-X-XS.d.-X-X-X{.1 % % % % % % % % % % % @ v.-X-X-X}.*.`.-X-X-X-X-X-X-X-X-X-X-X-X-X.XC @ @ % % % % @ @ M /.-X-X-XK.U X D D D D D D D D D D D D D D D D D D H ",
"D H D D D D D D D D D D D D D D D D D X D h.@X-X-X-X-X-X-X-X-X-X-X/.V @ @ % % % % $ @ d Y.-X-X-X-X-X'.&.X %.-X-X-X{.1 @ % % % % % % % % % % @ v.-X-X-X'.D P S.-X-X-X-X-X-X-X-X-X-X-X-X-X-XM.a + % % % % % @ 3 v.-X-X-X X*.o o D D D D D D D D F D D D D D D D H ",
"D H D D D D D D D D D D D D D K D D X } R.-X-X-X-X-X-X-X-X-X-X-XM.3 + $ % % % % @ @ t.oX-X-X-X-X-XH.U X o *.-X-X-X.X1 % % % % % % % % % % % @ v.-X-X-X}.I o X %.}.-X-X-X-X-X-X-X-X-X-X-X-X-X{.V @ @ % % % % @ @ V .X-X-X-XG.I X D D D D D D D D D D D D D D D H ",
"D L D D D K D D D D D D D D D D X S d.+X-X-X-X-X-X-X-X-X-X-XoXr.% @ % % % $ $ @ a B.-X-X-X-X-X X=.o o D o *.-X-X-X{.1 $ % % % % % % % % % % @ v.-X-X-X}.P D D X U H.-X-X-X-X-X-X-X-X-X-X*X-X-X-Xv.< @ % % % % % + a B.-X-X-X`.%.X o D D D D D D D D D D D D D L ",
"D L D D D D D D D D D D D D D X } K.-X-X-X-X-X-X-X-X-X-X-XU.s + @ % % % % @ # V {.-X-X-X-X-XR.} X D D D o *.-X-X-X{.1 $ % % % % % % % % % % @ v.-X-X-X}.P D D D S X *.+X-X-X-X-X-X-X-X-X-X-X-X-X-X/.M @ @ % % % % @ @ r.$X-X-X-XS.P X D D D D D D D K D D D D D ",
"D L D D D D D D D D D D D o X *. X-X-X-X-X-X-X-X-X-X-X=Xk.& @ % % % % % @ - c.=X-X-X-X-X%Xh.D Z D D D D o &.-X-X-X.X1 $ % % % % % % % % % % @ v.-X-X-X}.P D D D D D X } R.-X-X-X-X-X-X-X-X-X-X-X-X-X=Xx.- @ % % % % % @ s Y.-X-X-X). .X D D D D D D D D D D D K ",
"D G D D D D D D D D D D X I H.-X-X-X-X-X-X-X-X-X-X-X^.m @ @ % % % % % + m !.-X-X-X-X-XQ.| X D D D D D D o *.-X-X-X{.1 $ % % % % % % % % % & @ v.-X-X-X}.P D D D D D D Z D d.@X-X-X-X-X=X-X-X-X-X-X-X-X-X^.m @ @ % % % % @ & y.=X-X-X*Xj.K X D D D D D D D D D L ",
"D L D D D D D D F D D X %._.-X-X-X-X-X-X-X-X-X-X-Xn.- @ % % % % % @ & p.&X-X-X-X-X*Xj.K Z D D D D D D D S *.-X-X-X{.1 % % % % % % % % * % % @ v.-X-X-X}.P S D D D D D D S X } W.-X-X-X-X-X-X-X-X-X-X-X-X-X=Xk.& @ % % % % % + v !.-X-X-XW.} X S D D D G D D D L ",
"D Y G K D H L D D S W G.*X-X-X-X-X-X=X-X-X-X-X{.V @ @ $ % % * % @ s U.-X-X-X-X-X_.%.X D H H H D D L D K G *.-X-X-X.X1 % * % % * % % % % * % # n.-X-X-X}.I F K G G H L D L K Z L j.*X-X-X-X-X-X-X-X-X-X-X-X-X-X~.m # % % % % % @ = k.=X-X-X%Xh.K S D H H H H G L ",
"L Y L L G H L S Z %._.-X-X-X-X-X-X-X-X-X-X-XB.a @ % * * ; * % % r.oX-X-X-X-X=XG.E Z L L H H L H H H L L G *.-X-X-X.X3 % * % * * * % * % % % % n.-X-X-X}.E K L K H H L H L H L D Z O.).-X-X-X-X-X-X*X-X-X-X-X-X-X=Xp.= @ * * % * % @ N /.-X-X-XR...Z H H L H L Y ",
"Y T L L Y Y G E Z.*X-X-X-X-X-X-X-X-X-X-X$Xy.* % * * % * $ @ w M.-X-X-X-X-X}.-.G G Y L Y H Y Y Y Y L Y Y H -.-X-X-X.X2 * % * * * * * * * * * $ n.-X-X-X}.W G Y Y H Y Y L Y L Y Y L A E S.*X-X-X-X-X-X-X-X-X-X-X-X-X-XY.v @ % * % * % # w n.-X-X-X+Xd.G G L Y Y Y ",
"Y R Y Y Y J O.(.-X-X-X-X-X-X-X-X-X-X-X!.v $ : : * 4 * * $ N /.-X-X-X-X-XK.! G Y Y Y Y T Y Y Y Y Y T Y Y Y -.-X-X-X.Xw * * * * * > * * * * : % n.-X-X-X X! Y Y Y Y R Y R Y R Y Y T Y Y G &.`.-X-X-X-X-X-X-X-X-X-X-X-X-X&Xp.= $ * * * * * ; V {.-X-X-XK...A Y R R ",
"R ^ R J Q C.*X-X-X-X-X-X-X-X-X-X-X=Xk.6 $ : : * * * % 9 l.-X-X-X-X-X@Xf.Y Y R T R R Q R R R R R R R R R T d.-X-X-X.Xw : * 4 : > 4 * 4 * : = ; m.-X-X-X X( R R R R R R R R E R T R R T T J ( J.-X-X-X-X-X-X-X-X*X-X-X-X-X-XU.v ; * 4 * : * $ f B.-X-X-X X-.J T ^ ",
"^ / J O.(.-X-X-X-X-X-X-X-X-X-X-X/.N % : > 4 4 > : : v !.-X-X-X-X-XE...J R ^ ^ ^ ^ ^ ^ ^ ^ ^ Q ^ ^ ^ ^ ^ T d.-X-X-XXXw : 4 > 4 * : 4 4 > 4 > : m.-X-X-X X_ ^ ^ ^ ^ R Q ^ R Q ^ ^ ^ Q ^ ^ ^ T T d. X-X-X-X-X-X-X-X-X-X-X-X-X-X&Xu.4 : 4 : 4 4 * : t.oX-X-X-XH._ ~ ",
"~ / f.%X-X-X-X-X-X-X-X-X-X-X-XM.w ; 7 4 4 4 4 : 4 u.$X-X-X-X-X*XZ./ ^ / / ^ / ^ ^ ^ ^ ^ ^ / / ^ ^ ^ ^ ^ ~ f.-X-X-XXXp : 4 4 4 4 4 4 4 4 4 4 ; N.-X-X-X XX.^ ^ ^ / ^ / ^ ^ ) ^ / ^ / ^ ^ / / ^ ~ +.R.-X-X-X-X-X-X-X-X-X-X-X-X-X-XY.f $ 4 4 4 4 : : z Y.-X-X-X'.q.",
"$.E.-X-X-X-X-X-X-X-X-X-X-X$Xt.: : 4 7 4 7 4 ; f U.-X-X-X-X-X_.3.~ / ) ) / ) ) ) ) ) ) ) ) ) ) ) ) ) ) ) ^ f.-X-X-XXXp 4 4 7 4 7 4 4 7 4 7 4 : M.-X-X-X XX./ ) ) ) ) ) ) ) ) ) ) ) ) ) ) ) ) ) ) / / C.%X-X-X-X-X-X-X-X-X-X-X-X-X-XoXu.4 : 7 4 7 7 : 4 a.&X=X-X=X",
"*X-X-X-X-X-X-X-X-X-X-X-XY.z : 7 8 7 7 8 4 4 e.XX-X-X-X-X-XF.o.~ ' ' ' ' ' ' ' ' ' ' ' ' ' ' ' ' ' ' ' ' ` f.-X-X-XXXp 7 7 7 7 7 7 7 7 7 7 7 4 M.-X-X-X+X+.' ' ' ' ' ' ' ' ' ' ' ' ' ' ' ' ' ' ' ' ) ` $.(.-X-X-X=X-X-X-X-X-X-X-X-X-X-XU.z ; 5 7 7 7 5 : N ^.-X-X",
"-X-X-X-X-X-X-X-X=X-X&Xa.8 5 7 8 8 7 8 : p m.-X-X-X-X-X'.f.~ ' [ [ [ [ [ [ ] ] ] [ [ ] ' [ [ [ [ ] [ ' ] ' f.-X-X-XXXp 8 7 8 7 8 7 7 8 7 8 7 5 M.-X-X-XOX@.' [ [ [ [ [ [ [ [ [ [ [ [ [ [ ] ] ] ] [ [ [ ` ] D.*X-X-X-X-X-X-X*X-X-X-X-X-X-XoXu.8 4 8 8 8 5 : r b.=X",
"-X-X-X*X-X-X-X-X-X^.N 5 8 8 8 8 8 8 5 B [.-X-X-X-X-XP.2.` ;.{ { { { { { { { { { { { :.{ { { { { { :.{ { { C.-X-X-XXXl 7 e 8 8 7 e 8 8 e 8 8 5 I.-X-X-XOX2.{ { { { { { { { { { { { { { { { { { { { { { { { ` q.`.-X-X-X-X-X-X-X-X-X-X-X-X-X-XI.l 5 5 8 8 8 8 5 e.",
"-X-X-X-X-X-X-X-Xm.r 5 8 e 8 e 8 8 r z.=X-X-X-X-X@Xg.[ ;.{ :.:.:.:.:.:.:.:.:.:.:.:.:.:.:.:.:.:.:.:.:.:.:.{ A.-X-X-XXXj 8 e 8 e 8 e 8 e 8 8 8 7 I.-X-X-XOX2.:.:.:.:.:.:.:.:.:.:.{ { :.:.:.:.:.{ :.:.:.:.:.:.:.;.2.P.-X-X-X-X-X-X-X-X-X-X=X-X-X-X{.e.8 8 8 8 e 8 0 ",
"-X-X-X-X-X-XXXe.8 e e e e e 8 8 n !.-X-X-X-X-XE.5.;.;.>.<.:.2.:.>.>.>.>.>.>.>.>.>.>.:.>.>.>.>.>.>.>.>.>.;.A.-X-X-XoXj 8 e e e e e e e e e e 8 I.-X-X-X@X2.>.>.<.>.>.>.>.>.>.>.<.>.<.<.:.:.<.>.:.>.>.>.>.>.>.;.>.;.f.|.-X-X-X-X-X-X-X-X-X-X-X-X-X-XN.j 5 t 8 t y ",
"-X-X-X-X-XI.x 8 t e e e e t e i.&X-X-X-X-X*XD.>.;.<.<.<.<.:.<.<.<.<.>.7.<.<.<.<.<.<.>.<.<.<.7.<.<.<.<.<.,.A.-X-X-XXXx t e t e e e e e t e e 8 V.-X-X-X@X8.>.<.<.<.<.<.<.<.<.<.<.1.<.<.<.<.<.<.<.<.<.<.<.<.<.<.<.;.;.4.P.-X-X-X-X-X-X-X-X-X-X-X-X-X-X[.e.8 8 t y ",
"-X-X-X$Xi.t 0 t t t t t 0 x I.-X-X-X-X-X].0.,.1.7.7.1.1.7.7.7.7.<.7.7.7.7.7.7.7.7.7.7.7.7.7.7.7.7.7.1.1.<.D.-X-X-XoXc t t t t t e t t t t t 0 I.-X-X-X%X9.1.1.1.<.7.1.7.7.7.7.7.7.1.1.1.7.7.7.7.7.1.7.7.1.<.7.7.7.1.,.,.g.%X-X-X-X-X-X-X-X-X-X-X-X-X-X-Xm.k 0 u ",
"=X-X^.b 0 y y y y y y y i.#X-X-X-X-X*XL.>.>.<.1.7.7.<.7.<.<.7.<.<.<.<.7.<.<.7.<.<.<.<.<.2.>.>.<.<.<.<.<.>.D.-X-X-X&Xc y y y y y y y y y y y 0 I.-X-X-X*X8.>.7.7.<.7.<.<.<.<.<.7.<.<.<.<.<.>.2.<.7.<.<.7.<.<.<.<.1.7.<.<.;.9.E.-X-X-X-X-X-X-X-X-X-X-X-X-X-X#Xw.u "
};
