/* XPM */

static const char *drive_harddisk__[] = {
/* columns rows colors chars-per-pixel */
"32 32 112 2 ",
"   c #575757",
".  c #5B5B5B",
"X  c #5E5E5E",
"o  c #5F5F5F",
"O  c #606060",
"+  c #616161",
"@  c #626262",
"#  c #636363",
"$  c #646464",
"%  c #656565",
"&  c #666666",
"*  c #676767",
"=  c #686868",
"-  c #696969",
";  c #6A6A6A",
":  c #6B6B6B",
">  c #6E6E6E",
",  c #707070",
"<  c #717171",
"1  c #727272",
"2  c #767676",
"3  c #787878",
"4  c #797979",
"5  c #7A7A7A",
"6  c #7B7B7B",
"7  c #7D7D7D",
"8  c #848484",
"9  c #868686",
"0  c #898989",
"q  c #8B8B8B",
"w  c #8D8D8D",
"e  c #8F8F8F",
"r  c #919191",
"t  c #969696",
"y  c #979797",
"u  c #989898",
"i  c #999999",
"p  c #9A9A9A",
"a  c #9C9C9C",
"s  c #9D9D9D",
"d  c #9E9E9E",
"f  c #9F9F9F",
"g  c #A0A0A0",
"h  c #A1A1A1",
"j  c #A2A2A2",
"k  c #A3A3A3",
"l  c #A4A4A4",
"z  c #A5A5A5",
"x  c #A6A6A6",
"c  c #A7A7A7",
"v  c #A8A8A8",
"b  c #A9A9A9",
"n  c #AAAAAA",
"m  c #ABABAB",
"M  c #ACACAC",
"N  c #ADADAD",
"B  c #AEAEAE",
"V  c #AFAFAF",
"C  c #B0B0B0",
"Z  c #B1B1B1",
"A  c #B2B2B2",
"S  c #B3B3B3",
"D  c #B4B4B4",
"F  c #B5B5B5",
"G  c #B6B6B6",
"H  c #B7B7B7",
"J  c #B8B8B8",
"K  c #B9B9B9",
"L  c #BABABA",
"P  c #BBBBBB",
"I  c #BCBCBC",
"U  c #BDBDBD",
"Y  c #BEBEBE",
"T  c #BFBFBF",
"R  c #C0C0C0",
"E  c #C1C1C1",
"W  c #C2C2C2",
"Q  c #C3C3C3",
"!  c #C4C4C4",
"~  c #C5C5C5",
"^  c #C6C6C6",
"/  c #C7C7C7",
"(  c #C8C8C8",
")  c #C9C9C9",
"_  c #CACACA",
"`  c #CBCBCB",
"'  c #CDCDCD",
"]  c #CFCFCF",
"[  c #D0D0D0",
"{  c #D3D3D3",
"}  c #D6D6D6",
"|  c #D7D7D7",
" . c #D8D8D8",
".. c #D9D9D9",
"X. c #DADADA",
"o. c #DBDBDB",
"O. c #DCDCDC",
"+. c #DDDDDD",
"@. c #DEDEDE",
"#. c #DFDFDF",
"$. c #E0E0E0",
"%. c #E1E1E1",
"&. c #E2E2E2",
"*. c #E3E3E3",
"=. c #E4E4E4",
"-. c #E5E5E5",
";. c #E6E6E6",
":. c #E7E7E7",
">. c #E8E8E8",
",. c #E9E9E9",
"<. c #EAEAEA",
"1. c None",
/* pixels */
"1.1.1.1.1.1.1.1.1.1.1.1.1.1.1.1.1.1.1.1.1.1.1.1.1.1.1.1.1.1.1.1.",
"1.1.1.1.1.1.1.1.1.1.1.1.1.1.1.1.1.1.1.1.1.1.1.1.1.1.1.1.1.1.1.1.",
"1.1.1.1.1.1.1.1.1.1.1.1.1.1.1.1.1.1.1.1.1.1.1.1.1.1.1.1.1.1.1.1.",
"1.1.1.1.1.1.1.1.1.1.1.1.1.1.1.1.1.1.1.1.1.1.1.1.1.1.1.1.1.1.1.1.",
"1.1.1.1.1.1.1.1.1.1.1.1.1.1.1.1.1.1.1.1.1.1.1.1.1.1.1.1.1.1.1.1.",
"1.1.1.1.1.1.8 K ! R ! ! ! ! R R R R U U U U U U D 0 1.1.1.1.1.1.",
"1.1.1.1.1.1.D ,.;.;.;.;.;.;.*.*.;.*.*.*.*.*.O.O.*.U 1.1.1.1.1.1.",
"1.1.1.1.1.7 { ;.*.*.;.*.*.*.*.*.O.*.O.O.O.X.X.X.X.{ 0 1.1.1.1.1.",
"1.1.1.1.1.g *.*.*.*.;.;.*.*.*.O.*.O.*.*.*.O.O.X.O.O.m 1.1.1.1.1.",
"1.1.1.1.1.R ;.*.;.;.;.;.*.*.*.*.*.*.*.*.*.*.O.O.X.X.! 4 1.1.1.1.",
"1.1.1.1.w | *.;.;.*.*.*.*.*.*.*.*.;.*.*.O.O.O.O.O.X.| y 1.1.1.1.",
"1.1.1.1.m *.*.*.*.*.*.*.*.*.;.;.*.*.*.O.*.O.O.O.O.X.O.D 1.1.1.1.",
"1.1.1.4 _ *.*.*.*.O.*.*.*.;.*.*.*.*.*.O.*.O.O.O.O.O.X.] 8 1.1.1.",
"1.1.1.i X.*.;.O.*.*.*.*.*.*.*.*.O.O.O.O.O.O.O.O.O.O.X.| g 1.1.1.",
"1.1.1.D *.O.;.;.*.*.;.*.*.*.O.O.O.*.O.O.O.O.O.O.*.*.X.| U 2 1.1.",
"1.1.8 { O.X.O.,.;.;.*.*.O.*.O.*.O.O.O.*.O.O.*.*.*.X.| | ] r 1.1.",
"1.1.x O.*.O.X.X.*.,.,.;.;.*.O.*.*.*.*.*.;.;.;.*.X.| X.O.X.M 1.1.",
"1.1.U O.*.*.X.X.X.O.*.;.,.,.,.,.,.,.,.;.;.*.O.X.| | X.*.X.! 4 1.",
"1.1._ ;.*.*.*.*.*.*.*.*.*.*.;.;.;.;.*.*.O.O.O.X.X.X.X.O.O._ 4 1.",
"1.1.U ] _ _ _ _ _ ! ! _ ! R ! ! R U U U U U U U K K K D K M 1 1.",
"1.1.K R K M M M M C C M C C M M M m m m m m m x x x x g g f 1 1.",
"1.1.K R D f r i f g m M M C C M m m m M D M C M M M M m g f 1 1.",
"1.1.D R K f r y i g x m M M C M m m x M D C C M M M M m f f > 1.",
"1.> K R K C M m m x x m M M M M m m x m D C M M M M M m f f > 1.",
"1.O D ! U R ! ! R U K D D C M M M m m m C M m m M m m m g f * 1.",
"1.1.i K K K K D D D C C C M m m x x x x x g f f f f i i i 0 . 1.",
"1.1.. - - - - * * * * * * * O * * O O * O O O O X X X X O   1.1.",
"1.1.1.1.1.1.1.1.1.1.1.1.1.1.1.1.1.1.1.1.1.1.1.1.1.1.1.1.1.1.1.1.",
"1.1.1.1.1.1.1.1.1.1.1.1.1.1.1.1.1.1.1.1.1.1.1.1.1.1.1.1.1.1.1.1.",
"1.1.1.1.1.1.1.1.1.1.1.1.1.1.1.1.1.1.1.1.1.1.1.1.1.1.1.1.1.1.1.1.",
"1.1.1.1.1.1.1.1.1.1.1.1.1.1.1.1.1.1.1.1.1.1.1.1.1.1.1.1.1.1.1.1.",
"1.1.1.1.1.1.1.1.1.1.1.1.1.1.1.1.1.1.1.1.1.1.1.1.1.1.1.1.1.1.1.1."
};
