/* XPM */
static const char *drive_removable_media__[] = {
/* columns rows colors chars-per-pixel */
"32 32 142 2 ",
"   c #505050",
".  c #515151",
"X  c #525252",
"o  c #535353",
"O  c #545454",
"+  c #555555",
"@  c #565656",
"#  c #575757",
"$  c #585858",
"%  c #595959",
"&  c #5B5B5B",
"*  c #5C5C5C",
"=  c #5D5D5D",
"-  c #5E5E5E",
";  c #5F5F5F",
":  c #606060",
">  c #616161",
",  c #636363",
"<  c #686868",
"1  c #707070",
"2  c #757575",
"3  c #797979",
"4  c #7A7A7A",
"5  c #7B7B7B",
"6  c #7C7C7C",
"7  c #7D7D7D",
"8  c #7E7E7E",
"9  c #7F7F7F",
"0  c #808080",
"q  c #818181",
"w  c #828282",
"e  c #838383",
"r  c #848484",
"t  c #858585",
"y  c #868686",
"u  c #878787",
"i  c #888888",
"p  c #898989",
"a  c #8A8A8A",
"s  c #8B8B8B",
"d  c #8C8C8C",
"f  c #8D8D8D",
"g  c #8E8E8E",
"h  c #8F8F8F",
"j  c #909090",
"k  c #919191",
"l  c #929292",
"z  c #939393",
"x  c #949494",
"c  c #959595",
"v  c #969696",
"b  c #979797",
"n  c #989898",
"m  c #999999",
"M  c #9A9A9A",
"N  c #9B9B9B",
"B  c #9C9C9C",
"V  c #9D9D9D",
"C  c #9E9E9E",
"Z  c #9F9F9F",
"A  c #A0A0A0",
"S  c #A1A1A1",
"D  c #A2A2A2",
"F  c #A3A3A3",
"G  c #A4A4A4",
"H  c #A5A5A5",
"J  c #A6A6A6",
"K  c #A7A7A7",
"L  c #A8A8A8",
"P  c #A9A9A9",
"I  c #AAAAAA",
"U  c #ABABAB",
"Y  c #ACACAC",
"T  c #ADADAD",
"R  c #AEAEAE",
"E  c #AFAFAF",
"W  c #B0B0B0",
"Q  c #B1B1B1",
"!  c #B2B2B2",
"~  c #B3B3B3",
"^  c #B4B4B4",
"/  c #B5B5B5",
"(  c #B6B6B6",
")  c #B7B7B7",
"_  c #B8B8B8",
"`  c #B9B9B9",
"'  c #BABABA",
"]  c #BBBBBB",
"[  c #BCBCBC",
"{  c #BDBDBD",
"}  c #BFBFBF",
"|  c #C0C0C0",
" . c #C2C2C2",
".. c #C4C4C4",
"X. c #C5C5C5",
"o. c #C6C6C6",
"O. c #C7C7C7",
"+. c #C8C8C8",
"@. c #C9C9C9",
"#. c #CACACA",
"$. c #CBCBCB",
"%. c #CCCCCC",
"&. c #CDCDCD",
"*. c #CECECE",
"=. c #CFCFCF",
"-. c #D0D0D0",
";. c #D1D1D1",
":. c #D3D3D3",
">. c #D4D4D4",
",. c #D5D5D5",
"<. c #D6D6D6",
"1. c #D7D7D7",
"2. c #D8D8D8",
"3. c #D9D9D9",
"4. c #DADADA",
"5. c #DBDBDB",
"6. c #DCDCDC",
"7. c #DEDEDE",
"8. c #DFDFDF",
"9. c #E0E0E0",
"0. c #E1E1E1",
"q. c #E4E4E4",
"w. c #E7E7E7",
"e. c #E8E8E8",
"r. c #E9E9E9",
"t. c #EAEAEA",
"y. c #EBEBEB",
"u. c #ECECEC",
"i. c #EDEDED",
"p. c #EEEEEE",
"a. c #EFEFEF",
"s. c #F0F0F0",
"d. c #F1F1F1",
"f. c #F2F2F2",
"g. c #F3F3F3",
"h. c #F5F5F5",
"j. c #F6F6F6",
"k. c #F7F7F7",
"l. c #F8F8F8",
"z. c #FAFAFA",
"x. c #FBFBFB",
"c. c None",
/* pixels */
"c.c.c.c.c.c.c.c.c.c.c.c.c.c.c.c.c.c.c.c.c.c.c.c.c.c.c.c.c.c.c.c.",
"c.c.c.c.c.c.c.c.c.c.c.c.c.c.c.c.c.c.c.c.c.c.c.c.c.c.c.c.c.c.c.c.",
"c.c.c.c.c.c.c.c.c.c.c.c.c.c.c.c.c.c.c.c.c.c.c.c.c.c.c.c.c.c.c.c.",
"c.c.c.c.c.c.c.c.c.c.c.c.c.c.c.c.c.c.c.c.c.c.c.c.c.c.c.c.c.c.c.c.",
"c.c.c.c.c.c.o o O o o o o O o o o o o o o o o o o o c.c.c.c.c.c.",
"c.c.c.c.c.O R j.z.z.z.j.j.d.d.d.p.p.r.w.w.0.7.5.5.h c.c.c.c.c.c.",
"c.c.c.c.c.o p.{ H H H H S S Z m m x x k h s s u S ..o c.c.c.c.c.",
"c.c.c.c.c.k p.H H H H S S Z Z m x x x k s s u u u @.1 c.c.c.c.c.",
"c.c.c.c.o >.%.H H H H S Z m m m x k h h s s s q q P R o c.c.c.c.",
"c.c.c.c.* d.R H H H S S Z Z m x x h h s s s q u q s | O c.c.c.c.",
"c.c.c.c.! 7.H H H S S Z Z x m x k k h s u u q q 8 8 ! s c.c.c.c.",
"c.c.c.o 0.| H H H S Z Z m m x x k h s s u q q 8 8 4 x ! O c.c.c.",
"c.c.c.2 p.H H H S S Z m m x x k k s s u q u 8 8 4 4 8 ) , c.c.c.",
"c.c.O ..-.H H S S Z m Z m x k k h s u u u q 8 8 4 4 4 Z m c.c.c.",
"c.c.O w.! H H S Z Z m x m k k h h s u q q q 8 4 4 4 4 u ! O c.c.",
"c.c.x %.< < < < < < < < < < < < < < < < < < < < < < < < m 4 c.c.",
"c.o @...R R R R P R R H H H H H S S H S Z m Z Z m m m m H S O c.",
"c.o d.7.>.>.5.5.5.5.5.5.5.5.5.5.5.5.>.5.>.5.>.>.>.-.>.-.>.0.o c.",
"c.o j.d.j.d.d.d.d.j.j.d.d.j.j.d.j.d.d.j.d.d.d.d.d.d.d.d.d.w.o c.",
"c.o p.] ] ] ) ] ) ) ! ! ! R R R R P P P P H H H H S S S S ) o c.",
"c.o r.] ] h , * * * , * * * * * % % % % % O % O O O P Z S ! o c.",
"c.o r.] ] H s s s s u u s u u q u q q q 8 q 8 8 8 4 ) Z S ! o c.",
"c.o r.] ] { 5.7.5.5.5.5.5.>.5.>.>.5.>.-.-.-.%.%.%.%.] Z S R o c.",
"c.o w.] ) ) ) ! ) ! ! R R R R P P P H P H H H S S S h S Z R o c.",
"c.o w.] ) ) ) ) ) ! R ! R R R R R P P H H H S S S S k @.S P o c.",
"c.o | 0.7.7.5.5.5.>.>.>.-.%.%.@.@.....| { { ] ] ) ) ! ! R k o c.",
"c.c.o o o o o o o o o o O o o o o o o o O o o o o o o o o o c.c.",
"c.c.c.c.c.c.c.c.c.c.c.c.c.c.c.c.c.c.c.c.c.c.c.c.c.c.c.c.c.c.c.c.",
"c.c.c.c.c.c.c.c.c.c.c.c.c.c.c.c.c.c.c.c.c.c.c.c.c.c.c.c.c.c.c.c.",
"c.c.c.c.c.c.c.c.c.c.c.c.c.c.c.c.c.c.c.c.c.c.c.c.c.c.c.c.c.c.c.c.",
"c.c.c.c.c.c.c.c.c.c.c.c.c.c.c.c.c.c.c.c.c.c.c.c.c.c.c.c.c.c.c.c.",
"c.c.c.c.c.c.c.c.c.c.c.c.c.c.c.c.c.c.c.c.c.c.c.c.c.c.c.c.c.c.c.c."
};
