/* XPM */
static const char *drive_optical__[] = {
/* columns rows colors chars-per-pixel */
"32 32 134 2 ",
"   c #4A4A4A",
".  c #4D4D4D",
"X  c #505050",
"o  c #515151",
"O  c #525252",
"+  c #535353",
"@  c #545454",
"#  c #555555",
"$  c #565656",
"%  c #575757",
"&  c #585858",
"*  c #5C5C5C",
"=  c #5F5F5F",
"-  c #626262",
";  c #636363",
":  c #646464",
">  c #656565",
",  c #666666",
"<  c #696969",
"1  c #6B6B6B",
"2  c #6C6C6C",
"3  c #6E6E6E",
"4  c #747474",
"5  c #757575",
"6  c #7A7A7A",
"7  c #7D7D7D",
"8  c #808080",
"9  c #818181",
"0  c #828282",
"q  c #838383",
"w  c #858585",
"e  c #868686",
"r  c #898989",
"t  c #8A8A8A",
"y  c #8B8B8B",
"u  c #8D8D8D",
"i  c #909090",
"p  c #919191",
"a  c #929292",
"s  c #949494",
"d  c #999999",
"f  c #9C9C9C",
"g  c #9F9F9F",
"h  c #A0A0A0",
"j  c #A2A2A2",
"k  c #A3A3A3",
"l  c #A4A4A4",
"z  c #A5A5A5",
"x  c #A6A6A6",
"c  c #A7A7A7",
"v  c #A8A8A8",
"b  c #A9A9A9",
"n  c #AAAAAA",
"m  c #ABABAB",
"M  c #ACACAC",
"N  c #ADADAD",
"B  c #AEAEAE",
"V  c #AFAFAF",
"C  c #B0B0B0",
"Z  c #B1B1B1",
"A  c #B2B2B2",
"S  c #B3B3B3",
"D  c #B4B4B4",
"F  c #B5B5B5",
"G  c #B6B6B6",
"H  c #B7B7B7",
"J  c #B8B8B8",
"K  c #B9B9B9",
"L  c #BABABA",
"P  c #BCBCBC",
"I  c #BDBDBD",
"U  c #BEBEBE",
"Y  c #C0C0C0",
"T  c #C1C1C1",
"R  c #C2C2C2",
"E  c #C3C3C3",
"W  c #C4C4C4",
"Q  c #C5C5C5",
"!  c #C7C7C7",
"~  c #C8C8C8",
"^  c #CACACA",
"/  c #CBCBCB",
"(  c #CCCCCC",
")  c #CDCDCD",
"_  c #CECECE",
"`  c #CFCFCF",
"'  c #D0D0D0",
"]  c #D1D1D1",
"[  c #D2D2D2",
"{  c #D3D3D3",
"}  c #D4D4D4",
"|  c #D5D5D5",
" . c #D6D6D6",
".. c #D7D7D7",
"X. c #D8D8D8",
"o. c #D9D9D9",
"O. c #DADADA",
"+. c #DBDBDB",
"@. c #DCDCDC",
"#. c #DDDDDD",
"$. c #DEDEDE",
"%. c #DFDFDF",
"&. c #E0E0E0",
"*. c #E1E1E1",
"=. c #E2E2E2",
"-. c #E3E3E3",
";. c #E4E4E4",
":. c #E5E5E5",
">. c #E6E6E6",
",. c #E7E7E7",
"<. c #E8E8E8",
"1. c #E9E9E9",
"2. c #EAEAEA",
"3. c #EBEBEB",
"4. c #ECECEC",
"5. c #EDEDED",
"6. c #EEEEEE",
"7. c #EFEFEF",
"8. c #F0F0F0",
"9. c #F1F1F1",
"0. c #F2F2F2",
"q. c #F3F3F3",
"w. c #F4F4F4",
"e. c #F5F5F5",
"r. c #F6F6F6",
"t. c #F7F7F7",
"y. c #F8F8F8",
"u. c #F9F9F9",
"i. c #FAFAFA",
"p. c #FBFBFB",
"a. c #FCFCFC",
"s. c #FDFDFD",
"d. c #FEFEFE",
"f. c None",
/* pixels */
"f.f.f.f.f.f.f.f.f.f.f.f.f.f.f.f.f.f.f.f.f.f.f.f.f.f.f.f.f.f.f.f.",
"f.f.f.f.f.f.f.f.f.f.f.f.f.f.f.f.f.f.f.f.f.f.f.f.f.f.f.f.f.f.f.f.",
"f.f.f.f.f.f.f.f.f.f.f.f.f.f.f.f.f.f.f.f.f.f.f.f.f.f.f.f.f.f.f.f.",
"f.f.f.f.f.f.@ + + + @ @ + + + + + + + + + + + + + + f.f.f.f.f.f.",
"f.f.f.f.f.@ J a.a.a.a.a.a.u.u.u.u.u.e.u.e.e.q.q.q.u f.f.f.f.f.f.",
"f.f.f.f.f.+ q.2.*.*.;.;.*.*.*.*.#.#.#.+.+.+.+. .#.#.@ f.f.f.f.f.",
"f.f.f.f.f.y u.*.;.*.;.;.;.*.*.#.#.*.#.#.+.+.+.+.+.5.4 f.f.f.f.f.",
"f.f.f.f.+  .5.*.*.*.*.*.*.*.*.#.#.#.#.#.+.+. . . .*.J + f.f.f.f.",
"f.f.f.f.* u.*.*.*.*.*.;.*.*.*.*.#.#.#.#.+. .+. .+.+.;.& f.f.f.f.",
"f.f.f.f.m e.*.#.*.#.*.*.#.*.*.#.#.#.+.+.+.+.+.+. . .;.a f.f.f.f.",
"f.f.f.+ ;.;.#.*.#.*.*.*.#.*.*.#.#.#.#.+.+.+. . . . .+.( @ f.f.f.",
"f.f.f.4 u.#.#.#.#.#.*.#.*.#.#.#.#.#.+.+.+. .+.+. . . .;.< f.f.f.",
"f.f.@ W 5.+.#.#.#.*.#.#.#.*.#.#.#.+.+.+.+. .+. . . . .#.m + f.f.",
"f.f.@ 5.*.+.+.+.#.#.#.#.#.#.#.+.#.+.+.+.+. . . . . . . . .@ f.f.",
"f.f.a q.+. .+.+.#.+.#.+.#.+.#.+.+.+.+. .+. . . . . .{  .*.9 f.f.",
"f.+  .;.+.+.+.+.+.+.+.+.+.+.+.+.+.+. .+.+. . . . . .{  . .T @ f.",
"f.@ q.#. . .+.+. .+.+.+.+.+.+.+. . .+. . . . . . .{ { { { ;.+ f.",
"f.@ e.e.q.q.q.q.q.q.q.q.q.5.q.q.q.q.q.q.q.q.q.5.q.5.q.5.5.2.+ f.",
"f.+ 5.J J J D J D D C D B C C B m m m x x x x x j j j j j J + f.",
"f.+ 5.J : : - - - - - - - - : : : - - - - - - - - - - : g J + f.",
"f.+ 2.J : 2 W U T T D C B f < < 2 < x C C U T T T T 2 - g J @ f.",
"f.+ 2.J y 6 #.+.+.+.{ W T { B j j C ( W W { +.+. .{ 6 7 g C + f.",
"f.@ ;.U J a +.5.2.5.q.;.;.2.*.#.+.+.( ( +.;.2.;.2.U u j j C + f.",
"f.@ *.T U C a 5.5.5.5.5.2.*.( W W ~ ( +.#.#.#.*.+.y g j j B + f.",
"f.+ B  .{ { B g ;.5.2.2.;.*.+.{  . .+. . .+.#.{ y f x x x y + f.",
"f.f.+ + + + . - y ~ 5.2.2.#. .+.+. .+.+.#.+.C 9 @   . + + . f.f.",
"f.f.f.f.f.f.f.f.f.4 w C ( +.#.*.#.#.{ T j 9 2 f.f.f.f.f.f.f.f.f.",
"f.f.f.f.f.f.f.f.f.f.f.- 6 9 9 9 9 9 9 4 @ f.f.f.f.f.f.f.f.f.f.f.",
"f.f.f.f.f.f.f.f.f.f.f.f.f.f.f.f.f.f.f.f.f.f.f.f.f.f.f.f.f.f.f.f.",
"f.f.f.f.f.f.f.f.f.f.f.f.f.f.f.f.f.f.f.f.f.f.f.f.f.f.f.f.f.f.f.f.",
"f.f.f.f.f.f.f.f.f.f.f.f.f.f.f.f.f.f.f.f.f.f.f.f.f.f.f.f.f.f.f.f.",
"f.f.f.f.f.f.f.f.f.f.f.f.f.f.f.f.f.f.f.f.f.f.f.f.f.f.f.f.f.f.f.f."
};
