/* XPM */
static const char *media_flash__[] = {
/* columns rows colors chars-per-pixel */
"32 32 133 2 ",
"   c #1E2324",
".  c #202525",
"X  c #2E3436",
"o  c #303637",
"O  c #363A34",
"+  c #313739",
"@  c #333939",
"#  c #3A3E3E",
"$  c #3E403C",
"%  c #46452E",
"&  c #40433F",
"*  c #3F4341",
"=  c #454743",
"-  c #474845",
";  c #484A46",
":  c #4A4C4A",
">  c #4D5151",
",  c #535552",
"<  c #565856",
"1  c #585A57",
"2  c #5C5D5B",
"3  c #5F605D",
"4  c #60635F",
"5  c #646562",
"6  c #666865",
"7  c #696A67",
"8  c #6B6D6A",
"9  c #6F716F",
"0  c #727471",
"q  c #8F5902",
"w  c #915C05",
"e  c #99640E",
"r  c #9F870E",
"t  c #9A8211",
"y  c #A3890D",
"u  c #A48B10",
"i  c #C19F02",
"p  c #C4A105",
"a  c #C3A208",
"s  c #C6B416",
"d  c #CFBA12",
"f  c #CFBD22",
"g  c #CEBC2B",
"h  c #D1BF2F",
"j  c #CFBE31",
"k  c #D5C224",
"l  c #DDC925",
"z  c #D4C22D",
"x  c #DCC92B",
"c  c #D5C436",
"v  c #DDCA31",
"b  c #D4C43C",
"n  c #DAC938",
"m  c #E1CD23",
"M  c #E1CD29",
"N  c #E4D12D",
"B  c #EBD729",
"V  c #F0DB29",
"C  c #E1CF3E",
"Z  c #E6D336",
"A  c #E3D23C",
"S  c #E9D73A",
"D  c #EFDC3A",
"F  c #E3B266",
"G  c #E7B66B",
"H  c #D4C544",
"J  c #DDCD40",
"K  c #D4C64D",
"L  c #D7C849",
"P  c #DACB4A",
"I  c #D7C955",
"U  c #DBCC53",
"Y  c #DBC95F",
"T  c #DFD057",
"R  c #E3D244",
"E  c #E8D747",
"W  c #EAD946",
"Q  c #E4D44C",
"!  c #ECDB49",
"~  c #E0D153",
"^  c #ECDC54",
"/  c #E3D55C",
"(  c #E7D85C",
")  c #EADA58",
"_  c #F1E14F",
"`  c #F5E456",
"'  c #F1E25D",
"]  c #FEED5C",
"[  c #DECD66",
"{  c #DED06C",
"}  c #DED270",
"|  c #E7D360",
" . c #E2D56A",
".. c #E5D96C",
"X. c #EADA69",
"o. c #E1D675",
"O. c #E7DA76",
"+. c #E9DD72",
"@. c #E0D57A",
"#. c #E3D87D",
"$. c #E9DD79",
"%. c #EEE065",
"&. c #EEE06B",
"*. c #F3E467",
"=. c #FCED64",
"-. c #F3E46A",
";. c #F7E86A",
":. c #FEEE6A",
">. c #FFF06F",
",. c #EEE175",
"<. c #ECE07C",
"1. c #F5E774",
"2. c #F4E77C",
"3. c #F6E97C",
"4. c #FFF174",
"5. c #ABADA8",
"6. c #B1B3AF",
"7. c #EADF80",
"8. c #ECE183",
"9. c #F2E681",
"0. c #F6EB85",
"q. c #F8EC85",
"w. c #FEF28E",
"e. c #F1E790",
"r. c #F3E993",
"t. c #FBF093",
"y. c #FFF59C",
"u. c #D7D7D4",
"i. c #DDDDDA",
"p. c #E1E1DE",
"a. c #E5E5E2",
"s. c #EAEAE7",
"d. c None",
/* pixels */
"d.d.d.d.d.d.d.d.d.d.d.d.d.d.d.d.d.d.d.d.d.d.d.d.d.d.d.d.d.d.d.d.",
"d.d.d.d.+ o o o o o o o o o o o o o o o o + o o + d.d.d.d.d.d.d.",
"d.d.d.X 8 9 9 9 9 9 9 9 9 0 9 9 9 9 9 9 9 9 9 9 7 # + d.d.d.d.d.",
"d.d.d.X 0 , = @ o O O O O o o O O o O O O O o @ > 8 # d.d.d.d.d.",
"d.d.d.X 0 * % u p p p p p p p a p a a p p a p r % > 6 X d.d.d.d.",
"d.d.d.X 0 + t X.w.y.y.y.w.t.y.y.t.q.0.r.r.9.$.[ t @ 8 + d.d.d.d.",
"d.d.d.X 9 X p w.] >.4.>.] =.:.-.*.! E | / P c } p + 8 + d.d.d.d.",
"d.d.d.X 9 X p w.] >.=.=.] ` *.%.) A J U U H g { a + 7 + d.d.d.d.",
"d.d.d.X 8 o p w.=.] =.;.' W Z R ~ n c I K H h  .a + 7 + d.d.d.d.",
"d.d.d.X 8 X p w.w.q.1.&.&.8.8. .P z s g z k k X.p + 6 + d.d.d.d.",
"d.d.d.X 8 X p q._ ^ ) Q v z c b I { o. . ...+.X.a + 7 X d.d.d.d.",
"d.d.d.X 8 X p 9.W ( ( ~ c c K b f d k x l m Z %.p + 6 + d.d.d.d.",
"d.d.d.X 8 X i $.A T U P j j L P J x x E E S B -.p + 6 X d.d.d.d.",
"d.d.d.X 7 X i O.c L K H h c P Q R l Z ! ! D V 1.p + 5 + d.d.d.d.",
"d.d.d.X 7 o t Y { @.#.#. . .$.<.,.%.%.2.3.1.-./ t @ 5 X d.d.d.d.",
"d.d.d.X 7 # % y p a a a a a a a a a a a a a i y % * 5 X d.d.d.d.",
"d.d.d.X 6 ; $ o O O O O O O O O O O O O O O O O # ; 4 o d.d.d.d.",
"d.d.d.o 6 ; ; ; ; ; ; ; ; ; = ; ; ; ; ; ; ; ; ; ; ; 3 o d.d.d.d.",
"d.d.d.o 5 ; ; ; ; ; ; ; ; ; ; - ; ; ; ; ; ; - - - ; 3 o d.d.d.d.",
"d.d.d.o 5 ; ; - & ; - - ; ; - ; & ; ; & & - - - - ; 2 o d.d.d.d.",
"d.d.d.X 5 - - - ; ; & ; = - - = ; ; = & = ; - - = = 2 o d.d.d.d.",
"d.d.d.X 4 = - = ; & & ; = = = = ; & = & = & & & = = 2 X d.d.d.d.",
"d.d.d.X 4 # $ & & & & & & & & & & & & & & & & & # # 2 X d.d.d.d.",
"d.d.d.X 2 O q w w w w w q q q q w w w w w w w w w O 1 o d.d.d.d.",
"d.d.d.X 2 o w G G G G G G G e q F G q q q q q q q O < o d.d.d.d.",
"d.d.d.X 2 + i.s.s.s.s.s.s.s.s.s.s.s.s.s.s.s.s.s.s.@ < o d.d.d.d.",
"d.d.d.X 2 + i.a.a.a.a.a.a.a.a.a.a.a.a.a.a.a.a.a.a.@ , o d.d.d.d.",
"d.d.d.X 2 X u.p.p.p.p.p.p.p.p.p.p.p.p.p.p.p.p.i.p.@ , o d.d.d.d.",
"d.d.d.X > > 5.6.6.6.6.6.6.6.6.6.6.6.6.6.6.6.6.6.6.> : X d.d.d.d.",
"d.d.d.. X X X X X X X X X X X X X X X X X X X X X X X   d.d.d.d.",
"d.d.d.d.d.d.d.d.d.d.d.d.d.d.d.d.d.d.d.d.d.d.d.d.d.d.d.d.d.d.d.d.",
"d.d.d.d.d.d.d.d.d.d.d.d.d.d.d.d.d.d.d.d.d.d.d.d.d.d.d.d.d.d.d.d."
};
