/* XPM */
static const char * SidePicture1_xpm[] = {
"160 400 2476 2",
"  	c None",
". 	c #9A9494",
"+ 	c #9A9393",
"@ 	c #9B9292",
"# 	c #9C9191",
"$ 	c #9D9191",
"% 	c #9D9090",
"& 	c #9E9090",
"* 	c #AE8383",
"= 	c #C67171",
"- 	c #DA6161",
"; 	c #E55858",
"> 	c #EC5353",
", 	c #F14F4F",
"' 	c #F54C4C",
") 	c #F84A4A",
"! 	c #F84849",
"~ 	c #F84848",
"{ 	c #F64949",
"] 	c #F24A4A",
"^ 	c #EE4D4D",
"/ 	c #E85050",
"( 	c #E15454",
"_ 	c #D85C5C",
": 	c #C56C6C",
"< 	c #B07F7F",
"[ 	c #A58A8A",
"} 	c #BD7878",
"| 	c #E45959",
"1 	c #FF4545",
"2 	c #FE4545",
"3 	c #FF4444",
"4 	c #FD4344",
"5 	c #FB4343",
"6 	c #FB4242",
"7 	c #F94242",
"8 	c #F84141",
"9 	c #F64040",
"0 	c #F63F3F",
"a 	c #F43E3E",
"b 	c #F33E3E",
"c 	c #F23D3D",
"d 	c #DE4E4E",
"e 	c #BD6F6F",
"f 	c #A58787",
"g 	c #9C9090",
"h 	c #D16868",
"i 	c #F34E4E",
"j 	c #FB4747",
"k 	c #FD4444",
"l 	c #FC4343",
"m 	c #F94141",
"n 	c #F74041",
"o 	c #F43F3F",
"p 	c #F33F3F",
"q 	c #F23E3E",
"r 	c #F03C3C",
"s 	c #EE3B3B",
"t 	c #EB3C3C",
"u 	c #E24343",
"v 	c #CC5A5A",
"w 	c #A18B8B",
"x 	c #AF8282",
"y 	c #FD4343",
"z 	c #FA4242",
"A 	c #F74141",
"B 	c #F43E3F",
"C 	c #F13D3D",
"D 	c #EF3C3C",
"E 	c #ED3A3A",
"F 	c #EC393A",
"G 	c #E93939",
"H 	c #E93839",
"I 	c #E83838",
"J 	c #D05050",
"K 	c #AE7A7A",
"L 	c #AB8686",
"M 	c #EF5050",
"N 	c #FD4646",
"O 	c #FE5857",
"P 	c #FE6D6D",
"Q 	c #FD7878",
"R 	c #FC7F80",
"S 	c #FB7979",
"T 	c #FA6D6C",
"U 	c #F85B5B",
"V 	c #F74040",
"W 	c #F53F3F",
"X 	c #ED3B3B",
"Y 	c #EB3A39",
"Z 	c #E73738",
"` 	c #E73737",
" .	c #E53636",
"..	c #E33636",
"+.	c #DC3D3D",
"@.	c #AD7A7A",
"#.	c #DE5E5E",
"$.	c #FF4C4C",
"%.	c #FF7373",
"&.	c #FF9898",
"*.	c #FFBBBB",
"=.	c #FFDBDB",
"-.	c #FFF5F5",
";.	c #FFFFFF",
">.	c #FEFAFA",
",.	c #FCDFDF",
"'.	c #FABFBF",
").	c #F79A9A",
"!.	c #F37575",
"~.	c #EF4B4A",
"{.	c #EC3A3A",
"].	c #EB3939",
"^.	c #EA3939",
"/.	c #E93838",
"(.	c #E63636",
"_.	c #E43535",
":.	c #E33535",
"<.	c #E23434",
"[.	c #E03334",
"}.	c #CE4949",
"|.	c #AA7B7B",
"1.	c #CA6E6E",
"2.	c #FF7171",
"3.	c #FFD0D0",
"4.	c #FFFEFE",
"5.	c #FFFCFC",
"6.	c #FEFCFC",
"7.	c #FFF7F7",
"8.	c #FED8D8",
"9.	c #FEBABA",
"0.	c #FDA8A8",
"a.	c #FC9D9D",
"b.	c #FB9D9D",
"c.	c #FBABAB",
"d.	c #FBC0C0",
"e.	c #FDDFE0",
"f.	c #FEFBFB",
"g.	c #FEFDFD",
"h.	c #FEFEFE",
"i.	c #FBDDDD",
"j.	c #F07A7A",
"k.	c #E93B3B",
"l.	c #E63637",
"m.	c #E53536",
"n.	c #E23535",
"o.	c #E03333",
"p.	c #DD3232",
"q.	c #DD3131",
"r.	c #C35454",
"s.	c #ED5252",
"t.	c #FF6868",
"u.	c #FFB9B9",
"v.	c #FFECEC",
"w.	c #FFDEDE",
"x.	c #FFA7A7",
"y.	c #FF7F7F",
"z.	c #FF6565",
"A.	c #FF4D4D",
"B.	c #F24C4C",
"C.	c #F26464",
"D.	c #F48181",
"E.	c #F7B1B1",
"F.	c #FDECEC",
"G.	c #FDF4F4",
"H.	c #F7C0C0",
"I.	c #EC7071",
"J.	c #E13434",
"K.	c #DF3232",
"L.	c #DE3132",
"M.	c #DB3130",
"N.	c #DA3030",
"O.	c #D23A3A",
"P.	c #AB7777",
"Q.	c #BF7676",
"R.	c #FF5B5B",
"S.	c #FFD2D2",
"T.	c #FFA8A8",
"U.	c #FF5151",
"V.	c #FF4445",
"W.	c #FE4444",
"X.	c #FC4344",
"Y.	c #FA4142",
"Z.	c #F13D3E",
"`.	c #F13C3C",
" +	c #EF3B3B",
".+	c #EC3939",
"++	c #EC5B5B",
"@+	c #F7BFBF",
"#+	c #FDF1F1",
"$+	c #FBE3E3",
"%+	c #E75E5E",
"&+	c #E03535",
"*+	c #DF3233",
"=+	c #DE3232",
"-+	c #DC3031",
";+	c #DA2F30",
">+	c #DA2F2F",
",+	c #D82E2E",
"'+	c #D72E2E",
")+	c #B85E5D",
"!+	c #DF5D5D",
"~+	c #FF5757",
"{+	c #FFCFCF",
"]+	c #FFC1C1",
"^+	c #FF6A6A",
"/+	c #FF4A4A",
"(+	c #FC4444",
"_+	c #F23E3D",
":+	c #ED3A3B",
"<+	c #E63737",
"[+	c #E74444",
"}+	c #EB6F6F",
"|+	c #FADCDC",
"1+	c #F9DDDD",
"2+	c #E56463",
"3+	c #DC3131",
"4+	c #DB3030",
"5+	c #D82F2F",
"6+	c #D62E2E",
"7+	c #D52D2D",
"8+	c #D52C2D",
"9+	c #C64242",
"0+	c #9A9292",
"a+	c #E35A5A",
"b+	c #FF9696",
"c+	c #FFFDFD",
"d+	c #FF5D5D",
"e+	c #F84040",
"f+	c #F33E3F",
"g+	c #F13C3D",
"h+	c #EA3839",
"i+	c #E83737",
"j+	c #E43636",
"k+	c #E13334",
"l+	c #EA7373",
"m+	c #FADFDF",
"n+	c #EFA8A8",
"o+	c #DC3C3C",
"p+	c #D62D2D",
"q+	c #D42D2D",
"r+	c #D32B2C",
"s+	c #D22B2B",
"t+	c #CA3636",
"u+	c #9F8989",
"v+	c #9F8F8F",
"w+	c #F24E4E",
"x+	c #FFE7E7",
"y+	c #FFE9E9",
"z+	c #FF6262",
"A+	c #FB4342",
"B+	c #F84142",
"C+	c #F6403F",
"D+	c #ED3B3A",
"E+	c #E83738",
"F+	c #E13433",
"G+	c #DF3333",
"H+	c #DE3636",
"I+	c #E77170",
"J+	c #FCF1F1",
"K+	c #E16262",
"L+	c #D52C2C",
"M+	c #D42C2C",
"N+	c #D12B2B",
"O+	c #D02A2A",
"P+	c #CC2D2D",
"Q+	c #A28383",
"R+	c #A18E8E",
"S+	c #EE5252",
"T+	c #FF8888",
"U+	c #FFFBFB",
"V+	c #FFA1A1",
"W+	c #FE4445",
"X+	c #F03C3D",
"Y+	c #EE3B3A",
"Z+	c #E23435",
"`+	c #E13333",
" @	c #DD3231",
".@	c #DB3738",
"+@	c #F2B9B9",
"@@	c #EA9A9A",
"#@	c #D12A2B",
"$@	c #CF2929",
"%@	c #CC2929",
"&@	c #C83030",
"*@	c #A08484",
"=@	c #F05050",
"-@	c #FFB4B4",
";@	c #FFF0F0",
">@	c #F23D3E",
",@	c #F03D3C",
"'@	c #E53535",
")@	c #DC3030",
"!@	c #D92F2F",
"~@	c #E36D6D",
"{@	c #F7DBDB",
"]@	c #D32F2F",
"^@	c #D02A29",
"/@	c #CF2A2A",
"(@	c #CD2828",
"_@	c #CB2727",
":@	c #C82929",
"<@	c #9F8787",
"[@	c #E65858",
"}@	c #FFC6C6",
"|@	c #FFC0C0",
"1@	c #EB3A3A",
"2@	c #E73837",
"3@	c #D72D2E",
"4@	c #DB4F4F",
"5@	c #F8E0E0",
"6@	c #F6D8D8",
"7@	c #CE2929",
"8@	c #CC2727",
"9@	c #CA2626",
"0@	c #C92525",
"a@	c #C03434",
"b@	c #9A9191",
"c@	c #D96262",
"d@	c #FF4646",
"e@	c #FA4141",
"f@	c #F94241",
"g@	c #DE3233",
"h@	c #D32B2B",
"i@	c #D22E2E",
"j@	c #FBEEEE",
"k@	c #D03938",
"l@	c #CA2627",
"m@	c #C92626",
"n@	c #C62525",
"o@	c #C62424",
"p@	c #BE3535",
"q@	c #C07676",
"r@	c #FFCECE",
"s@	c #FF9B9B",
"t@	c #FF4544",
"u@	c #FC4443",
"v@	c #FC4243",
"w@	c #F33D3E",
"x@	c #EF3C3B",
"y@	c #E03434",
"z@	c #DB3131",
"A@	c #D32C2C",
"B@	c #D12B2A",
"C@	c #D02C2C",
"D@	c #F2C6C6",
"E@	c #F9E6E6",
"F@	c #CE3635",
"G@	c #C82525",
"H@	c #C72525",
"I@	c #C42424",
"J@	c #C42323",
"K@	c #AF5758",
"L@	c #AA8787",
"M@	c #FFC8C8",
"N@	c #FFA4A4",
"O@	c #FB4243",
"P@	c #F33E3D",
"Q@	c #F13D3C",
"R@	c #EA3838",
"S@	c #E53637",
"T@	c #E03233",
"U@	c #D72E2D",
"V@	c #CE2828",
"W@	c #F3CECE",
"X@	c #F5DADA",
"Y@	c #C92A2A",
"Z@	c #C72424",
"`@	c #C52323",
" #	c #C22222",
".#	c #C22121",
"+#	c #A47373",
"@#	c #EB5454",
"##	c #FFAFAF",
"$#	c #FA4241",
"%#	c #F54040",
"&#	c #E63736",
"*#	c #D82E2F",
"=#	c #D12A2A",
"-#	c #CC2828",
";#	c #F7DFDF",
">#	c #F1C9C9",
",#	c #C52424",
"'#	c #C32323",
")#	c #C12221",
"!#	c #C12121",
"~#	c #BB2A2A",
"{#	c #9B8F8F",
"]#	c #CB6D6D",
"^#	c #FF7979",
"/#	c #FFCACA",
"(#	c #FA4343",
"_#	c #F84041",
":#	c #EC3A3B",
"<#	c #D82F2E",
"[#	c #CE2928",
"}#	c #C92C2C",
"|#	c #FAECEC",
"1#	c #E18F8F",
"2#	c #C32222",
"3#	c #BF2021",
"4#	c #BE1F1F",
"5#	c #AF4B4B",
"6#	c #A78989",
"7#	c #FF4E4E",
"8#	c #FFEFEF",
"9#	c #FD4443",
"0#	c #DF3332",
"a#	c #DD3132",
"b#	c #D62E2D",
"c#	c #D22A2B",
"d#	c #CF292A",
"e#	c #CA2727",
"f#	c #D04E4E",
"g#	c #CB4040",
"h#	c #C12122",
"i#	c #BF2120",
"j#	c #BF2020",
"k#	c #BD1F1F",
"l#	c #BC1F1F",
"m#	c #A37171",
"n#	c #FFC9C9",
"o#	c #FF6666",
"p#	c #F74140",
"q#	c #E33434",
"r#	c #E23433",
"s#	c #D92E2F",
"t#	c #D42C2D",
"u#	c #C52324",
"v#	c #DE8687",
"w#	c #FAF0F0",
"x#	c #C22929",
"y#	c #BC1E1E",
"z#	c #BA1D1E",
"A#	c #B33333",
"B#	c #AA8686",
"C#	c #FF8B8B",
"D#	c #FF8E8E",
"E#	c #F84241",
"F#	c #EC3B3A",
"G#	c #CC2728",
"H#	c #C82526",
"I#	c #C62524",
"J#	c #C62423",
"K#	c #EDC1C1",
"L#	c #DE8E8E",
"M#	c #BB1D1D",
"N#	c #BA1E1D",
"O#	c #B91C1D",
"P#	c #A27273",
"Q#	c #EA5555",
"R#	c #FF4848",
"S#	c #FE4544",
"T#	c #CC2827",
"U#	c #CB2627",
"V#	c #C82626",
"W#	c #C42423",
"X#	c #C94242",
"Y#	c #C33433",
"Z#	c #BB1E1E",
"`#	c #BA1D1D",
" $	c #B91D1D",
".$	c #B71C1C",
"+$	c #B52121",
"@$	c #9A9293",
"#$	c #A88888",
"$$	c #FC4747",
"%$	c #FF9A9A",
"&$	c #EE4645",
"*$	c #EE4F4F",
"=$	c #EF6767",
"-$	c #F49E9E",
";$	c #F9D7D7",
">$	c #FDF5F5",
",$	c #ED8282",
"'$	c #DE3131",
")$	c #D22B2C",
"!$	c #D02929",
"~$	c #C32223",
"{$	c #C02121",
"]$	c #E09594",
"^$	c #F1D1D1",
"/$	c #B91C1C",
"($	c #B81C1C",
"_$	c #B61B1B",
":$	c #B51B1A",
"<$	c #A36868",
"[$	c #D66464",
"}$	c #FF5454",
"|$	c #FFBDBD",
"1$	c #F53F40",
"2$	c #F58483",
"3$	c #F9B9B9",
"4$	c #FBDCDC",
"5$	c #FDEAEA",
"6$	c #FEF8F8",
"7$	c #ED8585",
"8$	c #C92526",
"9$	c #C62425",
"0$	c #C42222",
"a$	c #BE2020",
"b$	c #BD2121",
"c$	c #F7E5E5",
"d$	c #FDFBFB",
"e$	c #C44242",
"f$	c #B71B1B",
"g$	c #B51B1B",
"h$	c #B31A19",
"i$	c #AC3737",
"j$	c #FF6969",
"k$	c #F03D3D",
"l$	c #EC8585",
"m$	c #C92625",
"n$	c #C72524",
"o$	c #C02020",
"p$	c #BE201F",
"q$	c #DC8D8E",
"r$	c #E6B0B0",
"s$	c #B41A1A",
"t$	c #B31919",
"u$	c #B21818",
"v$	c #9B8888",
"w$	c #CA6D6D",
"x$	c #FFEBEB",
"y$	c #EB8584",
"z$	c #D92F2E",
"A$	c #C02120",
"B$	c #BE1F20",
"C$	c #B91F1F",
"D$	c #BD3232",
"E$	c #B51A1A",
"F$	c #B21919",
"G$	c #B11818",
"H$	c #A83F3F",
"I$	c #9B9393",
"J$	c #FF7575",
"K$	c #FF6464",
"L$	c #EF3B3C",
"M$	c #FBE7E7",
"N$	c #F9CFCF",
"O$	c #F4B1B1",
"P$	c #EE8281",
"Q$	c #FDF0F0",
"R$	c #EB8484",
"S$	c #CE2829",
"T$	c #DB8D8D",
"U$	c #E2A6A6",
"V$	c #B21819",
"W$	c #B11718",
"X$	c #AF1717",
"Y$	c #AD1A1A",
"Z$	c #9A8E8E",
"`$	c #FB4848",
" %	c #FFE1E1",
".%	c #F84140",
"+%	c #EE3D3D",
"@%	c #FCECEC",
"#%	c #F6ADAD",
"$%	c #EF6F6F",
"%%	c #E94040",
"&%	c #E73A3A",
"*%	c #E63738",
"=%	c #FBEBEB",
"-%	c #EA8484",
";%	c #C12021",
">%	c #B81B1C",
",%	c #BC2E2D",
"'%	c #FCF8F8",
")%	c #F5E1E1",
"!%	c #B52222",
"~%	c #B01818",
"{%	c #AC1616",
"]%	c #9E7676",
"^%	c #B77D7D",
"/%	c #FF5A5A",
"(%	c #FFFAFA",
"_%	c #FA4342",
":%	c #F5403F",
"<%	c #EB393A",
"[%	c #E53635",
"}%	c #DB302F",
"|%	c #D62D2E",
"1%	c #CD2928",
"2%	c #C72425",
"3%	c #BA1E1E",
"4%	c #B91D1C",
"5%	c #B71C1B",
"6%	c #B61D1D",
"7%	c #F1D6D6",
"8%	c #BB3636",
"9%	c #B01717",
"0%	c #AF1616",
"a%	c #AD1616",
"b%	c #A25555",
"c%	c #E25B5B",
"d%	c #FF7A7A",
"e%	c #FF6B6B",
"f%	c #E88383",
"g%	c #D52D2C",
"h%	c #CB2726",
"i%	c #BD1F1E",
"j%	c #BC1E1F",
"k%	c #B41919",
"l%	c #DA8F8F",
"m%	c #D99090",
"n%	c #AF1716",
"o%	c #AC1515",
"p%	c #AB1414",
"q%	c #A72B2B",
"r%	c #FFB3B3",
"s%	c #C12222",
"t%	c #B71B1C",
"u%	c #B61A1A",
"v%	c #BA3232",
"w%	c #FAF1F1",
"x%	c #AE1616",
"y%	c #AD1615",
"z%	c #AB1515",
"A%	c #AA1414",
"B%	c #A81313",
"C%	c #FFEEEE",
"D%	c #FFB7B7",
"E%	c #F53E3F",
"F%	c #E93938",
"G%	c #E43536",
"H%	c #FBECEC",
"I%	c #E78282",
"J%	c #F9EDED",
"K%	c #B62E2E",
"L%	c #AB1415",
"M%	c #A91313",
"N%	c #A81312",
"O%	c #9D6E6E",
"P%	c #FF7272",
"Q%	c #E83837",
"R%	c #E33435",
"S%	c #E03433",
"T%	c #C62324",
"U%	c #B01817",
"V%	c #DFA3A4",
"W%	c #C86767",
"X%	c #A91414",
"Y%	c #A81213",
"Z%	c #A71212",
"`%	c #A04B4B",
" &	c #CD6B6B",
".&	c #FF7E7E",
"+&	c #F33D3D",
"@&	c #EE3C3C",
"#&	c #E78181",
"$&	c #D22C2B",
"%&	c #BB1D1E",
"&&	c #AE1717",
"*&	c #C86464",
"=&	c #DA9797",
"-&	c #A91413",
";&	c #A51111",
">&	c #A12C2C",
",&	c #000000",
"'&	c #FFAAAA",
")&	c #F94142",
"!&	c #FAEBEB",
"~&	c #E58181",
"{&	c #D42D2C",
"]&	c #B81C1B",
"^&	c #B61B1C",
"/&	c #BB4141",
"(&	c #E4B7B6",
"_&	c #A91314",
":&	c #A61111",
"<&	c #A41110",
"[&	c #A12122",
"}&	c #FFDDDD",
"|&	c #FF4747",
"1&	c #E23534",
"2&	c #DC3130",
"3&	c #C82424",
"4&	c #BC1F1E",
"5&	c #B41A19",
"6&	c #B53232",
"7&	c #FBF5F5",
"8&	c #ECCDCD",
"9&	c #A71213",
"0&	c #A61212",
"a&	c #A41111",
"b&	c #A31010",
"c&	c #A11C1C",
"d&	c #9A8D8D",
"e&	c #EC3A39",
"f&	c #E33534",
"g&	c #DB3031",
"h&	c #E48080",
"i&	c #AF1617",
"j&	c #B02626",
"k&	c #F9F0F0",
"l&	c #F2DEDE",
"m&	c #A61313",
"n&	c #A21010",
"o&	c #A01717",
"p&	c #9A8989",
"q&	c #FFE6E6",
"r&	c #FFC7C7",
"s&	c #C22322",
"t&	c #B3191A",
"u&	c #AC1514",
"v&	c #AC1D1D",
"w&	c #F8ECEC",
"x&	c #A30F0F",
"y&	c #A10F0F",
"z&	c #9F1414",
"A&	c #9A8686",
"B&	c #FF4B4B",
"C&	c #E38080",
"D&	c #AD1515",
"E&	c #A91515",
"F&	c #F6E8E8",
"G&	c #FBF4F4",
"H&	c #A41313",
"I&	c #A00E0E",
"J&	c #9E1212",
"K&	c #9A8484",
"L&	c #F74A4A",
"M&	c #DA302F",
"N&	c #FBECEB",
"O&	c #E28080",
"P&	c #CA2726",
"Q&	c #C22221",
"R&	c #B81B1B",
"S&	c #AC1615",
"T&	c #F6E7E7",
"U&	c #A41212",
"V&	c #A20F0F",
"W&	c #9F0E0E",
"X&	c #9D1212",
"Y&	c #9A8383",
"Z&	c #FFEDED",
"`&	c #E27F7F",
" *	c #C22122",
".*	c #AA1313",
"+*	c #A21112",
"@*	c #A10E0E",
"#*	c #9E0D0D",
"$*	c #FEB5B5",
"%*	c #F33F3E",
"&*	c #E43635",
"**	c #E03332",
"=*	c #E17E7F",
"-*	c #C42223",
";*	c #BF2121",
">*	c #BF1F1F",
",*	c #B4191A",
"'*	c #FBF6F6",
")*	c #A21011",
"!*	c #9E1313",
"~*	c #FF4949",
"{*	c #FEC0C0",
"]*	c #D92F30",
"^*	c #E17E7E",
"/*	c #A71313",
"(*	c #A51515",
"_*	c #F6EAEA",
":*	c #F8EFEF",
"<*	c #A01010",
"[*	c #9F0D0D",
"}*	c #9E1414",
"|*	c #FEE3E3",
"1*	c #FECACA",
"2*	c #EE3C3B",
"3*	c #E73736",
"4*	c #D72D2D",
"5*	c #E07E7E",
"6*	c #C52423",
"7*	c #AE1617",
"8*	c #AD1516",
"9*	c #AB1514",
"0*	c #A71D1D",
"a*	c #F8EEEE",
"b*	c #F3E2E2",
"c*	c #9E0E0E",
"d*	c #9E1717",
"e*	c #FED7D7",
"f*	c #FED4D5",
"g*	c #DE3231",
"h*	c #B01718",
"i*	c #A41010",
"j*	c #AB2727",
"k*	c #FAF2F2",
"l*	c #ECD1D1",
"m*	c #9E0E0D",
"n*	c #9E1B1B",
"o*	c #FEB6B6",
"p*	c #FEE5E5",
"q*	c #FB4646",
"r*	c #EE3B3C",
"s*	c #D22A2A",
"t*	c #F9EAEA",
"u*	c #DE7D7D",
"v*	c #C02021",
"w*	c #B11817",
"x*	c #AE1716",
"y*	c #A41011",
"z*	c #AE3333",
"A*	c #E4BCBC",
"B*	c #9E1F1F",
"C*	c #FD8B8B",
"D*	c #FEF9F9",
"E*	c #F94949",
"F*	c #F43F3E",
"G*	c #A51112",
"H*	c #A51110",
"I*	c #B54444",
"J*	c #DAA2A2",
"K*	c #9D2A2A",
"L*	c #BD7877",
"M*	c #FB5B5A",
"N*	c #F85050",
"O*	c #DD7D7C",
"P*	c #AC1516",
"Q*	c #AA1413",
"R*	c #A71312",
"S*	c #A61211",
"T*	c #C97979",
"U*	c #C77474",
"V*	c #9C4949",
"W*	c #FA8D8D",
"X*	c #DD7C7C",
"Y*	c #B21918",
"Z*	c #A31011",
"`*	c #A30F10",
" =	c #9F0D0E",
".=	c #E5BFBF",
"+=	c #B13C3C",
"@=	c #9B6D6D",
"#=	c #FCC6C6",
"$=	c #FDD7D8",
"%=	c #DC7B7C",
"&=	c #C42322",
"*=	c #A81212",
"==	c #A3100F",
"-=	c #A10F0E",
";=	c #DF5A5A",
">=	c #F98586",
",=	c #F44748",
"'=	c #DB7B7B",
")=	c #B81D1C",
"!=	c #B01617",
"~=	c #BA5353",
"{=	c #DEACAC",
"]=	c #9E2526",
"^=	c #B57C7C",
"/=	c #F75F5F",
"(=	c #F77F7F",
"_=	c #E93737",
":=	c #D84D4D",
"<=	c #D74C4C",
"[=	c #D64B4B",
"}=	c #D44B4B",
"|=	c #D44949",
"1=	c #D34949",
"2=	c #D14242",
"3=	c #FAEEEE",
"4=	c #E19090",
"5=	c #CB4343",
"6=	c #CA4444",
"7=	c #C94343",
"8=	c #C84242",
"9=	c #C74242",
"0=	c #C54242",
"a=	c #C23939",
"b=	c #AF1817",
"c=	c #A10E0F",
"d=	c #E0B2B2",
"e=	c #B44444",
"f=	c #9C5152",
"g=	c #F44443",
"h=	c #FEF2F2",
"i=	c #FABBBB",
"j=	c #D84A49",
"k=	c #FDFDFD",
"l=	c #B11918",
"m=	c #A2100F",
"n=	c #A31818",
"o=	c #F4E3E3",
"p=	c #F7EBEB",
"q=	c #A41C1C",
"r=	c #9E0E0F",
"s=	c #9B7474",
"t=	c #E35151",
"u=	c #F89898",
"v=	c #E73636",
"w=	c #D64747",
"x=	c #EECBCB",
"y=	c #B11919",
"z=	c #A00F0F",
"A=	c #B23F3F",
"B=	c #E5BEBE",
"C=	c #9E1011",
"D=	c #C56B6B",
"E=	c #F59191",
"F=	c #D32C2B",
"G=	c #D54747",
"H=	c #EECDCD",
"I=	c #B61A1B",
"J=	c #A51011",
"K=	c #E9C8C8",
"L=	c #B74C4C",
"M=	c #9D3939",
"N=	c #F8AFB0",
"O=	c #FEF6F6",
"P=	c #EC4040",
"Q=	c #EBA9A9",
"R=	c #E9A3A3",
"S=	c #E8A3A3",
"T=	c #E7A2A2",
"U=	c #E6A2A2",
"V=	c #E6A1A1",
"W=	c #E5A1A1",
"X=	c #E5A0A0",
"Y=	c #E4A0A0",
"Z=	c #E3A0A0",
"`=	c #E29F9F",
" -	c #E19F9F",
".-	c #E09F9F",
"+-	c #E09E9E",
"@-	c #D68080",
"#-	c #AC1415",
"$-	c #B34141",
"%-	c #EFD7D7",
"&-	c #9A8787",
"*-	c #CF5F5F",
"=-	c #F06161",
"--	c #F28181",
";-	c #C62323",
">-	c #C22323",
",-	c #E1B5B5",
"'-	c #B95151",
")-	c #9D2F2F",
"!-	c #A68787",
"~-	c #ED3F3F",
"{-	c #F9C7C7",
"]-	c #AE1516",
"^-	c #A72323",
"/-	c #F7ECEC",
"(-	c #A11313",
"_-	c #9B6464",
":-	c #DD4D4D",
"<-	c #EB4342",
"[-	c #F3A3A3",
"}-	c #B31819",
"|-	c #EFD8D8",
"1-	c #BB5555",
"2-	c #9E1515",
"3-	c #A78585",
"4-	c #F5A9A9",
"5-	c #FEF7F7",
"6-	c #BD1E1F",
"7-	c #C36A6A",
"8-	c #E2B6B6",
"9-	c #9B6F6F",
"0-	c #CD5B5A",
"a-	c #E63A3A",
"b-	c #F8CFCF",
"c-	c #BF1F20",
"d-	c #A31919",
"e-	c #F9F1F1",
"f-	c #AC3030",
"g-	c #9E2727",
"h-	c #A48787",
"i-	c #E85354",
"j-	c #F1A0A0",
"k-	c #C32322",
"l-	c #AA1415",
"m-	c #A51212",
"n-	c #F0DBDB",
"o-	c #C97777",
"p-	c #9B6C6C",
"q-	c #C06666",
"r-	c #F2A5A5",
"s-	c #E55B5B",
"t-	c #CB2626",
"u-	c #BD1E1E",
"v-	c #CF8686",
"w-	c #E3BABA",
"x-	c #9D4040",
"y-	c #D74848",
"z-	c #F7D0D0",
"A-	c #E04646",
"B-	c #AA1514",
"C-	c #A00E0F",
"D-	c #BD5B5B",
"E-	c #9E1A1A",
"F-	c #9A8F8F",
"G-	c #A58484",
"H-	c #E13534",
"I-	c #DF3E3E",
"J-	c #FCF2F2",
"K-	c #FAE6E6",
"L-	c #CF2A29",
"M-	c #A20F10",
"N-	c #A00D0E",
"O-	c #B23E3E",
"P-	c #FDFAFA",
"Q-	c #AA2A2A",
"R-	c #9B6E6E",
"S-	c #B56F6F",
"T-	c #DF4343",
"U-	c #FDF3F3",
"V-	c #FAE4E4",
"W-	c #DA3B3A",
"X-	c #D1292A",
"Y-	c #A61112",
"Z-	c #B24040",
"`-	c #BC5858",
" ;	c #9C4C4D",
".;	c #C55757",
"+;	c #DF4E4D",
"@;	c #BF201F",
"#;	c #BA1C1D",
"$;	c #A00F0E",
"%;	c #B03939",
"&;	c #FCF9F9",
"*;	c #B54747",
"=;	c #9F0E0D",
"-;	c #9E2323",
";;	c #CD4949",
">;	c #DC4C4C",
",;	c #FBEFEF",
"';	c #DA4F4F",
");	c #A31110",
"!;	c #C26666",
"~;	c #FDFCFC",
"{;	c #BE5D5D",
"];	c #9E2020",
"^;	c #D13F3F",
"/;	c #D83B3B",
"(;	c #DE6867",
"_;	c #C92627",
":;	c #A51211",
"<;	c #D69898",
"[;	c #FBF7F7",
"};	c #B13B3B",
"|;	c #9E1010",
"1;	c #9E8C8C",
"2;	c #CE3F3F",
"3;	c #D43232",
"4;	c #F0BEBE",
"5;	c #ECADAD",
"6;	c #C82625",
"7;	c #B31A1A",
"8;	c #AA1515",
"9;	c #AB2E2E",
"0;	c #EACBCB",
"a;	c #9A8181",
"b;	c #9D8E8E",
"c;	c #CF393A",
"d;	c #E58D8D",
"e;	c #D34A4A",
"f;	c #AA1314",
"g;	c #A01212",
"h;	c #C06363",
"i;	c #9A7E7E",
"j;	c #9C8F8F",
"k;	c #C44848",
"l;	c #D44747",
"m;	c #F5D7D7",
"n;	c #EFC2C2",
"o;	c #CC3636",
"p;	c #B84E4E",
"q;	c #EED6D6",
"r;	c #FAF4F4",
"s;	c #B74B4B",
"t;	c #9E1E1E",
"u;	c #BF4A4A",
"v;	c #CD2929",
"w;	c #E49393",
"x;	c #FBF0F0",
"y;	c #E49C9C",
"z;	c #CB3F3F",
"A;	c #A81413",
"B;	c #E6C2C2",
"C;	c #DBA6A6",
"D;	c #9D292A",
"E;	c #AD6C6C",
"F;	c #C92F2F",
"G;	c #E19190",
"H;	c #FDF9F9",
"I;	c #F2D2D2",
"J;	c #CF5858",
"K;	c #F4E4E4",
"L;	c #DDAAAA",
"M;	c #A82525",
"N;	c #9C4D4E",
"O;	c #A28181",
"P;	c #C33A3A",
"Q;	c #C73030",
"R;	c #E29898",
"S;	c #F6E1E1",
"T;	c #F9EBEB",
"U;	c #E09798",
"V;	c #CE5C5C",
"W;	c #C03232",
"X;	c #AF1718",
"Y;	c #AF3232",
"Z;	c #C05F5F",
"`;	c #DCA8A8",
" >	c #DAA3A3",
".>	c #AC2F2F",
"+>	c #9E1C1C",
"@>	c #B05F5F",
"#>	c #C94545",
"$>	c #EDC4C4",
"%>	c #FAEFEF",
"&>	c #E3A9A9",
"*>	c #CE6868",
"=>	c #BB3131",
"->	c #B53939",
";>	c #CA7474",
">>	c #E4B9B9",
",>	c #EFD9D9",
"'>	c #B95252",
")>	c #9D3E3E",
"!>	c #A18080",
"~>	c #B74848",
"{>	c #BE2828",
"]>	c #CD5F60",
"^>	c #DD9292",
"/>	c #ECC6C5",
"(>	c #FCF6F6",
"_>	c #F7E9E9",
":>	c #F4E1E1",
"<>	c #F4E0E0",
"[>	c #F4E2E2",
"}>	c #D69696",
"|>	c #BF5F5F",
"1>	c #A92627",
"2>	c #9D2D2D",
"3>	c #9B7272",
"4>	c #A08080",
"5>	c #BC3232",
"6>	c #C02222",
"7>	c #B51F1F",
"8>	c #C55353",
"9>	c #D38080",
"0>	c #DEA0A0",
"a>	c #E7BABA",
"b>	c #ECCAC9",
"c>	c #EFD3D3",
"d>	c #EDCDCD",
"e>	c #E6BCBC",
"f>	c #DEA6A6",
"g>	c #D08484",
"h>	c #C05959",
"i>	c #AA2222",
"j>	c #9E0F0F",
"k>	c #9B7070",
"l>	c #A27A7A",
"m>	c #B04A4A",
"n>	c #B91E1E",
"o>	c #9D3333",
"p>	c #AB5353",
"q>	c #B62B2B",
"r>	c #B71F1F",
"s>	c #9D8585",
"t>	c #A36969",
"u>	c #AE3939",
"v>	c #9E2828",
"w>	c #9C5C5C",
"x>	c #9E7A7A",
"y>	c #A35D5D",
"z>	c #A64242",
"A>	c #A83535",
"B>	c #A82C2C",
"C>	c #A8201F",
"D>	c #A71A1A",
"E>	c #A61818",
"F>	c #A41717",
"G>	c #A21B1B",
"H>	c #A0201F",
"I>	c #9E2525",
"J>	c #9C3A3A",
"K>	c #9C5454",
"L>	c #9A9090",
"M>	c #989598",
"N>	c #95989E",
"O>	c #949AA4",
"P>	c #8F9DAF",
"Q>	c #8CA2BA",
"R>	c #89A6C3",
"S>	c #87A9CA",
"T>	c #84A9CE",
"U>	c #85ABD0",
"V>	c #84A9CD",
"W>	c #87A8C9",
"X>	c #89A5C3",
"Y>	c #8CA1B9",
"Z>	c #909DAD",
"`>	c #9399A3",
" ,	c #95979D",
".,	c #979497",
"+,	c #979598",
"@,	c #8CA1B8",
"#,	c #84ACD4",
"$,	c #82AED9",
"%,	c #81B0DC",
"&,	c #81B1DF",
"*,	c #82B2E0",
"=,	c #7FAFDE",
"-,	c #7DADDB",
";,	c #7DABD7",
">,	c #7CA8D3",
",,	c #7DA4CB",
"',	c #889BB1",
"),	c #979496",
"!,	c #9498A0",
"~,	c #8DA1B6",
"{,	c #84ABD2",
"],	c #81B0DE",
"^,	c #88B5E1",
"/,	c #93BCE4",
"(,	c #9CC2E6",
"_,	c #A3C6E8",
":,	c #A7C8E9",
"<,	c #AACBEA",
"[,	c #AACAE9",
"},	c #A6C8E9",
"|,	c #A1C5E7",
"1,	c #9AC0E5",
"2,	c #8FB9E2",
"3,	c #82B0DD",
"4,	c #7CACDA",
"5,	c #7AAAD8",
"6,	c #79A8D6",
"7,	c #77A6D5",
"8,	c #75A5D4",
"9,	c #73A3D2",
"0,	c #799EC4",
"a,	c #8798AC",
"b,	c #92959C",
"c,	c #9398A1",
"d,	c #83ACD4",
"e,	c #82B1DF",
"f,	c #83B2E0",
"g,	c #ACCCEA",
"h,	c #D6E6F5",
"i,	c #F9FBFD",
"j,	c #FDFDFE",
"k,	c #FDFEFE",
"l,	c #F4F8FB",
"m,	c #CCDEF0",
"n,	c #9CBEE0",
"o,	c #73A2D1",
"p,	c #72A1D0",
"q,	c #709FCE",
"r,	c #6E9DCC",
"s,	c #6D9BCA",
"t,	c #7298BF",
"u,	c #92949B",
"v,	c #8F9DAD",
"w,	c #85AACF",
"x,	c #A2C6E8",
"y,	c #C9DEF1",
"z,	c #E8F1F9",
"A,	c #E6EFF8",
"B,	c #CADEF1",
"C,	c #C2D9EF",
"D,	c #BBD5EE",
"E,	c #BAD4ED",
"F,	c #BED6EE",
"G,	c #C5DAEF",
"H,	c #D0E2F2",
"I,	c #DEEAF5",
"J,	c #F1F6FB",
"K,	c #E0EAF4",
"L,	c #BBD1E7",
"M,	c #8BB0D6",
"N,	c #6C9BCB",
"O,	c #6A98C8",
"P,	c #6998C8",
"Q,	c #6796C6",
"R,	c #7193B7",
"S,	c #8893A2",
"T,	c #96969B",
"U,	c #83ABD4",
"V,	c #84B3E0",
"W,	c #B2CFEB",
"X,	c #FBFCFE",
"Y,	c #FAFCFD",
"Z,	c #E5EFF8",
"`,	c #B4D1EC",
" '	c #8BB7E2",
".'	c #7FAFDD",
"+'	c #7DADDC",
"@'	c #7BABDA",
"#'	c #79A9D8",
"$'	c #78A8D7",
"%'	c #76A6D5",
"&'	c #9BBDDF",
"*'	c #CEDEEE",
"='	c #F6F9FC",
"-'	c #FBFCFD",
";'	c #F2F6FA",
">'	c #93B5D7",
",'	c #6A98C6",
"''	c #6694C4",
")'	c #6492C1",
"!'	c #6391C1",
"~'	c #6B8FB6",
"{'	c #959396",
"]'	c #81B0DF",
"^'	c #CFE2F3",
"/'	c #C5DBF0",
"('	c #9EC3E7",
"_'	c #88B6E1",
":'	c #75A4D3",
"<'	c #71A1D0",
"['	c #6F9ECE",
"}'	c #84ABD4",
"|'	c #A6C2DF",
"1'	c #E7EEF6",
"2'	c #EEF3F8",
"3'	c #B7CCE3",
"4'	c #6390C1",
"5'	c #608FBE",
"6'	c #5E8DBD",
"7'	c #5D8BBB",
"8'	c #748DAA",
"9'	c #9499A2",
"0'	c #81AFDC",
"a'	c #86B5E1",
"b'	c #B7D3ED",
"c'	c #F0F5FB",
"d'	c #B6D2ED",
"e'	c #7CACDB",
"f'	c #78A7D6",
"g'	c #76A5D4",
"h'	c #6D9CCC",
"i'	c #6A99C9",
"j'	c #6998C7",
"k'	c #DBE5F1",
"l'	c #F8FAFC",
"m'	c #91B0D1",
"n'	c #608DBC",
"o'	c #5B89B8",
"p'	c #5A88B8",
"q'	c #5D87B3",
"r'	c #8F9199",
"s'	c #8BA3BD",
"t'	c #81B0DD",
"u'	c #A7C9E9",
"v'	c #F3F7FC",
"w'	c #EEF5FA",
"x'	c #9DC3E6",
"y'	c #7EAEDD",
"z'	c #6A99C8",
"A'	c #6796C5",
"B'	c #6392C2",
"C'	c #749DC7",
"D'	c #C6D7E8",
"E'	c #E7EDF4",
"F'	c #7399C3",
"G'	c #5785B5",
"H'	c #5684B5",
"I'	c #5582B2",
"J'	c #778AA2",
"K'	c #989496",
"L'	c #CCDFF2",
"M'	c #F5F9FC",
"N'	c #BCD6EE",
"O'	c #80B0DF",
"P'	c #79A9D7",
"Q'	c #74A4D3",
"R'	c #72A2D1",
"S'	c #6F9FCE",
"T'	c #6C9BCA",
"U'	c #6594C4",
"V'	c #6290C0",
"W'	c #608FBF",
"X'	c #5E8CBC",
"Y'	c #7EA2C8",
"Z'	c #DCE6F0",
"`'	c #A5BDD7",
" )	c #5582B3",
".)	c #5280B0",
"+)	c #507EB0",
"@)	c #6F87A3",
"#)	c #989394",
"$)	c #85ABD2",
"%)	c #8FBAE3",
"&)	c #F4F8FC",
"*)	c #DCE9F6",
"=)	c #7BABD9",
"-)	c #6D9CCB",
";)	c #6897C7",
">)	c #6695C5",
",)	c #608EBE",
"')	c #5A88B9",
"))	c #98B4D2",
"!)	c #E5ECF3",
"~)	c #5884B3",
"{)	c #4E7CAE",
"])	c #4D7BAD",
"^)	c #5E7FA5",
"/)	c #979599",
"()	c #B3D0EC",
"_)	c #7AAAD7",
":)	c #77A7D6",
"<)	c #71A0CF",
"[)	c #6F9ECD",
"})	c #628FBF",
"|)	c #5987B8",
"1)	c #5785B6",
"2)	c #5583B5",
"3)	c #6F96BF",
"4)	c #E1E9F1",
"5)	c #EEF2F7",
"6)	c #7396BD",
"7)	c #4B78A9",
"8)	c #4A77A9",
"9)	c #587CA3",
"0)	c #959295",
"a)	c #F5F8FC",
"b)	c #8DB8E2",
"c)	c #81B1E0",
"d)	c #82B2DF",
"e)	c #7EAEDC",
"f)	c #7DADDA",
"g)	c #6593C3",
"h)	c #618FBF",
"i)	c #5C8ABB",
"j)	c #5381B3",
"k)	c #517FB1",
"l)	c #CAD8E6",
"m)	c #6E92BA",
"n)	c #4775A7",
"o)	c #4674A5",
"p)	c #5679A1",
"q)	c #BCD5EE",
"r)	c #E1ECF7",
"s)	c #8BB8E2",
"t)	c #80B0DE",
"u)	c #7AAAD9",
"v)	c #6B9ACA",
"w)	c #6897C6",
"x)	c #628FC0",
"y)	c #5D8BBC",
"z)	c #507EAF",
"A)	c #4E7CAD",
"B)	c #4D7AAC",
"C)	c #A4BBD4",
"D)	c #84A2C3",
"E)	c #4471A3",
"F)	c #426FA1",
"G)	c #54769E",
"H)	c #88A6C5",
"I)	c #AFCDEB",
"J)	c #83B3E0",
"K)	c #74A3D2",
"L)	c #6695C4",
"M)	c #618FC0",
"N)	c #5F8EBE",
"O)	c #517FB0",
"P)	c #4A78AA",
"Q)	c #4977A9",
"R)	c #91ACCA",
"S)	c #688CB4",
"T)	c #416EA0",
"U)	c #3F6C9E",
"V)	c #657D99",
"W)	c #8AA4BF",
"X)	c #ADCCEA",
"Y)	c #DDEAF6",
"Z)	c #7BABDB",
"`)	c #6E9DCD",
" !	c #6291C1",
".!	c #5C8ABA",
"+!	c #5987B7",
"@!	c #5381B2",
"#!	c #4C7AAC",
"$!	c #4774A6",
"%!	c #4673A5",
"&!	c #8FAAC8",
"*!	c #FCFCFD",
"=!	c #698CB3",
"-!	c #3D6A9D",
";!	c #3B689B",
">!	c #6A7E96",
",!	c #939AA4",
"'!	c #94BDE4",
")!	c #EFF5FB",
"!!	c #87B5E1",
"~!	c #709FCF",
"{!	c #6493C3",
"]!	c #5482B4",
"^!	c #4572A4",
"/!	c #9FB5CF",
"(!	c #EFF2F6",
"_!	c #446FA0",
":!	c #3A6698",
"<!	c #3A6596",
"[!	c #898C94",
"}!	c #989495",
"|!	c #78A8D6",
"1!	c #70A0CF",
"2!	c #6C9BCC",
"3!	c #6B9AC9",
"4!	c #6090C0",
"5!	c #5886B7",
"6!	c #5583B4",
"7!	c #4F7DAF",
"8!	c #4976A8",
"9!	c #4672A4",
"0!	c #416EA1",
"a!	c #406DA0",
"b!	c #3E6B9E",
"c!	c #C5D2E1",
"d!	c #E4EAF1",
"e!	c #3B6698",
"f!	c #366295",
"g!	c #3B6594",
"h!	c #87A7C7",
"i!	c #D5E5F4",
"j!	c #7EAEDE",
"k!	c #6190C0",
"l!	c #5F8DBD",
"m!	c #4C79AB",
"n!	c #4573A5",
"o!	c #4370A3",
"p!	c #3B679A",
"q!	c #DDE4ED",
"r!	c #9AB0C9",
"s!	c #346194",
"t!	c #325E92",
"u!	c #5A7392",
"v!	c #94979F",
"w!	c #B5D2EC",
"x!	c #6896C6",
"y!	c #5280B2",
"z!	c #4572A5",
"A!	c #3E6B9D",
"B!	c #3D6A9C",
"C!	c #3A6699",
"D!	c #567CA7",
"E!	c #597CA6",
"F!	c #315D91",
"G!	c #2F5B8F",
"H!	c #908F94",
"I!	c #83ADD8",
"J!	c #89B6E1",
"K!	c #F8FAFD",
"L!	c #7CACD9",
"M!	c #6492C2",
"N!	c #4472A5",
"O!	c #396699",
"P!	c #376497",
"Q!	c #356295",
"R!	c #829DBD",
"S!	c #E5EAF1",
"T!	c #345F91",
"U!	c #2E5A8D",
"V!	c #3E628E",
"W!	c #8E9FB3",
"X!	c #97BEE5",
"Y!	c #82AAD3",
"Z!	c #9FBDDC",
"`!	c #B3CAE3",
" ~	c #BDD1E6",
".~	c #BED2E6",
"+~	c #B4CBE2",
"@~	c #A0BCD9",
"#~	c #7EA4CB",
"$~	c #618FBE",
"%~	c #5B89BA",
"&~	c #4F7DAE",
"*~	c #4D7BAC",
"=~	c #4876A8",
"-~	c #4674A6",
";~	c #406D9F",
">~	c #3A679A",
",~	c #346093",
"'~	c #345F92",
")~	c #D4DDE7",
"!~	c #7894B5",
"~~	c #2B578B",
"{~	c #295589",
"]~	c #737E91",
"^~	c #98BFE5",
"/~	c #C0D8EF",
"(~	c #7DAAD5",
"_~	c #93B7DA",
":~	c #CBDCED",
"<~	c #FAFBFC",
"[~	c #AFC6DD",
"}~	c #6B94C0",
"|~	c #5886B6",
"1~	c #4370A2",
"2~	c #3C699C",
"3~	c #325E91",
"4~	c #315D90",
"5~	c #577BA4",
"6~	c #305B8E",
"7~	c #275388",
"8~	c #3E608A",
"9~	c #909CAB",
"0~	c #8AB7E2",
"a~	c #87B0D9",
"b~	c #DEE9F4",
"c~	c #F4F7FB",
"d~	c #F7F9FB",
"e~	c #B3C7DD",
"f~	c #5482B3",
"g~	c #4B79AB",
"h~	c #396598",
"i~	c #356194",
"j~	c #305C90",
"k~	c #2E5A8E",
"l~	c #2D598D",
"m~	c #B1C1D4",
"n~	c #A5B7CD",
"o~	c #255186",
"p~	c #245085",
"q~	c #848892",
"r~	c #82AFDA",
"s~	c #C8DDF1",
"t~	c #A4C2E0",
"u~	c #C0D1E3",
"v~	c #5380B1",
"w~	c #4571A3",
"x~	c #3F6C9F",
"y~	c #376396",
"z~	c #436998",
"A~	c #F6F8FA",
"B~	c #ECEFF4",
"C~	c #295486",
"D~	c #224E82",
"E~	c #315784",
"F~	c #939AA6",
"G~	c #CFE1F3",
"H~	c #7AAADA",
"I~	c #A1C0DF",
"J~	c #E4ECF4",
"K~	c #B1C8E0",
"L~	c #8CAED2",
"M~	c #779FC8",
"N~	c #749DC6",
"O~	c #88AACE",
"P~	c #BBCEE2",
"Q~	c #BACCDF",
"R~	c #4875A7",
"S~	c #396497",
"T~	c #2D598C",
"U~	c #28548A",
"V~	c #CAD5E2",
"W~	c #708CAE",
"X~	c #214C81",
"Y~	c #1F4A7F",
"Z~	c #848790",
"`~	c #8BA4BE",
" {	c #C4DAF0",
".{	c #9FBEDE",
"+{	c #DDE7F2",
"@{	c #AAC5DF",
"#{	c #6F9AC8",
"${	c #5E8CBD",
"%{	c #5B89B9",
"&{	c #5A87B7",
"*{	c #678EB8",
"={	c #335F93",
"-{	c #285489",
";{	c #275387",
">{	c #255185",
",{	c #4D709B",
"'{	c #F6F7FA",
"){	c #1E4A7F",
"!{	c #1D497E",
"~{	c #5E7089",
"{{	c #B5D1EC",
"]{	c #99C0E5",
"^{	c #7BAAD9",
"/{	c #9FBEDD",
"({	c #E7EFF6",
"_{	c #7AA4CD",
":{	c #A0B9D4",
"<{	c #DDE6EF",
"[{	c #4471A4",
"}{	c #426FA2",
"|{	c #3C689B",
"1{	c #356294",
"2{	c #245084",
"3{	c #224D82",
"4{	c #D9E0E9",
"5{	c #56779E",
"6{	c #1B477C",
"7{	c #2C517F",
"8{	c #9299A5",
"9{	c #DAE8F5",
"0{	c #F7FAFD",
"a{	c #74A0CC",
"b{	c #6795C5",
"c{	c #608DBD",
"d{	c #5380B2",
"e{	c #5780AE",
"f{	c #4371A4",
"g{	c #305C8F",
"h{	c #214D82",
"i{	c #204C81",
"j{	c #748FB0",
"k{	c #9DAFC6",
"l{	c #194479",
"m{	c #184378",
"n{	c #8D8D92",
"o{	c #87A6C6",
"p{	c #C4DBF0",
"q{	c #7BABD8",
"r{	c #4F7DB0",
"s{	c #7496BB",
"t{	c #386598",
"u{	c #366396",
"v{	c #346295",
"w{	c #335F92",
"x{	c #2A568A",
"y{	c #285488",
"z{	c #234F84",
"A{	c #406491",
"B{	c #F9FAFB",
"C{	c #D7DEE7",
"D{	c #174278",
"E{	c #154076",
"F{	c #536884",
"G{	c #999494",
"H{	c #83AED8",
"I{	c #7AABD8",
"J{	c #6F9ECC",
"K{	c #608EBD",
"L{	c #7295BC",
"M{	c #819FC1",
"N{	c #2C588C",
"O{	c #265287",
"P{	c #204B80",
"Q{	c #1D487D",
"R{	c #1B467B",
"S{	c #F0F3F6",
"T{	c #194378",
"U{	c #143F75",
"V{	c #234877",
"W{	c #96979C",
"X{	c #82AFDB",
"Y{	c #D0E2F3",
"Z{	c #F2F7FB",
"`{	c #5F8EBD",
" ]	c #678DB7",
".]	c #7F9EC0",
"+]	c #214D81",
"@]	c #1E497E",
"#]	c #184479",
"$]	c #ABBACE",
"%]	c #6C87A8",
"&]	c #123D72",
"*]	c #194073",
"=]	c #908D91",
"-]	c #D3E4F4",
";]	c #5F8DBE",
">]	c #4B78AA",
",]	c #80A0C2",
"']	c #6F91B7",
")]	c #386497",
"!]	c #275389",
"~]	c #1C487D",
"{]	c #1A467B",
"]]	c #184379",
"^]	c #54739B",
"/]	c #BECAD8",
"(]	c #113B71",
"_]	c #123B6F",
":]	c #83858E",
"<]	c #5E8DBE",
"[]	c #C0CFE0",
"}]	c #4E77A6",
"|]	c #234F83",
"1]	c #154075",
"2]	c #143F74",
"3]	c #F8F9FB",
"4]	c #0E396F",
"5]	c #0D376D",
"6]	c #777D8B",
"7]	c #8CA2BB",
"8]	c #A9CAE9",
"9]	c #6D9DCD",
"0]	c #6A99CA",
"a]	c #517CAB",
"b]	c #EFF3F7",
"c]	c #DAE2EC",
"d]	c #356193",
"e]	c #29558A",
"f]	c #1B487D",
"g]	c #174277",
"h]	c #E5EAEF",
"i]	c #204879",
"j]	c #0B366C",
"k]	c #5D6C83",
"l]	c #A5C8E8",
"m]	c #5684B6",
"n]	c #9EB6CF",
"o]	c #6286AF",
"p]	c #336093",
"q]	c #265286",
"r]	c #1F4B80",
"s]	c #103B71",
"t]	c #C3CEDB",
"u]	c #365885",
"v]	c #093369",
"w]	c #465C7C",
"x]	c #84ABD0",
"y]	c #8DB9E2",
"z]	c #6E9CCD",
"A]	c #7697BC",
"B]	c #CCD8E5",
"C]	c #2F5B8E",
"D]	c #2C588B",
"E]	c #224E83",
"F]	c #1A457A",
"G]	c #133E74",
"H]	c #113C72",
"I]	c #A7B6CA",
"J]	c #46668E",
"K]	c #083268",
"L]	c #334F75",
"M]	c #83AED7",
"N]	c #B8D3ED",
"O]	c #5F8CBC",
"P]	c #507AA9",
"Q]	c #EDF1F6",
"R]	c #587EA9",
"S]	c #285487",
"T]	c #234E83",
"U]	c #0C376D",
"V]	c #90A3BC",
"W]	c #537096",
"X]	c #052F66",
"Y]	c #234470",
"Z]	c #80AFDC",
"`]	c #79AAD7",
" ^	c #6B9AC8",
".^	c #5C8AB9",
"+^	c #4472A4",
"@^	c #E9EEF3",
"#^	c #7090B5",
"$^	c #336094",
"%^	c #1C467B",
"&^	c #194478",
"*^	c #164177",
"=^	c #0E386E",
"-^	c #0D366C",
";^	c #0B356B",
">^	c #8096B1",
",^	c #5B769A",
"'^	c #042E65",
")^	c #193C6B",
"!^	c #6E9DCB",
"~^	c #517FB2",
"{^	c #C9D6E4",
"]^	c #AABDD3",
"^^	c #335F94",
"/^	c #1C477C",
"(^	c #103A70",
"_^	c #0A356B",
":^	c #083369",
"<^	c #788FAD",
"[^	c #627C9E",
"}^	c #022C62",
"|^	c #103667",
"1^	c #C6DBF0",
"2^	c #CDD9E6",
"3^	c #B4C5D8",
"4^	c #113C71",
"5^	c #073168",
"6^	c #778EAC",
"7^	c #627C9D",
"8^	c #012B61",
"9^	c #103566",
"0^	c #80AFDD",
"a^	c #C0D8EE",
"b^	c #5280B1",
"c^	c #BACADC",
"d^	c #C2CFDF",
"e^	c #19457A",
"f^	c #133E73",
"g^	c #798FAC",
"h^	c #5A7598",
"i^	c #002A61",
"j^	c #163A6A",
"k^	c #BAD3EC",
"l^	c #5D8CBD",
"m^	c #BCCCDD",
"n^	c #C9D5E3",
"o^	c #265288",
"p^	c #19447A",
"q^	c #0D386E",
"r^	c #0C366D",
"s^	c #073167",
"t^	c #052F65",
"u^	c #042E64",
"v^	c #8499B3",
"w^	c #536F95",
"x^	c #1D3E6B",
"y^	c #82A9D0",
"z^	c #ADCBE8",
"A^	c #7FADD8",
"B^	c #4F7CAD",
"C^	c #B3C5D8",
"D^	c #D2DCE8",
"E^	c #3B6799",
"F^	c #376295",
"G^	c #2A568B",
"H^	c #164176",
"I^	c #0F3A70",
"J^	c #0A346A",
"K^	c #083269",
"L^	c #012B62",
"M^	c #94A5BC",
"N^	c #45648C",
"O^	c #2B4870",
"P^	c #84A5C7",
"Q^	c #A3C4E4",
"R^	c #89B1DA",
"S^	c #B2C4D8",
"T^	c #D4DDE8",
"U^	c #325F92",
"V^	c #0C366C",
"W^	c #AFBCCD",
"X^	c #335581",
"Y^	c #3D5476",
"Z^	c #87A0BB",
"`^	c #96BCDF",
" /	c #96B9DD",
"./	c #AEC1D7",
"+/	c #E2E8F0",
"@/	c #3D6899",
"#/	c #123D73",
"$/	c #032D64",
"%/	c #CFD7E1",
"&/	c #1D4373",
"*/	c #54647E",
"=/	c #8C9BAE",
"-/	c #79A8D7",
";/	c #A7C5E2",
">/	c #5E8BBC",
",/	c #A9BDD4",
"'/	c #DBE3EC",
")/	c #275386",
"!/	c #0C356B",
"~/	c #F6F7F9",
"{/	c #FAFAFB",
"]/	c #022C63",
"^/	c #6E7686",
"//	c #9198A2",
"(/	c #BDD3E9",
"_/	c #5E8CBB",
":/	c #A6BBD2",
"</	c #EDF1F5",
"[/	c #184377",
"}/	c #063067",
"|/	c #173E70",
"1/	c #D4DBE4",
"2/	c #032C62",
"3/	c #7E818B",
"4/	c #94969C",
"5/	c #75A3D0",
"6/	c #DAE7F3",
"7/	c #DCE8F3",
"8/	c #6D9CCA",
"9/	c #A1B7D0",
"0/	c #E1E7EF",
"a/	c #3D689A",
"b/	c #0F396F",
"c/	c #032D63",
"d/	c #6D85A5",
"e/	c #7E93AF",
"f/	c #093064",
"g/	c #8B8A8F",
"h/	c #76A1CD",
"i/	c #9BB2CD",
"j/	c #F4F6F9",
"k/	c #3C6899",
"l/	c #0C356C",
"m/	c #09346A",
"n/	c #002A62",
"o/	c #D0D7E2",
"p/	c #1B4172",
"q/	c #0E3466",
"r/	c #799DC1",
"s/	c #90B3D6",
"t/	c #4573A4",
"u/	c #98B0CB",
"v/	c #E9EDF3",
"w/	c #456E9E",
"x/	c #255187",
"y/	c #1A457B",
"z/	c #0B356C",
"A/	c #063066",
"B/	c #11396C",
"C/	c #E8EBF0",
"D/	c #3A5376",
"E/	c #8A97A7",
"F/	c #E1EBF4",
"G/	c #D8E4F0",
"H/	c #87A4C3",
"I/	c #6083AC",
"J/	c #557AA5",
"K/	c #5479A4",
"L/	c #5277A2",
"M/	c #5176A1",
"N/	c #5075A0",
"O/	c #4E739F",
"P/	c #4C719D",
"Q/	c #4B709C",
"R/	c #496E9A",
"S/	c #476C99",
"T/	c #476B98",
"U/	c #456A96",
"V/	c #446895",
"W/	c #426693",
"X/	c #2F5788",
"Y/	c #0A366B",
"Z/	c #3C5C86",
"`/	c #A8B6C9",
" (	c #7B7F8B",
".(	c #B4CCE3",
"+(	c #709BC7",
"@(	c #5D8ABC",
"#(	c #517FAF",
"$(	c #CAD6E4",
"%(	c #90A5BE",
"&(	c #19457B",
"*(	c #90A2BA",
"=(	c #5D789B",
"-(	c #0C3266",
";(	c #7996B5",
">(	c #81A7CF",
",(	c #92B2D4",
"'(	c #5D8ABB",
")(	c #C7D4E2",
"!(	c #8AA0BB",
"~(	c #073066",
"{(	c #445978",
"](	c #8A94A3",
"^(	c #6794C4",
"/(	c #E1EAF3",
"((	c #DBE5F0",
"_(	c #5684B4",
":(	c #C8D5E3",
"<(	c #8BA0BB",
"[(	c #768DAA",
"}(	c #93A5BC",
"|(	c #022B62",
"1(	c #757B88",
"2(	c #979396",
"3(	c #6593C1",
"4(	c #7BA0C8",
"5(	c #406DA1",
"6(	c #8AA4C2",
"7(	c #ACBED4",
"8(	c #AABCD2",
"9(	c #A9BCD2",
"0(	c #A8BBD1",
"a(	c #A7BAD0",
"b(	c #A7B9CF",
"c(	c #A6B9CF",
"d(	c #A6B8CE",
"e(	c #A4B7CD",
"f(	c #A3B6CC",
"g(	c #A3B5CB",
"h(	c #A2B4CA",
"i(	c #A1B4CA",
"j(	c #A0B3C9",
"k(	c #9FB2C8",
"l(	c #9FB1C8",
"m(	c #9EB1C7",
"n(	c #9EB0C6",
"o(	c #9DAFC5",
"p(	c #57769C",
"q(	c #E5E9EE",
"r(	c #FBFBFC",
"s(	c #0D356A",
"t(	c #0A3164",
"u(	c #7E92AB",
"v(	c #E3EBF3",
"w(	c #DDE7F0",
"x(	c #265285",
"y(	c #41618A",
"z(	c #BAC5D4",
"A(	c #657184",
"B(	c #628EBC",
"C(	c #99B6D4",
"D(	c #769CC4",
"E(	c #E7EBF0",
"F(	c #315380",
"G(	c #133768",
"H(	c #798FA9",
"I(	c #E2EAF2",
"J(	c #E9EFF5",
"K(	c #4C7AAB",
"L(	c #8498B3",
"M(	c #9AABC0",
"N(	c #55657E",
"O(	c #969396",
"P(	c #7299C2",
"Q(	c #A3BBD6",
"R(	c #4D7AAB",
"S(	c #416E9F",
"T(	c #214E83",
"U(	c #0A356A",
"V(	c #0F376B",
"W(	c #F0F2F5",
"X(	c #F4F5F8",
"Y(	c #133A6D",
"Z(	c #0A3165",
"`(	c #848FA0",
" _	c #C9D7E7",
"._	c #245086",
"+_	c #0A346B",
"@_	c #CAD2DE",
"#_	c #7B91AD",
"$_	c #7A7F8A",
"%_	c #6185AD",
"&_	c #ECF1F6",
"*_	c #E1E8F1",
"=_	c #255085",
"-_	c #738AA8",
";_	c #28466F",
">_	c #8D9099",
",_	c #7196BD",
"'_	c #FCFDFE",
")_	c #B0C4DA",
"!_	c #214676",
"~_	c #F3F5F7",
"{_	c #8E8C91",
"]_	c #7E8C9E",
"^_	c #4B79AA",
"/_	c #93AFCC",
"(_	c #92ACCA",
"__	c #0A3369",
":_	c #1C4273",
"<_	c #F1F3F6",
"[_	c #3B5C86",
"}_	c #6F7686",
"|_	c #999394",
"1_	c #5F80A6",
"2_	c #4875A6",
"3_	c #B5C7DB",
"4_	c #7797BC",
"5_	c #346094",
"6_	c #245184",
"7_	c #093267",
"8_	c #D3DAE3",
"9_	c #7289A8",
"0_	c #334E73",
"a_	c #5379A5",
"b_	c #D2DDE9",
"c_	c #6C8EB6",
"d_	c #3C699B",
"e_	c #305C91",
"f_	c #0A3469",
"g_	c #DBE1E8",
"h_	c #899CB6",
"i_	c #23446D",
"j_	c #909096",
"k_	c #4973A4",
"l_	c #426FA3",
"m_	c #CED9E6",
"n_	c #7393B7",
"o_	c #09336A",
"p_	c #143B6E",
"q_	c #CBD3DE",
"r_	c #9CACC2",
"s_	c #0F3567",
"t_	c #8E8C90",
"u_	c #919096",
"v_	c #426FA0",
"w_	c #406D9E",
"x_	c #D1DCE7",
"y_	c #8DA7C4",
"z_	c #12396D",
"A_	c #E9ECF1",
"B_	c #8FA1BA",
"C_	c #083065",
"D_	c #949092",
"E_	c #878C97",
"F_	c #B2C3D7",
"G_	c #ABBDD2",
"H_	c #315D8F",
"I_	c #143F76",
"J_	c #08336A",
"K_	c #526F94",
"L_	c #7A90AD",
"M_	c #073064",
"N_	c #82848D",
"O_	c #909095",
"P_	c #3E6999",
"Q_	c #376496",
"R_	c #8BA5C2",
"S_	c #FCFDFD",
"T_	c #3C6696",
"U_	c #8C9FB8",
"V_	c #47668D",
"W_	c #0D3366",
"X_	c #939092",
"Y_	c #8E8E95",
"Z_	c #436A97",
"`_	c #5D80A8",
" :	c #ECF0F4",
".:	c #96ACC6",
"+:	c #204C80",
"@:	c #44638B",
"#:	c #DAE0E8",
"$:	c #CCD4DF",
"%:	c #254978",
"&:	c #20416D",
"*:	c #8D8B90",
"=:	c #4C6D94",
"-:	c #305B8F",
";:	c #C2CFDE",
">:	c #EBEFF4",
",:	c #5477A1",
"':	c #163D6F",
"):	c #9EAEC3",
"!:	c #F8F9FA",
"~:	c #98A9BF",
"{:	c #2F4B72",
"]:	c #707F93",
"^:	c #50749F",
"/:	c #E3E9EF",
"(:	c #5A7AA1",
"_:	c #093268",
"::	c #ABB9CB",
"<:	c #BFC9D7",
"[:	c #1F4475",
"}:	c #687284",
"|:	c #858993",
"1:	c #3E618C",
"2:	c #809AB8",
"3:	c #DEE5EC",
"4:	c #DAE1EA",
"5:	c #6986A9",
"6:	c #335A89",
"7:	c #093368",
"8:	c #0B3468",
"9:	c #3D5D87",
"0:	c #A2B1C5",
"a:	c #516E93",
"b:	c #22426D",
"c:	c #87878E",
"d:	c #707D90",
"e:	c #224D81",
"f:	c #55769E",
"g:	c #E0E6ED",
"h:	c #D8DFE8",
"i:	c #6984A6",
"j:	c #AAB8CA",
"k:	c #C7D0DC",
"l:	c #294D7B",
"m:	c #918F93",
"n:	c #566C8A",
"o:	c #234E81",
"p:	c #4B6D96",
"q:	c #98ABC3",
"r:	c #D9E0E8",
"s:	c #D3DBE5",
"t:	c #9FB0C6",
"u:	c #758DAC",
"v:	c #547197",
"w:	c #395B86",
"x:	c #234879",
"y:	c #123A6E",
"z:	c #153C6E",
"A:	c #42618A",
"B:	c #617B9D",
"C:	c #889CB5",
"D:	c #BBC6D5",
"E:	c #F7F8FA",
"F:	c #8196B1",
"G:	c #4A5E7A",
"H:	c #928F92",
"I:	c #556B88",
"J:	c #1D477B",
"K:	c #20497B",
"L:	c #7D94B2",
"M:	c #DBE1E9",
"N:	c #C8D1DD",
"O:	c #647E9F",
"P:	c #062F65",
"Q:	c #052E63",
"R:	c #4F617D",
"S:	c #6E798B",
"T:	c #3D5980",
"U:	c #133C70",
"V:	c #305481",
"W:	c #4A6990",
"X:	c #5E799D",
"Y:	c #768DAB",
"Z:	c #8DA0B8",
"`:	c #97A8BE",
" <	c #A1B0C5",
".<	c #A0B0C4",
"+<	c #95A6BD",
"@<	c #7088A6",
"#<	c #587498",
"$<	c #406089",
"%<	c #244878",
"&<	c #6A7385",
"*<	c #938F92",
"=<	c #627187",
"-<	c #284B77",
";<	c #0E386D",
"><	c #073268",
",<	c #0C3265",
"'<	c #20416C",
")<	c #626E83",
"!<	c #918E92",
"~<	c #757B89",
"{<	c #566780",
"]<	c #3B5477",
"^<	c #23436E",
"/<	c #103668",
"(<	c #103767",
"_<	c #3B5375",
":<	c #56667E",
"<<	c #747A88",
"[<	c #83848C",
"}<	c #928F91",
"|<	c #71A0CE",
"1<	c #8CB1D6",
"2<	c #A1BFDD",
"3<	c #B2CAE2",
"4<	c #BFD3E7",
"5<	c #BACFE4",
"6<	c #ACC5DE",
"7<	c #92B1D3",
"8<	c #6A95C1",
"9<	c #7BA8D5",
"0<	c #91B6DB",
"a<	c #C1D6EA",
"b<	c #EEF3F9",
"c<	c #E5ECF4",
"d<	c #8AABCE",
"e<	c #5F8BBA",
"f<	c #E9EEF4",
"g<	c #789DC4",
"h<	c #BED4E9",
"i<	c #8AA9CA",
"j<	c #BED3E8",
"k<	c #EFF4F9",
"l<	c #C2D5E8",
"m<	c #9EBBD9",
"n<	c #759EC8",
"o<	c #739CC6",
"p<	c #81A5CB",
"q<	c #A3BDD8",
"r<	c #E0E9F2",
"s<	c #618AB6",
"t<	c #AFC9E3",
"u<	c #CDDDED",
"v<	c #A0BEDC",
"w<	c #729DC9",
"x<	c #7B9FC5",
"y<	c #E7EDF3",
"z<	c #6C9ACA",
"A<	c #5D88B7",
"B<	c #7094BB",
"C<	c #8EABCB",
"D<	c #95AFCB",
"E<	c #A6BCD4",
"F<	c #A8BDD4",
"G<	c #97B0CB",
"H<	c #7497BD",
"I<	c #7293B8",
"J<	c #4A78A9",
"K<	c #DEE6EE",
"L<	c #F2F5F8",
"M<	c #4E7AAB",
"N<	c #D3DEE9",
"O<	c #5A80AC",
"P<	c #7096BF",
"Q<	c #7499C0",
"R<	c #7297BF",
"S<	c #7095BD",
"T<	c #6F94BD",
"U<	c #7296BD",
"V<	c #82A2C4",
"W<	c #B7C9DC",
"X<	c #F9FAFC",
"Y<	c #88A4C3",
"Z<	c #537BA8",
"`<	c #E4EAF2",
" [	c #F3F6F9",
".[	c #94ADC9",
"+[	c #E4EBF2",
"@[	c #F1F4F7",
"#[	c #7392B7",
"$[	c #98B2CF",
"%[	c #A5BBD4",
"&[	c #A4BAD3",
"*[	c #A3B9D2",
"=[	c #ACC0D6",
"-[	c #C4D2E2",
";[	c #B5C5D8",
">[	c #436FA3",
",[	c #7A99BB",
"'[	c #BFCDDD",
")[	c #436FA2",
"![	c #446F9F",
"~[	c #7390B3",
"{[	c #436FA1",
"][	c #CCD6E3",
"^[	c #4370A1",
"/[	c #8CA5C1",
"([	c #5B7EA7",
"_[	c #FBFCFC",
":[	c #5678A2",
"<[	c #4F74A0",
"[[	c #6E8BAE",
"}[	c #416EA2",
"|[	c #5175A0",
"1[	c #6786AA",
"2[	c #5F80A7",
"3[	c #466B96",
"4[	c #ADBED2",
"5[	c #3D699C",
"6[	c #5376A0",
"7[	c #C7D2DF",
"8[	c #91ABC9",
"9[	c #829FC0",
"0[	c #6080A8",
"a[	c #F4F6F8",
"b[	c #728DAE",
"c[	c #B0C3D7",
"d[	c #98B0CA",
"e[	c #4771A1",
"f[	c #3D699B",
"g[	c #315C8F",
"h[	c #3F6796",
"i[	c #C0CDDD",
"j[	c #E2E8EE",
"k[	c #B0C2D7",
"l[	c #D7E0EA",
"m[	c #C8D4E2",
"n[	c #BECBDB",
"o[	c #C3D0DF",
"p[	c #D0DAE5",
"q[	c #E6EBF1",
"r[	c #E3E8EF",
"s[	c #2C5486",
"t[	c #AFC2D7",
"u[	c #2A5385",
"v[	c #7897BA",
"w[	c #EAEFF4",
"x[	c #EAEEF3",
"y[	c #6C88AB",
"z[	c #1F4B7F",
"A[	c #4E75A2",
"B[	c #92AAC6",
"C[	c #CBD6E3",
"D[	c #DFE6EE",
"E[	c #F5F7FA",
"F[	c #F7F9FA",
"G[	c #F4F7F9",
"H[	c #F0F3F7",
"I[	c #E8ECF2",
"J[	c #DAE1E9",
"K[	c #B4C3D4",
"L[	c #5C7CA3",
"M[	c #3A6393",
"N[	c #3F6795",
"O[	c #406896",
"P[	c #3C6392",
"Q[	c #37608F",
"R[	c #2F588A",
"S[	c #254F83",
"                                                                                                                                                                                                                                                                                                                                ",
"                                                                                                                                                                                                                                                                                                                                ",
"                                                                                                                                                                                                                                                                                                                                ",
"                                                                                                                                                                                                                                                                                                                                ",
"                                                                                                                                                                                                                                                                                                                                ",
"                                                                                                                                                                                                                                                                                                                                ",
"                                                                                                                                                                                                                                                                                                                                ",
"                                                                                                                                                                                                                                                                                                                                ",
"                                                                                                                                                                                                                                                                                                                                ",
"                                                                                                                                                                                                                                                                                                                                ",
"                                                                                                                                                                                                                                                                                                                                ",
"                                                                                                                                                                                                                                                                                                                                ",
"                                                                                                                                                                                                                                                                                                                                ",
"                                                                                                                                                                                                                                                                                                                                ",
"                                                                                                                                                                                                                                                                                                                                ",
"                                                                                                                                                                                                                                                                                                                                ",
"                                                                                                                                                                                                                                                                                                                                ",
"                                                                                                                                                                                                                                                                                                                                ",
"                                                                                                                                                                                                                                                                                                                                ",
"                                                                                                                                                                                                                                                                                                                                ",
"                                                                              . . . . . . . . . . . . . .                                                                                                                                                                                                                       ",
"                                                                      . . . . . + @ # $ % % & % $ # @ + . . . . .                                                                                                                                                                                                               ",
"                                                              . . . . . . * = - ; > , ' ) ! ~ { ] ^ / ( _ : < . . . . . .                                                                                                                                                                                                       ",
"                                                          . . . @ [ } | 1 1 1 1 2 1 1 1 3 2 4 5 6 7 8 9 0 a b c d e f g . . .                                                                                                                                                                                                   ",
"                                                      . . . @ h i j 1 1 1 1 1 1 1 1 1 2 1 k l 5 7 m n 9 o p q r r s t u v w . . . .                                                                                                                                                                                             ",
"                                                  . . . x - 1 1 2 1 1 1 1 1 1 1 1 1 1 1 k y 6 z 8 A 0 B a c C D s E F G H I J K @ . .                                                                                                                                                                                           ",
"                                              . . . L M N 1 1 2 1 1 1 1 1 1 1 1 1 1 O P Q R S T U V W o q C r s X F Y G Z `  ...+.@.. . .                                                                                                                                                                                       ",
"                                            . . L #.1 1 1 1 1 1 1 1 1 $.%.&.*.=.-.;.;.;.;.;.;.;.;.;.>.,.'.).!.~.{.].^./.` (._.:.<.[.}.|.. . .                                                                                                                                                                                   ",
"                                        . . . 1.1 2 2 1 1 1 1 1 1 2.3.;.;.4.5.6.7.8.9.0.a.a.b.c.d.e.f.6.g.h.;.;.i.j.k.` l.m.:.n.o.o.p.q.r.. . .                                                                                                                                                                                 ",
"                                      . . L s.1 1 1 1 1 1 1 t.u.v.;.;.w.x.y.z.A.2 k l 6 m 8 V 9 o b C B.C.D.E.F.;.;.G.H.I.:.<.J.o.K.L.M.N.O.P.. .                                                                                                                                                                               ",
"                                    . . Q.1 1 1 1 1 1 1 R.S.;.5.v.T.U.1 1 1 2 V.W.X.5 Y.8 V 0 W b Z.`. +s {..+^.++@+#+;.;.$+%+&+*+=+-+;+>+,+'+)++ . .                                                                                                                                                                           ",
"                                . . . !+1 2 2 1 1 1 ~+{+4.;.]+^+/+1 1 1 1 2 3 W.(+5 z 8 8 9 W a _+C D D :+{.]./.I <+[+}+|+;.;.1+2+3+4+N.5+6+7+8+9+0+. .                                                                                                                                                                         ",
"                              . . & a+1 2 1 1 1 /+b+;.c+3.d+1 1 1 1 1 1 1 1 W.l l z m e+0 W f+b g+r  +E {.^.h+i+` (.j+:.k+l+m+;.;.n+o+,+'+p+q+r+s+t+u+. .                                                                                                                                                                       ",
"                            . . v+w+1 1 1 1 1 ~+x+;.y+z+1 1 1 1 1 1 1 1 2 3 k 5 A+B+8 9 C+o q Z.r D D+:+].h+E+` <+j+:.<.F+G+H+I+;.;.J+K+6+L+M+s+N+O+P+Q+. .                                                                                                                                                                     ",
"                          . . R+S+1 1 1 1 1 T+;.U+V+1 1 1 1 1 1 1 1 1 2 W+k l z 7 8 V 0 B b c X+ +Y+{.Y ^.E+i+(. ._.Z+`+*+=+ @3+.@+@;.;.@@M+s+#@O+$@%@&@*@. .                                                                                                                                                                   ",
"                          . $ =@1 2 1 1 1 -@;.;@~+1 1 1 1 1 1 1 1 1 2 3 k 5 5 m 8 V 9 B b >@,@D s X ].]./.` <+'@_.n.<.o.=+p.)@4+!@5+~@;.;.{@]@^@/@(@(@_@:@<@. .                                                                                                                                                                 ",
"                        . . [@1 1 1 1 1 }@;.|@/+1 1 1 1 1 1 1 1 1 1 1 W.l 6 7 8 n C+W b >@C D s E 1@].H 2@<+ ._.n.k+o.=+ @3+4+;+,+3@7+4@5@;.6@O.7@(@8@9@0@a@b@.                                                                                                                                                                 ",
"                      . . c@1 2 1 1 d@w.;.u.1 1 1 1 1 1 1 1 1 1 2 1 W.X.A+e@f@n 9 W b c r r s E {.].H 2@<+ ._.<.<.o.g@q.)@M.!@!@'+p+L+h@i@5@;.j@k@_@l@m@n@o@p@+ .                                                                                                                                                               ",
"                    . . q@1 2 1 1 1 r@;.s@1 1 1 1 1 1 1 1 1 1 1 t@2 u@v@z 7 8 V W b w@C X+x@D+{.^.G I `  ._.:.<.y@K.L.3+z@N.!@'+p+7+A@s+B@C@D@;.E@F@m@G@H@I@J@K@. .                                                                                                                                                             ",
"                    . L@1 2 1 1 1 M@;.N@1 1 1 1 1 1 1 1 1 1 1 3 W+4 O@z m V V W o P@Q@r x@s {.].R@/.` S@_.:.<.o.T@L.q.4+>+!@'+U@8+M+h@N+O+7@V@W@;.X@Y@Z@`@J@ #.#+#. .                                                                                                                                                           ",
"                  . . @#1 2 1 1 s@;.##1 1 1 1 1 1 1 1 1 1 1 W.1 k l z $#8 A %#a b C X+D s E 1@^.I Z &#m.:.<.J.o.=+q.3+N.;+*#U@7+M+A@N+=#$@V@-#P+;#;.>#o@,#'#)#!#~#{#.                                                                                                                                                           ",
"                . . ]#1 1 1 1 ^#;./#1 1 1 1 1 1 1 1 1 1 1 W.1 k l (#m _#V W o b c r x@s :#{.R@I i+<+ .:.<.`+o.=+q.)@>+!@<#6+7+L+h@N+O+$@[#8@_@9@}#|#;.1#2# #!#3#4#5#. .                                                                                                                                                         ",
"                . 6#j 1 1 1 7#8#x+$.1 1 1 1 1 1 1 1 1 1 W+1 9#k O@z 8 A 9 o b q C x@D X F ^./.I &# ._.:.`+o.0#a#3+4+N.5+'+b#M+A@c#B@d#7@(@8@e#m@G@f#f.;.g#h#i#j#k#l#m#.                                                                                                                                                         ",
"              . . c@1 1 1 1 n#;.o#1 1 1 1 1 1 1 1 1 1 2 1 k 9#5 z f@p#0 o a q Q@r s :+1@^.h+i+`  .j+q#r#o.K.p.3+4+>+s#'+6+t#r+s+=#O+7@(@_@9@m@G@Z@u#v#;.w#x#j#k#y#z#A#. .                                                                                                                                                       ",
"              . B#1 2 1 1 C#;.D#1 1 1 1 1 1 1 1 1 1 1 1 k k 6 z E#8 0 W a c C D D E F#].G I <+<+_.:.<.o.K.q.q.4+>+5+5+p+M+M+s+N+$@$@(@G#_@0@H#I#J#J@'#K#;.L#k#k#M#N#O#P#. .                                                                                                                                                     ",
"            . + Q#1 1 1 1 y+y+R#1 1 1 1 1 1 1 1 1 1 S#W.y 5 z f@8 V W o q C ,@ +s {.1@H I ` (.j+:.Z+`+o.=+p.z@>+!@,+b#7+M+s+=#O+$@(@T#U#m@V#H@o@W#2#.#X#;.;.Y#Z#`# $.$+$@$.                                                                                                                                                     ",
"            . #$$$1 1 1 %$;.^+1 1 1 1 1 1 1 1 1 1 t@W+9#5 6 m 8 V 0 a c _+r D &$*$=$-$;$>$G.G.>$,$k+G+'$p.4+N.!@,+p+7+M+)$N+!$$@(@-#_@m@G@Z@o@J@~$ #{$j#]$;.^$`#/$($_$:$<$.                                                                                                                                                     ",
"          . . [$1 1 1 }$c+|$1 1 1 1 1 1 1 1 1 1 2 2 W.l 5 7 8 V 1$B b q 2$3$4$5$6$;.;.;.;.h.h.;.7$o.=+p.3+4+>+,+'+7+q+A@c#O+$@7@(@_@9@8$H@9$,#0$ #!#{$a$b$c$d$e$($f$g$h$i$. .                                                                                                                                                   ",
"          . # 1 1 1 1 s@;.j$1 1 1 1 1 1 1 1 1 W+1 k l 6 m m V W o b c k$;.;.h.;.;.;.;.;.;.;.;.;.l$K.q.-+4+!@!@3@p+M+A@s+O+!$V@-#_@l@m$n$o@`@J@ #!#o$p$k#l#q$;.r$f$g$s$t$u$v$.                                                                                                                                                   ",
"          . w$1 2 1 1 x$=.1 1 1 1 1 1 1 1 1 1 t@W+u@5 z 7 A 9 W b q g+,@h.;.;.;.;.h.;.;.;.;.;.h.y$=+3+3+N.z$'+p+7+A@s+=#^@7@(@T#l@m@G@H@,#J@2#)#A$j#B$l#Z#C$;.;.D$E$t$F$G$H$. .                                                                                                                                                 ",
"        . I$Q#2 1 1 J$;.K$1 1 1 1 1 1 1 1 2 3 W.X.l z m V V W a c C r L$;.;.;.;.M$N$O$P$Q$;.;.;.R$3+4+>+!@'+b#8+A@s+N+^@S$(@8@e#m@G@Z@`@J@~$h#o$j#4#l#Z#`#($T$;.U$t$V$W$X$Y$Z$.                                                                                                                                                 ",
"        . & `$1 1 1  %w.1 1 1 1 1 1 1 1 1 3 2 l l z z .%V W p b C k$ ++%@%#%$%%%&%*%m.:.=%;.;.h.-%3+>+!@'+6+7+M+A@=#O+$@(@-#9@e#G@Z@,#,#'#!#;%j#a$y#y#`#/$>%,%'%)%!%G$~%X${%]%.                                                                                                                                                 ",
"        . ^%1 1 1 /%(%N@1 1 1 1 1 1 1 1 W+t@k l _%m 8 9 :%o b c r D s :+<%R@/.` <+[%_.<.@%;.;.;.-%}%!@5+|%7+M+h@N+O+$@1%G#_@l@V#2%o@`@'# #!#j#B$k#y#3%4%5%_$6%7%;.8%9%0%a%{%b%.                                                                                                                                                 ",
"      . . c%1 1 1 d%;.e%1 1 1 1 1 1 1 2 1 4 u@z z 8 V 0 a b c g+x@s :+Y ^.I i+(. .:.q#`+@%;.;.;.f%>+,+p+g%M+h@=##@$@S$-#h%l@G@G@o@`@2#.#!#j#B$i%j%`# $($_$E$k%l%;.m%n%a%o%p%q%. .                                                                                                                                               ",
"      . . 1 1 1 1 r%U+1 1 1 1 1 1 1 2 3 k u@5 z m V 9 o B >@g+D s X 1@]./.i+<+ .j+<.<.o.@%;.;.;.f%5+'+p+M+h@s+=#/@7@(@_@e#m@G@I#`@J@ #s%{$j#k#y#Z#`#($t%u%s$t$v%;.w%x%y%z%A%B%. .                                                                                                                                               ",
"      . L 1 1 1 1 C%D%1 1 1 1 1 1 1 2 k 9#6 z 8 _#C+E%a _+C r  +E {.].F%i+(.(.G%n.J.o.K.H%;.;.;.I%,+p+q+A@s+=#$@7@(@T#9@0@G@9$u#J@2#!#o$j#k#j%M# $($.$_$s$t$u$G$J%;.K%L%A%M%N%O%.                                                                                                                                               ",
"      . } 1 1 1 A.;.P%1 1 1 1 1 1 W+W.y 5 z 7 .%9 W o q c r x@Y+{.].H Q%` <+j+R%<.S%G+=+H%;.;.;.I%6+7+M+s+=#O+$@(@-#_@m@V#H@T%J@2# #{$j#p$i%Z#`# $t%_$E$s$F$~%U%V%;.W%L%X%Y%Z%`%.                                                                                                                                               ",
"      .  &1 1 1 .&;.A.1 1 1 1 1 V.S#4 5 6 m .%9 W a +&C ,@@&:+{.].^.I ` (._._.<.F+G+'$q.H%;.;.;.#&7+M+$&=#!$7@(@-#_@9@G@Z@,#J@~$.#{$j#B$k#%&`#/$.$_$E$k%u$G$U%&&*&;.=&-&B%Z%;&>&. .       ,&,&,&,&,&,&,&,&                                                                                                                      ",
"    . . c@2 1 1 '&8#/+1 1 1 1 2 2 k l 5 )&8 V W a b q k$x@s {.1@^./.` ` [%_.n.`+o.=+p.3+!&;.;.h.~&{&r+s+O+$@7@-#_@9@m@Z@n@,#2# #{${$a$k#y#M# $]&^&g$s$t$F$~%X$x%/&6.(&_&Z%:&<&[&b@.       ,&,&,&,&,&,&,&,&                                                                                                                      ",
"    . . a+1 1 1 r@}&|&1 1 1 W.1 k l 6 m 8 n 9 o b c k$D s D+].^./.I l.m.:.1&F+o.=+q.2&4+H%;.;.;.~&r+s+O+$@V@-#_@l@m$3&o@`@'# #)#o$a$k#4&M#/$($f$g$5&t$u$9%X$x%o%6&7&8&9&0&a&b&c&d&.       ,&,&                                                                                                                                  ",
"    . . @#1 1 1  %{+1 1 1 2 1 W.(+5 7 m V W W b q r r @&{.e&h+G ` `  ._.f&`+o.=+L.2&g&!@!&;.;.h.h&s+O+O+V@G#-#9@8$H@H@`@2# #!#{$4#4#l#3% $($.$E$E$t$F$9%i&x%o%p%j&k&l&m&;&b&n&o&p&.       ,&,&                          ,&            ,&                        ,&            ,&                                                ",
"    . . , 1 1 R#q&r&1 1 S#V.S#(+5 z 8 A 9 W a q C r @&E e&^./.I ` (._.f&J.o.G+=+3+4+N.5+H%;.;.;.h&N+^@7@(@T#e#m@G@Z@`@J@s&s%o$j#4#l#Z#`#($f$_$E$t&u$G$X$&&a%u&A%v&w&w&m&<&x&y&z&A&.       ,&,&                ,&,&,&,&,&,&,&    ,&,&,&,&,&,&          ,&,&  ,&,&,&,&,&    ,&,&,&,&,&          ,&,&                              ",
"    . . ' 1 1 B&y+u.1 1 2 S#l l z m e+0 W f+>@Q@r s X {.^./.i+` S@m.f&k+o.K.=+3+4+>+!@'+!&;.;.h.C&^@S$1%8@9@m@G@2%`@J@2#!#{$j#4#y#Z#`#($t%u%E$t$V$G$X$x%D&o%A%X%E&F&G&H&b&y&I&J&K&.       ,&,&                ,&,&,&          ,&,&,&      ,&,&        ,&,&,&,&    ,&,&,&,&,&      ,&,&        ,&,&                              ",
"    . . L&1 1 A.v.r%1 W.1 k l O@)&_#9 9 o b C r D X {.].h+I ` <+ .:.<.F+G+=+q.)@M&!@5+|%N&;.;.;.O&d#(@T#_@P&V#Z@o@J@'#Q&!#j#4#k#Z#N# $R&_$g$s$t$G$9%X$a%S&A%X%B%0&T&d$U&V&I&W&X&Y&.       ,&,&,&,&,&,&,&,&    ,&,&            ,&,&          ,&,&      ,&,&          ,&,&,&        ,&,&        ,&,&                              ",
"    . . L&1 1 7#Z&r%2 W.y l z f@8 V W a b C r  +s {.1@^.Q%` l.j+:.Z+`+*+=+ @2&N.>+,+'+7+=%;.;.;.`&1%8@U#9@G@n$o@J@2# *!#j#B$i%Z#`#O#($_$E$k%t$G$9%n%a%o%p%.*B%Z%:&T&g.+*@*W&#*J&Y&.       ,&,&,&,&,&,&,&,&    ,&,&          ,&,&            ,&,&      ,&,&          ,&,&          ,&,&                                          ",
"    . . ' 1 1 $.x$$*3 k (+5 z 8 V 9 B %*>@Q@D s D+1@^./.I <+ .&*Z+k+**G+p.3+4+!@5+'+p+{&=%;.;.;.=*(@_@e#m@H@o@`@-* #)#;*>*k#y#Z# $($^&_$,*t$F$U%X$a%a%z%A%M%N%0&U&T&'*)*I&#*W&!*K&.       ,&,&                ,&,&          ,&,&            ,&,&      ,&,&          ,&,&          ,&,&                                          ",
"    . . , 1 1 ~*x+{*W.l 6 7 8 V 0 E%a >@C L$s E 1@^.H E+(.(.G%R%J.o.K.'$3+4+]*,+'+p+q+A@!&;.;.;.^*_@9@0@G@o@,#-* #!#{$j#k#y#M# $($t%u%E$t$V$~%X$x%D&z%A%X%/*:&;&(*_*:*<*[*W&W&}*A&.       ,&,&                ,&,&          ,&,&            ,&,&      ,&,&          ,&,&          ,&,&                                          ",
"    . . @#1 1 1 |*1*k 5 z )&p#9 o o c c D 2*X e&<%F%I 3*(.j+<.<.o.o.'$q.M.]*!@4*6+M+M+s+!&;.;.;.5*U#m$V#2%6*J@ # #o$j#B$y#%&4% $f$_$s$s$F$9%9%7*8*9*p%X%/*Z%;&a&0*a*b*W&c*W&W&d*p&.       ,&,&                ,&,&          ,&,&            ,&,&      ,&,&          ,&,&          ,&,&                                          ",
"    . . a+1 1 V.e*f*(+z 7 p#9 W a q C ,@2*X {.].^.I ` (._.:.<.y@K.g*q.3+N.!@'+p+7+M+s+#@!&;.;.;.5*m@G@H@,#J@2#.#{$j#a$k#Z#`#/$.$_$E$k%V$G$h*&&8*o%p%X%N%Z%;&i*b&j*k*l*m*W&W&W&n*d&.       ,&,&                ,&,&          ,&,&            ,&,&      ,&,&          ,&,&          ,&,&                                          ",
"    . . c@2 3 S#o*p*q*m V V W o c q r r*:+{.]././.2@&#G%q#<.[.o.L.q.4+>+!@'+p+L+t#$&s*O+t*;.;.h.u*G@Z@`@J@~$ *A$v*4#l#Z#`#/$f$_$E$,*u$w*9%x*a%o%p%M%B%Z%;&y*b&V&z*'%A*W&W&W&c*B*b@.       ,&,&                ,&,&            ,&,&        ,&,&,&      ,&,&          ,&,&          ,&,&        ,&,&                              ",
"      .  &W.1 k C*D*E*8 n 1$F*b c k$D s {.].^./.I &#[%:.Z+J.o.=+q.3+N.>+,+4*7+M+A@s+O+$@!&;.;.;.u*n$o@6*'# #!#j#a$k#4&z#/$($f$g$s$t$u$~%X$a%o%p%A%M%/*G*H*b&V&y&I*;.J*W&W&W&W&K*. .       ,&,&                ,&,&              ,&,&,&,&,&,&,&        ,&,&          ,&,&          ,&,&        ,&,&                              ",
"      . L*V.W.l M*;.N*V :%W b c r D s {.].h+/.` (. .:.<.`+o.=+g*)@4+!@5+3@7+M+h@s+O+$@V@t*;.;.h.O*o@`@~$ #!#o$4#k#4&z#O#($f$E$s$t$G$9%0%x%P*L%Q*B%R*S*;&b&V&I&I&T*;.U*W&W&W&W&V*.         ,&,&                ,&,&                ,&,&,&,&,&          ,&,&          ,&,&            ,&        ,&,&                              ",
"      . L S#u@O@$#;.W*9 W b c g+D 2*:+.+^.F%I ` (._.R%J.S%G+q.3+4+N.5+'+p+L+A@s+B@d#7@(@!&;.;.;.X*,#J@2#h#A$j#k#l#Z#`#($.$_$E$t$Y*G$X$&&a%z%A%M%B%0&;&Z*`*y&I& =.=;.+=W&W&W& =@=.                                                                                                                                               ",
"      . . X.5 z m #=$=W b >@Q@D s X {.^./.i+`  .&*R%r#o.*+p.3+4+>+5+'+6+L+h@s+#@$@7@(@8@t*;.;.h.%=&=2#)#{$j#k#y#Z#`#($f$u%E$h$F$w*X$x%o%o%A%_&*=0&;&a&==-=I&[*c*;.;.W&W&W&W&W&. .                                                                                                                                               ",
"      . . ;=_%m 8 >=;.,=w@C r D X {.].^.E+` l.&*:.<.J.G+=+q.4+N.!@,+|%7+M+s+N+O+$@(@-#h%!&;.;.;.'='# #!#j#k#k#Z#`#)=]&_$g$s$Y*G$!=X$y%P*p%M%B%:&0&i*b&y&y&[*c*~=;.{=W&W&W&W&]=. .                                                                                                                                               ",
"        . ^=)&8 9 /=6.(=Q@r  +X {.1@h+_=` (. .:.<.`+**=+q.g&M&!@,+6+8+M+]@:=<=[=}=|=1=2=3=;.;.h.4=5=6=7=8=9=0=a= $($_$E$k%F$G$b=X$a%o%z%A%N%Z%;&a&b&V&c=[*c*W&d=;.e=W&W&W&W&f=.                                                                                                                                                 ",
"        . & g=9 9 a h=i=X+L$D+D+<%^.I i+(._._.1&F+*+*+ @4+4+!@5+p+p+M+h@j=;.h.h.h.h.h.;.;.;.;.k=;.;.h.h.h.h.h.^$($_$_$k%u$l=h*X$D&a%p%A%B%Z%0&i*y*m=-= =W&W&n=o=p=q=W&W&W&r=s=.                                                                                                                                                 ",
"        . I$t=1$W b u=h.D s {.1@^.H i+v= .j+n.k+o.K.p.3+;+!@,+'+p+q+r+s*w=;.;.;.;.;.;.;.;.;.;.;.;.;.;.;.;.;.;.x=f$E$s$t$y=h*X$x%D&z%A%M%9&0&a&b&n&z=I&#*W&W&A=;.B=W&W&W&c*C=d&.                                                                                                                                                 ",
"          . D=F*b c C ;.E=E ].^./.E+&# ._.<.<.o.K.q.3+4+!@,+U@p+M+F=s+O+G=;.;.;.;.;.;.;.;.;.;.;.;.;.;.;.;.;.;.H=I=s$t$u$9%X$x%y%p%p%M%/*0&J=i*V&y&I&#*W&W&W&K=;.L=W&W&W&W&M=. .                                                                                                                                                 ",
"          . # a q C r N=O=P=].F%Q%`  .G%:.<.[.K.g*3+z@N.z$'+p+7+M+s+=#^@O.Q=R=S=S=T=T=U=V=W=X=Y=Z=Z=`=`= -.-+-@-E$t$F$G$U%&&D&#-A%X%B%Z%;&<&b&V&I&[*c*W&W&$-;.%-W&W&W&W&W&&-.                                                                                                                                                   ",
"          . . *-C r 2*=-;.--/.I `  ._.f&<.o.K.g*3+4+N.s#'+p+L+A@s+=#^@S$(@8@_@m@G@Z@;-J@>- #o$j#4#4&Z#`#/$f$_$E$t$u$w*9%7*a%L%p%M%B%0&;&i*x&V&I& =W&W&W&W&,-;.'-W&W&W&c*)-. .                                                                                                                                                   ",
"            . !-~-L$s {.{-Q$/.` &# .f&n.J.T@=+3+3+N.!@,+4*L+M+F=N+O+7@7@-#_@9@G@2%,#,#'# #!#o$a$l#y#`# $]&_$g$t$F$G$~%X$]-o%A%A%B%/*:&J=b&m=z=W&[*W&W&W&^-;./-(-W&W&W&W&_-.                                                                                                                                                     ",
"            . + :-s {.].<-;.[-<+ .:.<.`+o.=+a#)@N.!@5+4*7+M+h@s+O+$@V@8@_@m@V#Z@o@`@'# #!#j#4#k#y#3%/$R&_$:$5&}-G$9%X$x%o%L%_&B%Z%S*a&b&V&I&W&c*W&W&W&W&|-;.1-W&W&W&W&2-0+.                                                                                                                                                     ",
"              . 3-E ].^.I 4-5-/ :.:.`+o.K.p.3+N.N.,+'+p+M+A@=#=#/@7@8@-#e#G@G@o@,#2#2#!#;*j#6-j%N# $($.$g$k%t$G$G$0%7*S&p%A%B%B%:&;&b&b&y&[*#*W&W&W&W&7-;.8-W&W&W&W&W&9-. .                                                                                                                                                     ",
"              . . 0-]./.i+a-Q$b-q#J.o.G+p.-+4+>+5+'+p+L+h@s+=#/@S$(@8@9@m@G@o@6*J@ #)#{$c-k#y#Z#`#)=f$u%E$t$l=U%X$x%a%o%A%M%*=0&;&i*b&@*I&c*W&W&W&W&d-e-;.f-W&W&W&c*g-. .                                                                                                                                                       ",
"                . h-a-i+&# .i-;.j-o.K.q.3+4+N.,+'+p+7+h@s+=#$@7@(@8@9@m@G@I#6*-*k-!#!#j#k#y#M#`#($5%I=s$t$V$W$X$x%D&z%l-B%Y%:&m-i*b&y&I&[*W&W&W&W&W&n-;.o-W&W&W&W&W&p-.                                                                                                                                                         ",
"                . . q-` <+j+:.r-;.s-=+q.4+>+!@,+6+7+M+s+N+O+$@(@8@t-m@G@H@o@J@2# #!#j#4#u-Z#`# $($_$s$,*F$G$9%i&a%o%9*_&N%0&;&a&n&y&@*[*c*W&W&W&W&v-;.w-W&W&W&W&W&x-. .                                                                                                                                                         ",
"                  . . y-_.n.<.k+z-;.A-z@N.!@,+p+7+M+r+=#!$$@(@G#h%m@G@H@o@J@2#.#{$j#a$6-Z#`#/$($_$E$k%Y*G$9%i&y%o%B-X%B%0&:&i*b&V&C-[*c*W&W&W&W&D-;.e-q=W&W&c*W&E-F-.                                                                                                                                                           ",
"                    . G-_.H-F+T@I-J-K-4+!@,+'+p+M+r+s+O+L-7@(@_@9@m@H@9$6*2# #{$A$a$k#y#Z# $($f$E$,*F$V$~%i&a%o%z%A%M%Z%:&a&b&M-I&N-m*W&W&W&W&O-P-7&Q-W&W&W&c*W&R-. .                                                                                                                                                           ",
"                    . . S-J.G+=+q.T-U-V-W-3@7+{&r+s+X-$@S$(@_@9@0@H@o@W#J@ #!#o$a$k#j%M#/$($f$g$,*t$u$U%X$x%D&p%A%M%/*Y-a&i*V&y&I&#*W&W&W&W&Z-;.;.`-W&W&W&c*W& ;. .                                                                                                                                                             ",
"                      . . .;g@p.2&g&+;;.K-7+8+A@s+O+O+7@(@8@l@8$G@2%,#J@2#!#{$@;B$y#Z##; $.$g$E$t$F$~%9%7*S&o%Q*X%/*Z%;&a&n&c=$;#*c*W&W&W&%;&;g.*;W&W&W&c*=;-;0+.                                                                                                                                                               ",
"                        . . ;;3+4+M&!@>;j@,;';s+N+!$V@(@-#P&m@G@Z@,#J@2# #o$j#4#l#Z#`#/$f$_$E$t&u$W$X$x%a%p%A%M%B%0&;&);V&V&I&=;W&W&W&W&!;;.~;{;W&W&W&W&W&];b@.                                                                                                                                                                 ",
"                          . g ^;>+5+'+4*/;J-;.(;O+7@7@8@9@_;G@H@`@J@2#h#A$j#a$y#y#`# $f$u%E$t$}-w*~%x%a%o%A%X%*=9&:;H*`*y&z=[*c*W&W&W&<;;.[;};W&W&W&W&W&|;K&. .                                                                                                                                                                 ",
"                          . . 1;2;<#4*L+M+3;4;;.5;7@G#_@l@6;2%o@J@'# #!#j#4#k#y#`#/$($_$g$7;F$G$9%X$x%o%8;M%B%Z%0&y*b&V&I&W&c*W&W&9;0;;.l*9;W&W&W&W&c*d*a;. .                                                                                                                                                                   ",
"                            . . b;c;7+M+h@=#O+d;f.,;e;9@G@H@o@`@2#2#!#j#4#l#y#z# $($_$E$t$t$G$U%0%a%S&8;f;B%Z%:&;&b&V&@*W&#*W&g;h;;.h.8-W&W&W&W&c*W&!*i;. .                                                                                                                                                                     ",
"                              . . j;k;A@N+B@L-(@l;m;;.n;o;o@`@J@2#s%o$>*k#y#Z# $($_$_$s$t$F$9%X$a%a%z%A%M%Z%0&a&i*M-y&W&#*W&p;q;;.r;s;W&W&W&W&c*W&t;A&. .                                                                                                                                                                       ",
"                                . . . u;=#7@v;(@_@9@w;x;;.y;z;2#!#{$j#k#y#M#`#($f$u%,*t$y=W$X$x%D&z%A%A;N%:&;&<&M-c=I&z=O-B;;.r;C;W&W&W&W&c*c*W&D;b@. .                                                                                                                                                                         ",
"                                    . . E;$@(@8@_@m@6;F;G;;.H;I;J;j#4#k#Z#`#($.$_$s$s$F$G$9%x%a%z%9*M%N%0&G*a&n&y&I&= K;~;;.L;M;W&W&W&W&W&W&W&N;0+. .                                                                                                                                                                           ",
"                                      . . O;P;U#m@G@H@o@J@Q;R;S;;.T;U;V;W; $.$_$E$k%Y*G$X;n%8*o%A%X%B%Z%:&i*Y;Z;`;g.;.p= >.>W&W&W&W&W&c*W&+>R-. .                                                                                                                                                                               ",
"                                        . . . @>V#o@,#J@2# #o$;*#>$>;.;.6.%>&>*>=>u$V$U%i&a%o%z%M%B%->;>>>P-~;;.;.,>'>W&W&W&W&W&W&W&c*W&)>. . .                                                                                                                                                                                 ",
"                                            . . !>~>I@-* #!#o$p$k#y#{>]>^>/>(>;.;.;.(>_>:><>[>w&d$;.;.;.h.0;}>|>1>W&W&W&W&W&W&W&W&W&2>3>. . .                                                                                                                                                                                   ",
"                                              . . . 4>5>6>v*4#l#y#Z#/$]&t%E$,*7>8>9>0>a>b>c>d>e>f>g>h>i>V&@*I&c*W&W&W&W&c*W&W&j>E-k>. . .                                                                                                                                                                                       ",
"                                                  . . . l>m>k#l#n>`#/$.$_$s$t$u$G$9%&&a%u&A%M%N%0&;&Z*`*y&C-=;W&W&W&W&c*W&W&o>k>b@. .                                                                                                                                                                                           ",
"                                                      . . . b@p>q>r>f$E$E$t$u$G$X$x%a%o%A%M%*=Z%;&a&b&-=I&[*c*W&W&W&|;n*x-&-. . . .                                                                                                                                                                                             ",
"                                                          . . . b@s>t>u>5&V$G$9%&&a%o%l-A%B%Z%0&y*b&y&y&W&c*=;W&v>w>a;F-. . .                                                                                                                                                                                                   ",
"                                                              . . . . . . x>y>z>A>B>M;C>D>E>F>d-G>H>I>2>J>K>3>. . . . . .                                                                                                                                                                                                       ",
"                                                                      . . . . . + b@L>F-Z$Z$Z$Z$F-L>b@0+. . . . .                                                                                                                                                                                                               ",
"                                                                              . . . . . . . . . . . . . .                                                                                                                                                                                                                       ",
"                                                                                  . . . . . . . . . .                                                                                                                                                                                                                           ",
"                                                                                  . . . . . . . . . .                                                                                                                                                                                                                           ",
"                                                                                  . . . . . . . . . .                                                                                                                                                                                                                           ",
"                                                                                  . . . . . . . . . .                                                                                                                                                                                                                           ",
"                                                                                  . . . . . . . . . .                                                                                                                                                                                                                           ",
"                                                                                  . . . . . . . . . .                                                                                                                                                                                                                           ",
"                                                                                  . . . . . . . . . .                                                                                                                                                                                                                           ",
"                                                                                  . . . . . . . . . .                                                                                                                                                                                                                           ",
"                                                                                  . . . . . . . . . .                                                                                                                                                                                                                           ",
"                                                                                  . . . . . . . . . .                                                                                                                                                                                                                           ",
"                                                                                  . . . . . . . . . .                                                                                                                                                                                                                           ",
"                                                                                  . . . . . . . . . .                                                                                                                                                                                                                           ",
"                                                                                  . . . . . . . . . .                                                                                                                                                                                                                           ",
"                                                                                  . . . . . . . . . .                                                                                                                                                                                                                           ",
"                                                                                  . . . . . . . . . .                                                                                                                                                                                                                           ",
"                                                                                  . . . . . . . . . .                                                                                                                                                                                                                           ",
"                                                                                  . . . . . . . . . .                                                                                                                                                                                                                           ",
"                                                                                  . . . . . . . . . .                                                                                                                                                                                                                           ",
"                                                                                  . . . . . . . . . .                                                                                                                                                                                                                           ",
"                                                                                  . . . . . . . . . .                                                                                                                                                                                                                           ",
"                                                                                  . . . . . . . . . .                                                                                                                                                                                                                           ",
"                                                                                  . . . . . . . . . .                                                                                                                                                                                                                           ",
"                                                                                  . . . . . . . . . .                                                                                                                                                                                                                           ",
"                                                                                  . . . . . . . . . .                                                                                                                                                                                                                           ",
"                                                                                  . . . . . . . . . .                                                                                                                                                                                                                           ",
"                                                                                  . . . . . . . . . .                                                                                                                                                                                                                           ",
"                                                                                  . . . . . . . . . .                                                                                                                                                                                                                           ",
"                                                                                  . . . . . . . . . .                                                                                                                                                                                                                           ",
"                                                                                  . . . . . . . . . .                                                                                                                                                                                                                           ",
"                                                                                  . . . . . . . . . .                                                                                                                                                                                                                           ",
"                                                                                  . . . . . . . . . .                                                                                                                                                                                                                           ",
"                                                                                  . . . . . . . . . .                                                                                                                                                                                                                           ",
"                                                                                  . . . . . . . . . .                                                                                                                                                                                                                           ",
"                                                                                  . . . . . . . . . .                                                                                                                                                                                                                           ",
"                                                                                  . . . . . . . . . .                                                                                                                                                                                                                           ",
"                                                                                  . . . . . . . . . .                                                                                                                                                                                                                           ",
"                                                                                  . . . . . . . . . .                                                                                                                                                                                                                           ",
"                                                                                  . . . . . . . . . .                                                                                                                                                                                                                           ",
"                                                                                  . . . . . . . . . .                                                                                                                                                                                                                           ",
"                                                                                  . . . . . . . . . .                                                                                                                                                                                                                           ",
"                                                                                  . . . . . . . . . .                                                                                                                                                                                                                           ",
"                                                                                  . . . . . . . . . .                                                                                                                                                                                                                           ",
"                                                                                  . . . . . . . . . .                                                                                                                                                                                                                           ",
"                                                                                  . . . . . . . . . .                                                                                                                                                                                                                           ",
"                                                                                  . . . . . . . . . .                                                                                                                                                                                                                           ",
"                                                                                  . . . . . . . . . .                                                                                                                                                                                                                           ",
"                                                                                  . . . . . . . . . .                                                                                                                                                                                                                           ",
"                                                                                  . . . . . . . . . .                                                                                                                                                                                                                           ",
"                                                                                . . . . . . . . . . . . .                                                                                                                                                                                                                       ",
"                                                                      . . . . . . . . . . . . . . . . . . . . . . .                                                                                                                                                                                                             ",
"                                                                . . . . . . . . . . . . . . . . . . . . . . . . . . . . .                                                                                                                                                                                                       ",
"                                                          . . . . . . . . . . . . . . . . . . . . . . . . . . . . . . . . . .                                                                                                                                                                                                   ",
"                                                      . . . . . . . . . . M>N>O>P>Q>R>S>T>U>U>V>W>X>Y>Z>`> ,.,. . . . . . . . . .                                                                                                                                                                                               ",
"                                                  . . . . . . . . . +,@,#,$,%,&,*,*,*,*,*,*,*,*,*,*,*,=,-,;,>,,,',),. . . . . . . . .                                                                                                                                                                                           ",
"                                              . . . . . . . . !,~,{,*,*,*,],*,*,^,/,(,_,:,<,[,},|,1,2,3,4,5,6,7,8,9,0,a,b,. . . . . . . .                                                                                                                                                                                       ",
"                                            . . . . . . . c,d,e,&,*,],*,f,g,h,i,j,k,h.h.h.h.h.h.h.k,k,k,l,m,n,8,o,p,q,r,s,t,u,. . . . . . . .                                                                                                                                                                                   ",
"                                        . . . . . . . v,w,*,*,],*,x,y,z,;.;.;.i,A,h,B,C,D,E,D,F,G,H,I,J,;.;.;.;.K,L,M,N,O,P,Q,R,S,. . . . . . .                                                                                                                                                                                 ",
"                                      . . . . . . T,U,*,],*,V,W,X,;.k,Y,Z,`, '*,*,*,*,*,&,*,&,.'+'@'#'$'%'&'*'='-';.;.;'>',''')'!'~'{'. . . . . .                                                                                                                                                                               ",
"                                    . . . . . . X>&,*,]' '^'=';.j,/'('_'*,*,*,*,*,*,*,&,*,&,.'+'@'#'$'%':'o,<'['}'|'1';.;.2'3'4'5'6'7'8'. . . . . . .                                                                                                                                                                           ",
"                                  . . . . . 9'0'*,],a'b';.;.c'd'*,*,*,*,*,*,*,*,*,*,&,*,&,.'e'@'#'f'g':'o,<'q,h'N,i'j'U>k'l';.-'m'n'o'p'q'r'. . . . . .                                                                                                                                                                         ",
"                              . . . . . . s't'*,],u'v';.w'x'V,*,*,*,*,*,*,*,*,*,*,*,*,&,y'e'@'#'f'g':'o,<'['h'N,z'j'A'''B'C'D';.;.E'F'G'H'I'J'. . . . . .                                                                                                                                                                       ",
"                            . . . . . K'X>&,],^,L';.M'N'*,*,*,*,*,*,*,*,*,*,*,*,&,*,O'y'+'@'P'f'g'Q'R'<'S'h'T'z'j'A'U'B'V'W'X'Y'Z';.;.`' ).)+)@)#). . . . .                                                                                                                                                                     ",
"                          . . . . . . $)*,e,%)&);.*)a'*,*,*,*,*,*,*,*,*,*,*,*,*,*,O'y'-,=)P'f'g'Q'R'<'['-)T'z';)>)U'B'V',)X'7'')p'));.;.!)~){)])^). . . . . .                                                                                                                                                                   ",
"                          . . . . /)d,*,*,[,h.h.()*,*,*,*,*,*,*,*,*,*,*,*,*,&,*,O'y'e'=)_):)8,Q'R'<)[)-)T'z';)>)U'B'}),)X'7'')|)1)2)3)4);.5)6)7)8)9)0). . . . .                                                                                                                                                                 ",
"                        . . . . . d,],*,g,;.a)b)*,*,*,*,*,*,*,*,*,*,*,*,c)d)*,O'e)f)=)$':)8,Q'R'<)[)-)T'P,;)>)g)!'h),)X'i)')|)1)2)j)k)+)l);.-'m)n)o)p). . . . .                                                                                                                                                                 ",
"                      . . . . K'{,*,*,q);.r)s)*,*,*,*,*,*,*,*,*,*,*,*,*,*,c)t)e)-,u)P':)8,Q'p,<)[)-)v)P,w)>)g)!'x),)y)i)')|)1)2)j)k)z)A)B)C);.;.D)E)F)G)#). . . .                                                                                                                                                               ",
"                    . . . . . H)*,*,I);.z,J)*,*,*,*,*,*,*,*,*,*,*,*,&,*,&,t)e)e'=)$':)8,K)p,<)[)N,v)P,;)L)g)!'M)N)y)i)p'|)G'2)j)O)z)A)B)P)Q)R)h.;.S)T)U)V). . . . .                                                                                                                                                             ",
"                    . . . . W)*,],X);.Y)J)*,*,*,*,*,*,*,*,*,*,*,*,*,*,&,t)e)Z)u)$':)8,K)p,<)`)-)v)j'w)''g) !M)N)y).!p'+!1)2)@!O)z)A)#!P)Q)$!%!&!;.*!=!-!;!>!. . . . .                                                                                                                                                           ",
"                  . . . . ,!],],'!;.)!!!*,*,*,*,*,*,*,*,*,*,*,*,*,*,&,t)e)@'u)$'7,:'K)p,~!`)N,v)j'w)''{!!'h)N)y).!p'+!G']!@!O)z)A)#!P)Q)n)^!E)F)/!;.(!_!:!<![!. . . .                                                                                                                                                           ",
"                . . . . }!],*,s)='&)a'*,*,*,*,*,*,*,*,*,*,*,*,*,&,&,=,+'Z)u)|!7,:'K)p,1!`)2!3!j'w)''{! !4!N)7'.!p'5!H'6!@!.)7!])#!P)8!$!9!E)0!a!b!c!;.d!e!f!g!. . . . .                                                                                                                                                         ",
"                . . . . h!*,e,i!;.|,*,*,*,*,*,*,*,*,*,*,*,*,*,*,&,j!+'e'5,|!7,:'9,<'~!`)N,3!j'Q,U'{! !k!l!7'.!p'5!H'6!@!O)7!])m!P)8!$!n!o!0!a!b!-!p!q!;.r!s!t!u!. . . .                                                                                                                                                         ",
"              . . . . v!&,],w!;.d'*,*,*,*,*,*,*,*,*,*,*,*,*,&,&,=,+'4,5,|!7,:'9,<'1!`)T'3!j'x!U'{! !h)l!7'.!p'5!H'6!y!+)7!])m!8)8!$!z!o!0!a!A!B!p!C!D!;.;.E!F!G!H!. . . .                                                                                                                                                       ",
"              . . . . I!*,J!K!A,*,*,*,*,*,*,*,*,*,*,*,*,*,*,&,=,+'L!5,|!%'Q'9,<'q,r,T'3!j'Q,U'M! !,)l!7'.!|)5!H']!y!+)7!])m!8)8!$!N!o!0!a!A!B!p!O!P!Q!R!;.S!T!U!V!. . . . .                                                                                                                                                     ",
"            . . . . W!*,*,B,;.X!*,*,*,*,*,*,*,*,*,*,*,*,*,&,.'-,L!5,|!%'Q'9,<'q,Y!Z!`! ~.~+~@~#~$~l!i)%~|)5!H']!y!+)&~*~m!8)=~-~z!o!0!;~A!B!>~O!P!Q!,~'~)~;.!~~~{~]~. . . .                                                                                                                                                     ",
"            . . . . d,],^~;./~*,*,*,*,*,*,*,*,*,*,*,c)d)t).'-,4,#':)%'Q'(~_~:~;.h.h.;.h.;.;.;.;.<~[~}~|)|~H']!y!+)&~*~m!8)=~-~^!1~T);~A!2~>~O!P!Q!,~3~4~5~;.h.6~7~8~. . . .                                                                                                                                                     ",
"          . . . . 9~*,*,Y)='0~*,*,*,*,*,*,*,*,*,*,&,&,O'.'-,@'#':)%'a~b~c~;.;.;.k=;.;.;.;.;.;.h.;.;.d~e~H'f~y!z)&~*~g~Q)=~-~^!1~T);~A!2~>~h~P!i~,~3~j~k~l~m~;.n~o~p~q~. . . .                                                                                                                                                   ",
"          . . . . r~*,J!;.s~*,*,*,*,*,*,*,*,*,*,&,*,t).'e'@'#':)g'Q't~;.;.;.k=h.;.;.;.;.;.;.;.;.h.;.h.h.u~v~+)&~#!g~Q)=~-~w~1~T)x~-!2~>~h~y~i~,~F!j~k~l~~~z~A~B~C~D~E~. . . .                                                                                                                                                   ",
"          . . . F~],e,G~;.*,*,*,*,*,*,*,*,*,*,&,&,t)y'-,H~#':)%'K)o,I~h.;.h.h.;.J~K~L~M~N~O~P~;.h.h.;.h.;.Q~&~#!g~Q)R~-~E)1~T)x~-!2~>~S~y~i~,~3~j~k~T~~~U~7~V~;.W~X~Y~Z~. . . .                                                                                                                                                 ",
"        . . . . `~&,J!;. {*,*,*,*,*,*,*,*,*,&,*,t)y'e'H~#':)g'K)o,1!.{h.;.+{@{#{g)B'k!W'${.!%{&{u~;.h.;.h.;.*{g~Q)R~%!w~1~a!x~-!2~C!h~y~i~={F!j~U!T~~~-{;{>{,{;.'{){!{~{. . . .                                                                                                                                                 ",
"        . . . . r~*,{{h.]{*,*,*,*,*,*,*,*,&,&,=,y'e'^{P'7,g'K)R'1!['/{({_{w)>){!B'k!,)X'.!%{+!1)6!:{h.;.;.h.<{Q)R~%![{}{a!x~-!|{C!h~y~1{={F!j~U!T~~~-{;{>{2{3{4{;.5{6{7{. . . .                                                                                                                                                 ",
"        . . . 8{*,],9{0{*,*,*,*,*,*,*,*,*,*,=,y'e'u)P'7,g'9,R'1!['h'a{z'w)b{{!B'k!c{X'.!%{5!1)6!f~d{!);.;.h.;.e{%!f{}{a!x~-!|{C!h~y~s!={F!g{U!T~~~-{;{>{2{h{i{j{;.k{l{m{n{. . .                                                                                                                                                 ",
"      . . . . o{*,*,h.p{*,*,*,*,*,*,*,&,*,=,e)e'q{P'7,8,9,R'1![)-)3!z'w)>){!B'k!c{X'.!')5!1)6!j)k)r{C);.;.;.h.s{f{}{a!U)B!|{C!t{u{v{w{F!g{U!T~x{y{;{>{z{h{i{){A{B{C{D{E{F{. . . .                                                                                                                                               ",
"      . . . G{H{],(';.s)*,*,*,*,*,*,*,*,=,y'4,I{$'7,8,9,R'1!J{-)3!P,Q,>){!B'k!K{X'.!')5!1)]!j)k)7!A)L{;.;.;.;.M{}{a!U)B!|{O!t{u{s!w{4~g{U!N{x{{~O{p~z{h{P{){Q{R{S{;.T{U{V{. . . .                                                                                                                                               ",
"      . . . W{X{*,Y{Z{*,*,*,*,*,*,d)*,.'e)4,=)$'7,8,9,p,q,[)-)3!P,Q,>)M!!'h)`{y)%~')5!1)]!j)k)7!A)m! ]h.;.;.h..];~U)B!|{O!t{u{s!w{4~g{l~N{x{-{O{p~z{+]P{@]Q{R{#]$];.%]&]*]=]. . .                                                                                                                                               ",
"      . . . 9'],*,K!-]*,*,*,*,&,*,&,=,e)4,u)$'%'8,o,p,q,`)-)i'P,Q,''M!!'h);]y)%~')|~G']!j)k)7!A)m!>],];.;.;.h.']U)2~;!O!)]u{,~w{4~G!l~N{x{!]O{p~z{X~P{@]~]{]]]D{^];./](]_]:]. . .                                                                                                                                               ",
"      . . . Z>*,s)k,D,*,*,*,*,*,&,.'e)@'u)$'%':'o,p,q,`)N,3!P,Q,''M!!'h)<]y)%~')|~1)]!@!O)&~A)g~P)=~[];.;.h.;.}]2~;!O!t{f!,~w{4~G!l~N{x{7~O{p~|]X~P{@]Q{{]]]D{1]2];.3]4]5]6]. . . .                                               ,&                                                                                            ",
"    . . . . 7]*,]{h.8]*,*,&,*,&,.'+'@'u)$'%':'o,p,q,9]N,0]j'A'''M! !W'6'y)%~p'|~G']!@!O)&~])g~P)=~a]b]k=;.;.c]2~;!O!)]f!d]t!j~G!l~N{e]!]O{2{|]X~P{@]f]{]#]g]1]2]&]h]*!i]j]k]. . . .     ,&,&            ,&,&            ,&,&      ,&,&                                                                                          ",
"    . . . . h!*,l];.1,*,*,*,&,y'+'@'5,$'g':'o,p,S'`)N,i'j'A'''M! !W';]y)%{p'|~m]f~@!O)&~])g~P)=~$!n];.;.h.;.o];!h~)]f!p]t!j~G!l~N{e]-{q]2{|]X~r]!{~]{]m{g]1]2]&]s]t]*!u]v]w]. . . .     ,&,&          ,&,&,&,&          ,&,&      ,&,&                                                                                          ",
"    . . . . x]*,I);.y]&,*,O'y'+'@'5,f'g':'o,<'S'z]T'i'j'A'U'B' !W'l!7'%{p'|~H'f~@!+)&~])g~8)=~$!A];.h.;.k=B]p!h~)]Q!p]t!j~C]T~D]e]y{q]2{E]X~r]!{~]F]]]g]1]G]H]s]4]I]k=J]K]L]. . . .     ,&,&          ,&,&,&,&          ,&,&      ,&,&                                                                                          ",
"    . . . . M]*,N];.d)*,O'y'+'@'5,f'g':'R'<'S'`)T'z'j'A'U'B' !W'O]7'%{p'1)H'f~@!+){)])g~8)R~-~P]Q]h.;.h.;.R]h~P!Q!p]t!j~C]T~D]e]S]q]2{T]i{r]!{~]F]m{g]1]G]H]s]4]U]V]h.W]X]Y]. . . .     ,&,&          ,&,&,&,&        ,&,&,&      ,&,&                                                                                          ",
"    . . . . Z]*,/~;.*,O'y'-,=)`]f'g'Q'R'<'S'r,T' ^;)>)U'B' !,)O]7'.^|)1)H'f~y!+){)])>]8)R~$!+^@^;.k=h.;.#^h~P!Q!$^t!j~C]T~~~{~S]q]2{E]i{r]Q{%^F]&^*^U{G]H]s]=^-^;^>^h.,^'^)^. . . .       ,&,&        ,&    ,&        ,&,&        ,&,&  ,&,&,&,&,&            ,&,&,&,&,&,&          ,&,&  ,&,&,&,&      ,&,&,&,&,&,&          ,&",
"    . . . . &,e,/';.O'y'+'=)5,f'8,Q'R'<'['!^T'z';)>)U'B'V',)l!7'%{|)1)H'j)~^+){)B)>]8)R~-~+^{^h.h.k=;.]^t{P!Q!^^3~g{C]T~~~{~7~o~z{E]i{r]Q{/^F]m{*^U{G]H](^=^U]_^:^<^;.[^}^|^. . . .       ,&,&        ,&    ,&        ,&,&        ,&,&,&      ,&,&,&        ,&,&,&      ,&,&        ,&,&,&,&          ,&,&      ,&,&,&        ,&",
"    . . . . &,e,1^;.e)-,=)#':)8,Q'R'<)[)r,T'z';)>)g)!'V',)l!i)')|)1)2)j)y!+)A)B)>]8)n)-~+^2^h.;.h.;.3^t{P!i~p]3~g{C]N{~~{~7~o~z{E]P{Y~Q{/^F]D{*^U{G]4^(^=^5]_^:^5^6^;.7^8^9^. . . .       ,&,&      ,&,&    ,&,&      ,&,&        ,&,&          ,&,&        ,&,&          ,&,&      ,&,&,&          ,&,&          ,&,&        ,&",
"    . . . . 0^c)a^;.-,=)#':)8,K)R'<)[)h'T'P,;)>)g)!'V',)${i)')|)1)2)j)b^z)A)B)>]Q)n)-~+^c^;.h.h.h.d^t{y~Q!w{3~g{k~N{~~{~7~o~z{D~i{Y~Q{6{e^D{*^U{f^4^(^=^U]_^:^5^X]g^h.h^i^j^. . . .         ,&,&    ,&,&    ,&,&      ,&,&        ,&,&          ,&,&      ,&,&            ,&,&      ,&,&            ,&,&            ,&,&        ",
"    . . . . H{t)k^;.u)P':)8,Q'p,<)[)h'v)P,;)L)g)!'V',)l^i)')+!1)2)j)y!z)A)B)P)Q)n)-~+^m^h.;.h.;.n^t{y~i~w{3~g{k~N{~~-{o^o~z{3{P{Y~Q{6{p^D{*^2]f^4^(^q^r^_^:^s^t^u^v^h.w^i^x^. . . .         ,&,&    ,&        ,&    ,&,&          ,&,&          ,&,&      ,&,&,&,&,&,&,&,&,&,&      ,&,&          ,&,&,&,&,&,&,&,&,&,&,&        ",
"    . . . . y^e)z^;.A^:):'K)p,<)[)2!v)P,w)''g)!'k!N)l^i)')+!1)6!j).)z)B^#!P)Q)n)9!E)C^;.h.;.h.D^E^F^i~w{F!G!k~N{G^-{7~o~z{3{P{Y~~]6{e^D{H^2]f^4^I^q^U]J^K^s^t^u^L^M^k=N^i^O^. . . .         ,&,&    ,&        ,&,&  ,&,&          ,&,&          ,&,&      ,&,&,&,&,&,&,&,&,&,&      ,&,&          ,&,&,&,&,&,&,&,&,&,&,&        ",
"    . . . . P^e'Q^;.R^:'K)p,<)`)h'v)j'w)''g) !k!N)X'.!p'+!G'6!@!b^z)])#!P)Q)n)%!E)S^;.h.h.;.T^)]y~i~U^F!G!k~N{G^-{;{>{|]3{P{){~]R{e^g]H^2]f^(]I^q^V^J^K]s^t^u^L^i^W^k=X^i^Y^. . . .         ,&,&  ,&,&        ,&,&  ,&,&          ,&,&          ,&,&      ,&,&                      ,&,&          ,&,&                          ",
"    . . . . Z^u)`^;. /K)<'1!`)h'v)j'w)''{! !k!N)X'.!p'+!G'6!@!k)7!A)#!P)8!$!%!E)./h.k=;.h.+/@/u{s!U^F!G!U!N{G^-{;{>{|]3{P{){~]R{l{D{H^2]#/s]I^q^V^J^K]s^t^$/L^i^L^%/*!&/i^*/. . . .         ,&,&  ,&,&        ,&,&,&,&,&          ,&,&          ,&,&      ,&,&                      ,&,&            ,&,&                        ",
"      . . . =/-/a~k,;/<'1!`)-)v)j'x!''{! !k!l!>/.!p'+!H'6!@!k)7!])#!P)8!$!%!E),/;.k=h.h.'/)]u{s!t!F!C]U!D]G^y{)/>{|]h{r]){~]6{l{g]H^G]#/s]I^5]!/J^K]s^'^$/L^i^L^L^~/{/]/L^^/. . . .           ,&,&,&,&        ,&,&,&,&            ,&,&          ,&,&        ,&,&                    ,&,&            ,&,&                      ,&",
"      . . . //7,:'j,(/1!`)-)3!j'Q,U'{! !k!l!_/.!p'5!H'6!@!k)7!])#!P)8!$!n!o!:/;.k=;.h.</@/u{s!U^4~C]U!N{G^y{)/p~|]h{r]){~]R{l{[/E{G]#/s]I^5]V^J^K]}/'^$/L^i^L^L^|/;.1/L^2/3/. . .             ,&,&,&            ,&,&,&            ,&,&          ,&,&        ,&,&,&        ,&,&      ,&,&              ,&,&,&        ,&        ,&",
"      . . . 4/5/9,6/7/`)8/3!j'Q,U'{! !h)l!X'.!p'5!H']!y!k)7!])m!8)8!$!n!o!9/;.k=h.h.0/a/u{s!t!4~C]U!D]x{y{;{p~E]h{r]@]/^R{l{g]E{G]#/s]b/5]j]J^5^}/'^c/8^i^L^L^L^d/;.e/L^f/g/. . .             ,&,&,&            ,&,&,&            ,&,&          ,&,&            ,&,&,&,&,&,&        ,&,&                ,&,&,&,&,&,&,&        ,&",
"      . . . K'h/<)t~;.-)3!;)Q,U'{!V'h)l!y)%~|)5!H']!y!k)7!*~m!8)8!-~n!o!i/;.k=;.;.j/k/u{,~t!4~C]U!~~x{y{O{p~E]h{r]@]/^R{]]g]E{G]&](^b/5]l/m/5^}/'^c/8^n/L^L^L^L^o/;.p/L^q/. . . .                                                                                                                                               ",
"      . . . . r/q,J{;.s/;)Q,U'M!V'W'l!7'%~|)|~H']!y!O)&~*~m!8)=~-~t/o!u/h.h.h.h.v/w/f!s!3~4~C]l~~~e]y{x/p~E]X~Y~@]/^y/#]*^E{G]&](^b/5]z/m/5^A/u^c/8^n/L^L^L^L^B/~/C/L^i^D/. . . .                                                                                                                                               ",
"        . . . E/r,-)F/G/A'U'M!V'h)6'y)%~+!|~H']!y!O)&~*~m!8)=~-~z!1~H/h.;.;.;.;.I/J/K/L/M/N/O/P/Q/R/S/T/U/V/W/X//^{]]]*^E{f^&](^4]U]Y/m/5^A/u^c/8^i^L^L^L^L^L^Z/*!`/L^i^ (. . .                                                                                                                                                 ",
"        . . . . T'z'.(Y,+(M!V'h)6'@(%~|)|~H']!y!#({)*~g~Q)=~-~^!1~F)$(;.;.;.k=k=;.h.h.h.h.h.h.h.h.h.h.h.h.h.h.%(&(]]*^1]f^&](^4]U];^v]5^A/u^]/i^n/L^L^L^L^L^L^*(;.=(i^-(. . . .                                                                                                                                                 ",
"        . . . . ;(;)>(;.,(k!W'6''(%{+!|~H'f~b^O)&~B)g~Q)=~-~^!1~0!x~)(;.;.;.;.;.;.;.;.;.;.;.;.;.;.;.;.;.;.;.;.!(]]H^1]f^H]I^4]U];^v]s^A/$/]/i^L^L^L^L^L^L^L^L^;.;.~(L^{(. . . .                                                                                                                                                 ",
"          . . . ](^(g)/(((W'6''(%{+!|~_(f~b^+){)#!g~Q)R~%!^!1~0!x~-!:(;.;.;.;.;.;.;.;.;.;.;.;.;.;.;.;.;.;.;.;.<(*^1]f^H]I^4]U];^v]s^A/$/]/n/L^L^L^L^L^L^L^L^[(;.}(L^|(1(. . . .                                                                                                                                                 ",
"          . . . 2(3(B'#~;.4('(%{+!|~6!f~b^r{{)#!g~8!R~%!+^1~5(x~-!|{6(7(8(9(0(a(b(c(d(n~e(f(g(h(i(j(k(l(m(n(o(p(1]f^H]I^4]V^J^v]s^X]$/]/i^L^L^L^L^L^L^L^L^~(q(r(s(i^t(. . . .                                                                                                                                                   ",
"          . . . . u(k!$~v(w(%{+!1)6!f~k)+){)#!>]8!R~%!+^}{5(U)-!|{C!h~u{Q!={F!g{U!T~~~{~;{x(z{3{i{){!{R{F]m{H^U{#/H]I^=^V^;^v]}/X]$/]/i^L^L^L^L^L^L^L^L^L^y(;.z(L^i^A(. . . .                                                                                                                                                   ",
"            . . . . B(_/C(;.D(1)6!j)k)+){)#!>]8!n)%![{}{T)U)B!|{C!t{u{Q!p]F!g{U!T~x{{~;{o~z{h{i{){Q{R{F]m{H^U{#/H]I^=^V^_^K^}/X]$/}^i^L^L^L^L^L^L^L^L^L^L^E(;.F(L^G(. . . .                                                                                                                                                     ",
"            . . . . H(i)')I(J(6!j)k)+)A)K(>]8!R~n![{}{T)U)B!|{C!t{u{Q!={4~g{U!N{x{{~;{o~z{h{i{@]Q{R{F]D{E{U{#/4^b/=^V^_^K^}/X]$/}^i^L^L^L^L^L^L^L^L^L^L^L(;.M(L^i^N(. . . .                                                                                                                                                     ",
"              . . . O(p'5!P(;.Q(k)z)A)R(P)8!n)n!E)}{S(U)B!;!C!t{u{i~w{4~G!U!N{x{{~;{o~z{T(P{@]Q{R{p^m{E{U{#/(]b/q^V^U(K^}/t^c/}^i^L^L^L^L^L^L^L^L^L^L^V(W(X(Y(i^Z(#). . . .                                                                                                                                                     ",
"              . . . . `(1)f~ _3]~)A)m!P)=~n)n![{F)a!U)B!;!O!t{u{i~w{4~g{l~N{x{-{O{._z{h{P{@]Q{{]p^D{E{2]&](]b/=^j]+_K^A/t^c/}^n/L^L^L^L^L^L^L^L^L^L^L^@_;.#_L^L^$_. . . .                                                                                                                                                       ",
"                . . . . %_@!O)&_*_K(P)=~n)n!E)F)a!b!2~;!O!)]f!i~w{4~G!l~N{x{-{O{=_|]h{P{@]~]{]p^D{E{2]&](]b/q^j]+_K]}/t^c/L^i^L^L^L^L^L^L^L^L^L^L^L^-_;.z(L^i^;_. . . .                                                                                                                                                         ",
"                . . . . >_O)7!,_'_)_=~$!^!E)F)a!b!2~;!O!)]f!i~w{j~G!l~N{e]-{O{=_|]X~P{!{~]{]l{D{1]2]&]s]4]q^j]J^K]A/t^]/L^L^L^L^L^L^L^L^L^L^L^L^L^!_;.~_&/i^L^{_. . . .                                                                                                                                                         ",
"                  . . . . ]_])^_/_;.(_^!E)0!a!b!2~p!h~)]f!s!t!j~G!l~N{e]-{q]=_|]X~r]!{~]{]l{g]1]2]&]s]4]q^j]__K]A/t^]/L^i^L^L^L^L^L^L^L^L^L^L^L^:_<_;.[_L^L^}_. . . .                                                                                                                                                           ",
"                    . . . |_1_P)2_3_;.4_F)x~b!2~p!h~)]f!5_t!j~G!l~D]e]-{q]6_|]X~r]!{~]{]T{g]1]2]H]s]4]5]j]__K]A/'^]/L^L^L^L^L^L^L^L^L^L^L^L^L^7_8_;.9_L^i^0_. . . . .                                                                                                                                                           ",
"                    . . . . . a_$!^!b_;.c_b!d_p!h~)]f!s!t!e_C]T~N{e]y{q]>{T]i{r]!{~]F]l{g]1]G]H]s]4]5];^f_5^X]'^]/L^i^L^L^L^L^L^L^L^L^L^L^L^7_g_;.h_L^i^i_. . . . .                                                                                                                                                             ",
"                      . . . . j_k_l_0!m_;.n_p!h~P!Q!5_t!j~C]T~~~{~y{q]p~E]i{r]!{/^F]l{g]1]G]H]s]4]5];^o_5^X]'^]/L^i^L^L^L^L^L^L^L^L^L^L^L^p_q_;.r_L^i^s_t_. . . .                                                                                                                                                               ",
"                        . . . . u_v_w_A!x_;.y_P!Q!5_3~g{C]T~~~{~y{q]p~E]i{Y~Q{/^F]]]*^U{G]4^(^=^5];^o_5^X]'^}^8^i^L^L^L^L^L^L^L^L^L^L^L^z_A_;.B_L^L^C_D_. . . .                                                                                                                                                                 ",
"                          . . . . E_A!d_>~F_;.G_,~3~H_k~T~~~{~7~q]2{E]i{Y~Q{/^F]]]*^I_f^H](^=^U];^J_5^X]u^}^8^n/L^L^L^L^L^L^L^L^L^L^L^K_~/;.L_L^i^M_N_. . . . .                                                                                                                                                                 ",
"                          . . . . . O_P_t{Q_R_S_0/T_k~N{~~-{7~o~p~E]P{Y~Q{/^F]]]*^U{f^4^(^=^U]_^J_5^X]u^}^8^L^L^L^L^L^L^L^L^L^L^L^L^U_;.~/V_L^i^W_X_. . . . .                                                                                                                                                                   ",
"                            . . . . . Y_Z_i~,~`_ :<~.:~~-{7~o~2{3{+:Y~Q{6{e^]]H^U{f^4^(^=^U]_^v]s^t^u^}^8^n/L^L^L^L^L^L^L^L^L^L^@:#:;.$:%:L^i^&:*:. . . . .                                                                                                                                                                     ",
"                              . . . . . . =:3~g{-:;:;.>:,:;{2{3{P{Y~Q{6{e^m{*^2]f^4^(^q^U]_^v]s^t^u^}^i^L^L^L^L^L^L^L^L^L^L^':):;.!:~:L^i^L^{:. . . . . .                                                                                                                                                                       ",
"                                  . . . . |_]:k~N{G^^:/:;.4{(:P{){~]6{e^]]H^2]f^(]I^q^U]_^_:s^t^$/L^i^L^L^L^L^L^L^L^L^L^z_::X(;.<:[:L^i^L^}:. . . . . .                                                                                                                                                                         ",
"                                    . . . . . |:1:-{;{>{2:3:;.4:5:6:l{[/H^2]f^s]I^q^V^J^7:s^t^$/L^i^L^L^L^L^L^L^L^8:9:0:;.;.%/a:L^i^i^b:c:. . . . . .                                                                                                                                                                           ",
"                                      . . . . . . d:o~|]h{e:f:g:;.3]h:i:2]#/s]I^5]V^J^v]s^'^$/L^i^L^L^L^L^L^L^X^j:~_k=;.k:l:c/L^i^2/^/. . . . . .                                                                                                                                                                               ",
"                                        . . . . . . m:n:o:@]~]R{p:q:r:;.;.s:t:u:v:w:x:y:X]$/L^C_z:l:A:B:C:D:E:;.;.@_F:l:L^i^i^Z(G:H:. . . . . .                                                                                                                                                                                 ",
"                                            . . . . . . . I:J:l{D{E{G]K:L:M:*!k=;.;.;.;.;.;.;.;.;.;.;.h.*!k=N:O:P:L^i^i^L^Q:R:. . . . . . . .                                                                                                                                                                                   ",
"                                              . . . . . . . H:S:T:U{&](^b/5]U:V:W:X:Y:Z:`: <.<+<C:@<#<$<%<]/L^L^i^i^L^0_&<*<. . . . . . .                                                                                                                                                                                       ",
"                                                  . . . . . . . . G{=<-<':;<m/><}/u^c/8^n/L^L^L^i^i^i^i^i^L^Q:,<'<)<. . . . . . . . .                                                                                                                                                                                           ",
"                                                      . . . . . . . . . !<:]~<{<]<^</<L^i^L^L^i^]/(<^<_<:<<<[<}<. . . . . . . . .                                                                                                                                                                                               ",
"                                                          . . . . . . . . . . . . . . . . . . . . . . . . . . . . . . . . . .                                                                                                                                                                                                   ",
"                                                                . . . . . . . . . . . . . . . . . . . . . . . . . . . . .                                                                                                                                                                                                       ",
"                                                                      . . . . . . . . . . . . . . . . . . . . . . .                                                                                                                                                                                                             ",
"                                                                                . . . . . . . . . . . . .                                                                                                                                                                                                                       ",
"                                                                                  . . . . . . . . . .                                                                                                                                                                                                                           ",
"                                                                                  . . . . . . . . . .                                                                                                                                                                                                                           ",
"                                                                                  . . . . . . . . . .                                                                                                                                                                                                                           ",
"                                                                                  . . . . . . . . . .                                                                                                                                                                                                                           ",
"                                                                                  . . . . . . . . . .                                                                                                                                                                                                                           ",
"                                                                                  . . . . . . . . . .                                                                                                                                                                                                                           ",
"                                                                                  . . . . . . . . . .                                                                                                                                                                                                                           ",
"                                                                                  . . . . . . . . . .                                                                                                                                                                                                                           ",
"                                                                                  . . . . . . . . . .                                                                                                                                                                                                                           ",
"                                                                                  . . . . . . . . . .                                                                                                                                                                                                                           ",
"                                                                                  . . . . . . . . . .                                                                                                                                                                                                                           ",
"                                                                                  . . . . . . . . . .                                                                                                                                                                                                                           ",
"                                                                                  . . . . . . . . . .                                                                                                                                                                                                                           ",
"                                                                                  . . . . . . . . . .                                                                                                                                                                                                                           ",
"                                                                                  . . . . . . . . . .                                                                                                                                                                                                                           ",
"                                                                                  . . . . . . . . . .                                                                                                                                                                                                                           ",
"                                                                                  . . . . . . . . . .                                                                                                                                                                                                                           ",
"                                                                                  . . . . . . . . . .                                                                                                                                                                                                                           ",
"                                                                                  . . . . . . . . . .                                                                                                                                                                                                                           ",
"                                                                                  . . . . . . . . . .                                                                                                                                                                                                                           ",
"                                                                                  . . . . . . . . . .                                                                                                                                                                                                                           ",
"                                                                                  . . . . . . . . . .                                                                                                                                                                                                                           ",
"                                                                                  . . . . . . . . . .                                                                                                                                                                                                                           ",
"                                                                                  . . . . . . . . . .                                                                                                                                                                                                                           ",
"                                                                                  . . . . . . . . . .                                                                                                                                                                                                                           ",
"                                                                                  . . . . . . . . . .                                                                                                                                                                                                                           ",
"                                                                                  . . . . . . . . . .                                                                                                                                                                                                                           ",
"                                                                                  . . . . . . . . . .                                                                                                                                                                                                                           ",
"                                                                                  . . . . . . . . . .                                                                                                                                                                                                                           ",
"                                                                                  . . . . . . . . . .                                                                                                                                                                                                                           ",
"                                                                                  . . . . . . . . . .                                                                                                                                                                                                                           ",
"                                                                                  . . . . . . . . . .                                                                                                                                                                                                                           ",
"                                                                                  . . . . . . . . . .                                                                                                                                                                                                                           ",
"                                                                                  . . . . . . . . . .                                                                                                                                                                                                                           ",
"                                                                                  . . . . . . . . . .                                                                                                                                                                                                                           ",
"                                                                                  . . . . . . . . . .                                                                                                                                                                                                                           ",
"                                                                                  . . . . . . . . . .                                                                                                                                                                                                                           ",
"                                                                                  . . . . . . . . . .                                                                                                                                                                                                                           ",
"                                                                                  . . . . . . . . . .                                                                                                                                                                                                                           ",
"                                                                                  . . . . . . . . . .                                                                                                                                                                                                                           ",
"                                                                                  . . . . . . . . . .                                                                                                                                                                                                                           ",
"                                                                                  . . . . . . . . . .                                                                                                                                                                                                                           ",
"                                                                                  . . . . . . . . . .                                                                                                                                                                                                                           ",
"                                                                                  . . . . . . . . . .                                                                                                                                                                                                                           ",
"                                                                                  . . . . . . . . . .                                                                                                                                                                                                                           ",
"                                                                                  . . . . . . . . . .                                                                                                                                                                                                                           ",
"                                                                                  . . . . . . . . . .                                                                                                                                                                                                                           ",
"                                                                                  . . . . . . . . . .                                                                                                                                                                                                                           ",
"                                                                              . . . . . . . . . . . . . .                                                                                                                                                                                                                       ",
"                                                                      . . . . . . . . . . . . . . . . . . . . . .                                                                                                                                                                                                               ",
"                                                              . . . . . . . . . . . . . . . . . . . . . . . . . . . . . .                                                                                                                                                                                                       ",
"                                                          . . . . . . . . . . . . . . . . . . . . . . . . . . . . . . . . . .                                                                                                                                                                                                   ",
"                                                      . . . . . . . . . . M>N>O>P>Q>R>S>T>U>U>V>W>X>Y>Z>`> ,.,. . . . . . . . . . .                                                                                                                                                                                             ",
"                                                  . . . . . . . . . +,@,#,$,%,&,*,*,*,*,*,*,*,*,*,*,*,=,-,;,>,,,',),. . . . . . . . .                                                                                                                                                                                           ",
"                                              . . . . . . . . !,~,{,*,*,*,],*,*,^,/,(,_,:,<,[,},|,1,2,3,4,5,6,7,8,9,0,a,b,. . . . . . . .                                                                                                                                                                                       ",
"                                            . . . . . . . c,d,e,&,*,],*,f,g,h,i,j,k,h.h.h.h.h.h.h.k,k,k,l,m,n,8,o,p,q,r,s,t,u,. . . . . . . .                                                                                                                                                                                   ",
"                                        . . . . . . . v,w,*,*,],*,x,y,z,;.;.;.i,A,h,B,C,D,E,D,F,G,H,I,J,;.;.;.;.K,L,M,N,O,P,Q,R,S,. . . . . . .                                                                                                                                                                                 ",
"                                      . . . . . . T,U,*,],*,V,W,X,;.k,Y,Z,`, '*,*,*,*,*,&,*,&,.'+'@'#'$'%'&'*'='-';.;.;'>',''')'!'~'{'. . . . . .                                                                                                                                                                               ",
"                                    . . . . . . X>&,*,]' '^'=';.j,/'('_'*,*,*,*,*,*,*,&,*,&,.'+'@'#'$'%':'o,<'['}'|'1';.;.2'3'4'5'6'7'8'. . . . . . .                                                                                                                                                                           ",
"                                . . . . . . 9'0'*,],a'b';.;.c'd'*,*,*,*,*,*,*,*,*,*,&,*,&,.'e'@'#'f'g':'o,<'q,h'N,i'j'U>k'l';.-'m'n'o'p'q'r'. . . . . .                                                                                                                                                                         ",
"                              . . . . . . s't'*,],u'v';.w'x'V,*,*,*,*,*,*,*,*,*,*,*,*,&,y'e'@'#'f'g':'o,<'['h'N,z'j'A'''B'C'D';.;.E'F'G'H'I'J'. . . . . .                                                                                                                                                                       ",
"                            . . . . . K'X>&,],^,L';.M'N'*,*,*,*,*,*,*,*,*,*,*,*,&,*,O'y'+'@'P'f'g'Q'R'<'S'h'T'z'j'A'U'B'V'W'X'Y'Z';.;.`' ).)+)@)#). . . . .                                                                                                                                                                     ",
"                          . . . . . . $)*,e,%)&);.*)a'*,*,*,*,*,*,*,*,*,*,*,*,*,*,O'y'-,=)P'f'g'Q'R'<'['-)T'z';)>)U'B'V',)X'7'')p'));.;.!)~){)])^). . . . . .                                                                                                                                                                   ",
"                          . . . . /)d,*,*,[,h.h.()*,*,*,*,*,*,*,*,*,*,*,*,*,&,*,O'y'e'=)_):)8,Q'R'<)[)-)T'z';)>)U'B'}),)X'7'')|)1)2)3)4);.5)6)7)8)9)0). . . . .                                                                                                                                                                 ",
"                        . . . . . d,],*,g,;.a)b)*,*,*,*,*,*,*,*,*,*,*,*,c)d)*,O'e)f)=)$':)8,Q'R'<)[)-)T'P,;)>)g)!'h),)X'i)')|)1)2)j)k)+)l);.-'m)n)o)p). . . . .                                                                                                                                                                 ",
"                      . . . . K'{,*,*,q);.r)s)*,*,*,*,*,*,*,*,*,*,*,*,*,*,c)t)e)-,u)P':)8,Q'p,<)[)-)v)P,w)>)g)!'x),)y)i)')|)1)2)j)k)z)A)B)C);.;.D)E)F)G)#). . . .                                                                                                                                                               ",
"                    . . . . . H)*,*,I);.z,J)*,*,*,*,*,*,*,*,*,*,*,*,&,*,&,t)e)e'=)$':)8,K)p,<)[)N,v)P,;)L)g)!'M)N)y)i)p'|)G'2)j)O)z)A)B)P)Q)R)h.;.S)T)U)V). . . . .                                                                                                                                                             ",
"                    . . . . W)*,],X);.Y)J)*,*,*,*,*,*,*,*,*,*,*,*,*,*,&,t)e)Z)u)$':)8,K)p,<)`)-)v)j'w)''g) !M)N)y).!p'+!1)2)@!O)z)A)#!P)Q)$!%!&!;.*!=!-!;!>!. . . . .                                                                                                                                                           ",
"                  . . . . ,!],],'!;.)!!!*,*,*,*,*,*,*,*,*,*,*,*,*,*,&,t)e)@'u)$'7,:'K)p,~!`)N,v)j'w)''{!!'h)N)y).!p'+!G']!@!O)z)A)#!P)Q)n)^!E)F)/!;.(!_!:!<![!. . . .                                                                                                                                                           ",
"                . . . . }!],*,s)='&)a'*,*,*,*,*,*,*,*,*,*,*,*,*,&,&,=,+'Z)u)|!7,:'K)p,1!`)2!3!j'w)''{! !4!N)7'.!p'5!H'6!@!.)7!])#!P)8!$!9!E)0!a!b!c!;.d!e!f!g!. . . . .                                                                                                                                                         ",
"                . . . . h!*,e,i!;.|,*,*,*,*,*,*,*,*,*,*,*,*,*,*,&,j!+'e'5,|!7,:'9,<'~!`)N,3!j'Q,U'{! !k!l!7'.!p'5!H'6!@!O)7!])m!P)8!$!n!o!0!a!b!-!p!q!;.r!s!t!u!. . . .                                                                                                                                                         ",
"              . . . . v!&,],w!;.d'*,*,*,*,*,*,*,*,*,*,*,*,*,&,&,=,+'4,5,|!7,:'9,<'1!`)T'3!j'x!U'{! !h)l!7'.!p'5!H'6!y!+)7!])m!8)8!$!z!o!0!a!A!B!p!C!D!;.;.E!F!G!H!. . . .                                                                                                                                                       ",
"              . . . . I!*,J!K!A,*,*,*,*,*,*,*,*,*,*,*,*,*,*,&,=,+'L!5,|!%'Q'9,<'q,r,T'3!j'Q,U'M! !,)l!7'.!|)5!H']!y!+)7!])m!8)8!$!N!o!0!a!A!B!p!O!P!Q!R!;.S!T!U!V!. . . . .                                                                                                                                                     ",
"            . . . . W!*,*,B,;.X!*,*,*,*,*,*,*,*,*,*,*,*,*,&,.'-,L!5,|!%'Q'9,<'|<1<2<3< ~4<5<6<7<8<l!i)%~|)5!H']!y!+)&~*~m!8)=~-~z!o!0!;~A!B!>~O!P!Q!,~'~)~;.!~~~{~]~. . . .                                                                                                                                                     ",
"            . . . . d,],^~;./~*,*,*,*,*,*,*,*,*,*,*,c)d)t).'-,4,#':)%'9<0<a<b<;.;.h.;.h.;.;.;.;.;.c<d<e<|~H']!y!+)&~*~m!8)=~-~^!1~T);~A!2~>~O!P!Q!,~3~4~5~;.h.6~7~8~. . . .                                                                                                                                                     ",
"          . . . . 9~*,*,Y)='0~*,*,*,*,*,*,*,*,*,*,&,&,O'.'-,@'#':)%'Q'(/;.h.;.;.;.;.;.;.;.;.;.;.h.;.h.f<g<f~y!z)&~*~g~Q)=~-~^!1~T);~A!2~>~h~P!i~,~3~j~k~l~m~;.n~o~p~q~. . . .                                                                                                                                                   ",
"          . . . . r~*,J!;.s~*,*,*,*,*,*,*,*,*,*,&,*,t).'e'@'#':)g'Q'o,h<;.;.;.;.;.h.;.;.;.;.h.;.h.;.;.;.;.i<+)&~#!g~Q)=~-~w~1~T)x~-!2~>~h~y~i~,~F!j~k~l~~~z~A~B~C~D~E~. . . .                                                                                                                                                   ",
"          . . . F~],e,G~;.*,*,*,*,*,*,*,*,*,*,&,&,t)y'-,H~#':)%'K)o,<)j<;.;.;.k<l<m<T>n<o<p<q<r<;.h.h.h.k=h.s<#!g~Q)R~-~E)1~T)x~-!2~>~S~y~i~,~3~j~k~T~~~U~7~V~;.W~X~Y~Z~. . . .                                                                                                                                                 ",
"        . . . . `~&,J!;. {*,*,*,*,*,*,*,*,*,&,*,t)y'e'H~#':)g'K)o,1!['t<u<v<w<b{g)B'k!W'${.!%{+!x<4);.;.;.h.y<g~Q)R~%!w~1~a!x~-!2~C!h~y~i~={F!j~U!T~~~-{;{>{,{;.'{){!{~{. . . .                                                                                                                                                 ",
"        . . . . r~*,{{h.]{*,*,*,*,*,*,*,*,&,&,=,y'e'^{P'7,g'K)R'1!['h'z<z'w)>){!B'k!,)X'.!%{+!1)6!A<&_h.;.h.h.B<R~%![{}{a!x~-!|{C!h~y~1{={F!j~U!T~~~-{;{>{2{3{4{;.5{6{7{. . . .                                                                                                                                                 ",
"        . . . 8{*,],9{0{*,*,*,*,*,*,*,*,*,*,=,y'e'u)P'7,g'9,R'1!['h'3!z'w)b{{!B'k!c{X'.!%{5!1)6!f~k)C<h.h.;.;.D<%!f{}{a!x~-!|{C!h~y~s!={F!g{U!T~~~-{;{>{2{h{i{j{;.k{l{m{n{. . .                                                                                                                                                 ",
"      . . . . o{*,*,h.p{*,*,*,*,*,*,*,&,*,=,e)e'q{P'7,8,9,R'1![)-)3!z'w)>){!B'k!c{X'.!')5!1)6!j)k)r{A);.;.;.h.E<f{}{a!U)B!|{C!t{u{v{w{F!g{U!T~x{y{;{>{z{h{i{){A{B{C{D{E{F{. . . .                                                                                                                                               ",
"      . . . G{H{],(';.s)*,*,*,*,*,*,*,*,=,y'4,I{$'7,8,9,R'1!J{-)3!P,Q,>){!B'k!K{X'.!')5!1)]!j)k)7!A)m!<~;.;.h.F<}{a!U)B!|{O!t{u{s!w{4~g{U!N{x{{~O{p~z{h{P{){Q{R{S{;.T{U{V{. . . .                                                                                                                                               ",
"      . . . W{X{*,Y{Z{*,*,*,*,*,*,d)*,.'e)4,=)$'7,8,9,p,q,[)-)3!P,Q,>)M!!'h)`{y)%~')5!1)]!j)k)7!A)m!>];.;.;.;.G<;~U)B!|{O!t{u{s!w{4~g{l~N{x{-{O{p~z{+]P{@]Q{R{#]$];.%]&]*]=]. . .                                                                                                                                               ",
"      . . . 9'],*,K!-]*,*,*,*,&,*,&,=,e)4,u)$'%'8,o,p,q,`)-)i'P,Q,''M!!'h);]y)%~')|~G']!j)k)7!A)m!>]H<;.h.h.h.I<U)2~;!O!)]u{,~w{4~G!l~N{x{!]O{p~z{X~P{@]~]{]]]D{^];./](]_]:]. . .                                                 ,&                                                                                            ",
"      . . . Z>*,s)k,D,*,*,*,*,*,&,.'e)@'u)$'%':'o,p,q,`)N,3!P,Q,''M!!'h)<]y)%~')|~1)]!@!O)&~A)g~P)J<K<;.;.h.L<b!2~;!O!t{f!,~w{4~G!l~N{x{7~O{p~|]X~P{@]Q{{]]]D{1]2];.3]4]5]6]. . . .     ,&,&            ,&,&            ,&,&      ,&                                                                                            ",
"    . . . . 7]*,]{h.8]*,*,&,*,&,.'+'@'u)$'%':'o,p,q,9]N,0]j'A'''M! !W'6'y)%~p'|~G']!@!O)&~])g~P)M<N<;.h.h.;.O<2~;!O!)]f!d]t!j~G!l~N{e]!]O{2{|]X~P{@]f]{]#]g]1]2]&]h]*!i]j]k]. . . .     ,&,&          ,&,&,&            ,&,&      ,&                                                ,&                                          ",
"    . . . . h!*,l];.1,*,*,*,&,y'+'@'5,$'g':'o,p,S'`)N,i'j'A'''M! !W';]y)%{p'|~m]P<Q<R<S<T<U<V<W<;.;.h.h.X<Y<2~;!h~)]f!p]t!j~G!l~N{e]-{q]2{|]X~r]!{~]{]m{g]1]2]&]s]t]*!u]v]w]. . . .     ,&,&          ,&,&,&,&          ,&,&      ,&                                                ,&                                          ",
"    . . . . x]*,I);.y]&,*,O'y'+'@'5,f'g':'o,<'S'z]T'i'j'A'U'B' !W'l!7'%{p'|~H'f~4)*!-'-'-'-';.;.;.;.h.c]Z<2~p!h~)]Q!p]t!j~C]T~D]e]y{q]2{E]X~r]!{~]F]]]g]1]G]H]s]4]I]k=J]K]L]. . . .     ,&,&          ,&,&,&,&        ,&,&        ,&                                                ,&                                          ",
"    . . . . M]*,N];.d)*,O'y'+'@'5,f'g':'R'<'S'`)T'z'j'A'U'B' !W'O]7'%{p'1)H'f~@!`<;.;.;.;.;.;.;.;. [.[A!d_p!h~P!Q!p]t!j~C]T~D]e]S]q]2{T]i{r]!{~]F]m{g]1]G]H]s]4]U]V]h.W]X]Y]. . . .       ,&,&        ,&  ,&,&        ,&,&        ,&    ,&,&,&,&            ,&,&,&,&,&,&        ,&,&,&,&,&,&,&                                  ",
"    . . . . Z]*,/~;.*,O'y'-,=)`]f'g'Q'R'<'S'r,T' ^;)>)U'B' !,)O]7'.^|)1)H'f~y!+)+[;.;.;.;.;.;.;.h.h.*!@[#[h~P!Q!$^t!j~C]T~~~{~S]q]2{E]i{r]Q{%^F]&^*^U{G]H]s]=^-^;^>^h.,^'^)^. . . .       ,&,&        ,&    ,&        ,&,&        ,&,&,&      ,&,&          ,&        ,&,&          ,&              ,&,&                        ",
"    . . . . &,e,/';.O'y'+'=)5,f'8,Q'R'<'['!^T'z';)>)U'B'V',)l!7'%{|)1)H'j)~^+){)$[%[&[*[*[=[-[Q];.;.h.;.;.;[Q!^^3~g{C]T~~~{~7~o~z{E]i{r]Q{/^F]m{*^U{G]H](^=^U]_^:^<^;.[^}^|^. . . .       ,&,&      ,&,&    ,&,&      ,&,&        ,&,&          ,&,&                    ,&,&        ,&              ,&,&                        ",
"    . . . . &,e,1^;.e)-,=)#':)8,Q'R'<)[)r,T'z';)>)g)!'V',)l!i)')|)1)2)j)y!+)A)B)>]8)n)-~+^>[T)U),[B{;.h.;.h.'[3~g{C]N{~~{~7~o~z{E]P{Y~Q{/^F]D{*^U{G]4^(^=^5]_^:^5^6^;.7^8^9^. . . .       ,&,&      ,&,&    ,&,&    ,&,&          ,&,&          ,&,&                    ,&,&        ,&                                          ",
"    . . . . 0^c)a^;.-,=)#':)8,K)R'<)[)h'T'P,;)>)g)!'V',)${i)')|)1)2)j)b^z)A)B)>]Q)n)-~+^)[T)U)A!;!![c]h.h.h.;.~[k~N{~~{~7~o~z{D~i{Y~Q{6{e^D{*^U{f^4^(^=^U]_^:^5^X]g^h.h^i^j^. . . .         ,&,&    ,&      ,&,&    ,&,&          ,&            ,&,&          ,&,&,&,&,&,&,&        ,&                                          ",
"    . . . . H{t)k^;.u)P':)8,Q'p,<)[)h'v)P,;)L)g)!'V',)l^i)')+!1)2)j)y!z)A)B)P)Q)n)-~+^{[T)U)-!;!>~t{y~h.h.;.h.][N{~~-{o^o~z{3{P{Y~Q{6{p^D{*^2]f^4^(^q^r^_^:^s^t^u^v^h.w^i^x^. . . .         ,&,&  ,&,&        ,&    ,&,&          ,&            ,&,&        ,&,&,&,&,&,&,&,&        ,&                                          ",
"    . . . . y^e)z^;.A^:):'K)p,<)[)2!v)P,w)''g)!'k!N)l^i)')+!1)6!j).)z)B^#!P)Q)n)9!E)^[T)U)-!;!>~t{F^i~/[;.;.;.;.G^-{7~o~z{3{P{Y~~]6{e^D{H^2]f^4^I^q^U]J^K^s^t^u^L^M^k=N^i^O^. . . .         ,&,&  ,&,&        ,&    ,&,&          ,&            ,&,&      ,&,&          ,&,&        ,&                                          ",
"    . . . . P^e'Q^;.R^:'K)p,<)`)h'v)j'w)''g) !k!N)X'.!p'+!G'6!@!b^z)])#!P)Q)n)%!E)}{a!b!-!;!C!)]y~i~U^([_[;.;.h.:[;{>{|]3{P{){~]R{e^g]H^2]f^(]I^q^V^J^K]s^t^u^L^i^W^k=X^i^Y^. . . .         ,&,&  ,&,&        ,&,&,&,&            ,&            ,&,&      ,&            ,&,&        ,&                                          ",
"    . . . . Z^u)`^;. /K)<'1!`)h'v)j'w)''{! !k!N)X'.!p'+!G'6!@!k)7!A)#!P)8!$!%!E)}{a!b!B!;!C!)]u{s!U^F!<[3];.;.h.[[>{|]3{P{){~]R{l{D{H^2]#/s]I^q^V^J^K]s^t^$/L^i^L^%/*!&/i^*/. . . .           ,&,&,&,&        ,&,&,&,&            ,&            ,&,&      ,&            ,&,&        ,&                                          ",
"      . . . =/-/a~k,;/<'1!`)-)v)j'x!''{! !k!l!>/.!p'+!H'6!@!k)7!])#!P)8!$!%!E)}[a!b!-!p!C!)]u{s!t!F!C]|[!:;.;.;.1[|]h{r]){~]6{l{g]H^G]#/s]I^5]!/J^K]s^'^$/L^i^L^L^~/{/]/L^^/. . . .           ,&,&,&            ,&,&,&            ,&            ,&,&      ,&,&        ,&,&,&        ,&,&            ,&,&                        ",
"      . . . //7,:'j,(/1!`)-)3!j'Q,U'{! !k!l!_/.!p'5!H'6!@!k)7!])#!P)8!$!n!o!0!a!b!B!p!C!)]u{s!U^4~C]U!2[h.;.;.h.3[h{r]){~]R{l{[/E{G]#/s]I^5]V^J^K]}/'^$/L^i^L^L^|/;.1/L^2/3/. . .             ,&,&,&            ,&,&,&            ,&            ,&,&        ,&,&,&,&,&  ,&,&        ,&,&,&,&,&      ,&,&                        ",
"      . . . 4/5/9,6/7/`)8/3!j'Q,U'{! !h)l!X'.!p'5!H']!y!k)7!])m!8)8!$!n!o!F)a!A!B!p!O!P!u{s!t!4~C]U!D]4[h.;.;.;.h{r]@]/^R{l{g]E{G]#/s]b/5]j]J^5^}/'^c/8^i^L^L^L^d/;.e/L^f/g/. . .                                                                             ,&,&                                                              ",
"      . . . K'h/<)t~;.-)3!;)Q,U'{!V'h)l!y)%~|)5!H']!y!k)7!*~m!8)8!-~n!o!F);~A!5[p!O!P!u{,~t!4~C]U!~~6[h.;.;.h.7[r]@]/^R{]]g]E{G]&](^b/5]l/m/5^}/'^c/8^n/L^L^L^L^o/;.p/L^q/. . . .                                                                                                                                               ",
"      . . . . r/q,J{;.s/;)Q,U'M!V'W'l!7'%~|)|~H']!y!O)&~*~m!8)=~-~t/8[9[;~A!5[p!O!P!f!s!3~4~C]l~~~0[a[h.;.h.h.b[@]/^y/#]*^E{G]&](^b/5]z/m/5^A/u^c/8^n/L^L^L^L^B/~/C/L^i^D/. . . .                                                                                                                                               ",
"        . . . E/r,-)F/G/A'U'M!V'h)6'y)%~+!|~H']!y!O)&~*~m!8)=~-~z!1~c[h.X<d[e[f[h~f!,~3~4~g[g[h[i[;.k=;.h.;.j[@]/^{]]]*^E{f^&](^4]U]Y/m/5^A/u^c/8^i^L^L^L^L^L^Z/*!`/L^i^ (. . .                                                                                                                                                 ",
"        . . . . T'z'.(Y,+(M!V'h)6'@(%~|)|~H']!y!#({)*~g~Q)=~-~^!1~F)k[;.;.h.;.>:l[m[i[n[o[p[q[;.h.h.;.h.;.r[s[/^&(]]*^1]f^&](^4]U];^v]5^A/u^]/i^n/L^L^L^L^L^L^*(;.=(i^-(. . . .                                                                                                                                                 ",
"        . . . . ;(;)>(;.,(k!W'6''(%{+!|~H'f~b^O)&~B)g~Q)=~-~^!1~0!x~t[h.h.;.;.;.;.;.;.;.;.;.;.;.;.k=;.;.g:u[6{{]]]H^1]f^H]I^4]U];^v]s^A/$/]/i^L^L^L^L^L^L^L^L^;.;.~(L^{(. . . .                                                                                                                                                 ",
"          . . . ](^(g)/(((W'6''(%{+!|~_(f~b^+){)#!g~Q)R~%!^!1~0!x~-!v[w[h.;.;.k=;.;.;.;.;.;.;.h.;.;.x[y[z[6{F]m{*^1]f^H]I^4]U];^v]s^A/$/]/n/L^L^L^L^L^L^L^L^[(;.}(L^|(1(. . . .                                                                                                                                                 ",
"          . . . 2(3(B'#~;.4('(%{+!|~6!f~b^r{{)#!g~8!R~%!+^1~5(x~-!|{C!h~A[B[C[D[@^@[E[F[G[H[I[J[K[L[){!{6{F]m{H^1]f^H]I^4]V^J^v]s^X]$/]/i^L^L^L^L^L^L^L^L^~(q(r(s(i^t(. . . .                                                                                                                                                   ",
"          . . . . u(k!$~v(w(%{+!1)6!f~k)+){)#!>]8!R~%!+^}{5(U)-!|{C!h~u{Q!={F!T!M[N[O[N[P[Q[R[S[i{){!{R{F]m{H^U{#/H]I^=^V^;^v]}/X]$/]/i^L^L^L^L^L^L^L^L^L^y(;.z(L^i^A(. . . .                                                                                                                                                   ",
"            . . . . B(_/C(;.D(1)6!j)k)+){)#!>]8!n)%![{}{T)U)B!|{C!t{u{Q!p]F!g{U!T~x{{~;{o~z{h{i{){Q{R{F]m{H^U{#/H]I^=^V^_^K^}/X]$/}^i^L^L^L^L^L^L^L^L^L^L^E(;.F(L^G(. . . .                                                                                                                                                     ",
"            . . . . H(i)')I(J(6!j)k)+)A)K(>]8!R~n![{}{T)U)B!|{C!t{u{Q!={4~g{U!N{x{{~;{o~z{h{i{@]Q{R{F]D{E{U{#/4^b/=^V^_^K^}/X]$/}^i^L^L^L^L^L^L^L^L^L^L^L(;.M(L^i^N(. . . .                                                                                                                                                     ",
"              . . . O(p'5!P(;.Q(k)z)A)R(P)8!n)n!E)}{S(U)B!;!C!t{u{i~w{4~G!U!N{x{{~;{o~z{T(P{@]Q{R{p^m{E{U{#/(]b/q^V^U(K^}/t^c/}^i^L^L^L^L^L^L^L^L^L^L^V(W(X(Y(i^Z(#). . . .                                                                                                                                                     ",
"              . . . . `(1)f~ _3]~)A)m!P)=~n)n![{F)a!U)B!;!O!t{u{i~w{4~g{l~N{x{-{O{._z{h{P{@]Q{{]p^D{E{2]&](]b/=^j]+_K^A/t^c/}^n/L^L^L^L^L^L^L^L^L^L^L^@_;.#_L^L^$_. . . .                                                                                                                                                       ",
"                . . . . %_@!O)&_*_K(P)=~n)n!E)F)a!b!2~;!O!)]f!i~w{4~G!l~N{x{-{O{=_|]h{P{@]~]{]p^D{E{2]&](]b/q^j]+_K]}/t^c/L^i^L^L^L^L^L^L^L^L^L^L^L^-_;.z(L^i^;_. . . .                                                                                                                                                         ",
"                . . . . >_O)7!,_'_)_=~$!^!E)F)a!b!2~;!O!)]f!i~w{j~G!l~N{e]-{O{=_|]X~P{!{~]{]l{D{1]2]&]s]4]q^j]J^K]A/t^]/L^L^L^L^L^L^L^L^L^L^L^L^L^!_;.~_&/i^L^{_. . . .                                                                                                                                                         ",
"                  . . . . ]_])^_/_;.(_^!E)0!a!b!2~p!h~)]f!s!t!j~G!l~N{e]-{q]=_|]X~r]!{~]{]l{g]1]2]&]s]4]q^j]__K]A/t^]/L^i^L^L^L^L^L^L^L^L^L^L^L^:_<_;.[_L^L^}_. . . .                                                                                                                                                           ",
"                    . . . |_1_P)2_3_;.4_F)x~b!2~p!h~)]f!5_t!j~G!l~D]e]-{q]6_|]X~r]!{~]{]T{g]1]2]H]s]4]5]j]__K]A/'^]/L^L^L^L^L^L^L^L^L^L^L^L^L^7_8_;.9_L^i^0_. . . . .                                                                                                                                                           ",
"                    . . . . . a_$!^!b_;.c_b!d_p!h~)]f!s!t!e_C]T~N{e]y{q]>{T]i{r]!{~]F]l{g]1]G]H]s]4]5];^f_5^X]'^]/L^i^L^L^L^L^L^L^L^L^L^L^L^7_g_;.h_L^i^i_. . . . .                                                                                                                                                             ",
"                      . . . . j_k_l_0!m_;.n_p!h~P!Q!5_t!j~C]T~~~{~y{q]p~E]i{r]!{/^F]l{g]1]G]H]s]4]5];^o_5^X]'^]/L^i^L^L^L^L^L^L^L^L^L^L^L^p_q_;.r_L^i^s_t_. . . .                                                                                                                                                               ",
"                        . . . . u_v_w_A!x_;.y_P!Q!5_3~g{C]T~~~{~y{q]p~E]i{Y~Q{/^F]]]*^U{G]4^(^=^5];^o_5^X]'^}^8^i^L^L^L^L^L^L^L^L^L^L^L^z_A_;.B_L^L^C_D_. . . .                                                                                                                                                                 ",
"                          . . . . E_A!d_>~F_;.G_,~3~H_k~T~~~{~7~q]2{E]i{Y~Q{/^F]]]*^I_f^H](^=^U];^J_5^X]u^}^8^n/L^L^L^L^L^L^L^L^L^L^L^K_~/;.L_L^i^M_N_. . . . .                                                                                                                                                                 ",
"                          . . . . . O_P_t{Q_R_S_0/T_k~N{~~-{7~o~p~E]P{Y~Q{/^F]]]*^U{f^4^(^=^U]_^J_5^X]u^}^8^L^L^L^L^L^L^L^L^L^L^L^L^U_;.~/V_L^i^W_X_. . . . .                                                                                                                                                                   ",
"                            . . . . . Y_Z_i~,~`_ :<~.:~~-{7~o~2{3{+:Y~Q{6{e^]]H^U{f^4^(^=^U]_^v]s^t^u^}^8^n/L^L^L^L^L^L^L^L^L^L^@:#:;.$:%:L^i^&:*:. . . . .                                                                                                                                                                     ",
"                              . . . . . . =:3~g{-:;:;.>:,:;{2{3{P{Y~Q{6{e^m{*^2]f^4^(^q^U]_^v]s^t^u^}^i^L^L^L^L^L^L^L^L^L^L^':):;.!:~:L^i^L^{:. . . . . .                                                                                                                                                                       ",
"                                . . . . . |_]:k~N{G^^:/:;.4{(:P{){~]6{e^]]H^2]f^(]I^q^U]_^_:s^t^$/L^i^L^L^L^L^L^L^L^L^L^z_::X(;.<:[:L^i^L^}:. . . . . .                                                                                                                                                                         ",
"                                    . . . . . |:1:-{;{>{2:3:;.4:5:6:l{[/H^2]f^s]I^q^V^J^7:s^t^$/L^i^L^L^L^L^L^L^L^8:9:0:;.;.%/a:L^i^i^b:c:. . . . . .                                                                                                                                                                           ",
"                                      . . . . . . d:o~|]h{e:f:g:;.3]h:i:2]#/s]I^5]V^J^v]s^'^$/L^i^L^L^L^L^L^L^X^j:~_k=;.k:l:c/L^i^2/^/. . . . . .                                                                                                                                                                               ",
"                                        . . . . . . m:n:o:@]~]R{p:q:r:;.;.s:t:u:v:w:x:y:X]$/L^C_z:l:A:B:C:D:E:;.;.@_F:l:L^i^i^Z(G:H:. . . . . .                                                                                                                                                                                 ",
"                                            . . . . . . . I:J:l{D{E{G]K:L:M:*!k=;.;.;.;.;.;.;.;.;.;.;.h.*!k=N:O:P:L^i^i^L^Q:R:. . . . . . . .                                                                                                                                                                                   ",
"                                              . . . . . . . H:S:T:U{&](^b/5]U:V:W:X:Y:Z:`: <.<+<C:@<#<$<%<]/L^L^i^i^L^0_&<*<. . . . . . .                                                                                                                                                                                       ",
"                                                  . . . . . . . . G{=<-<':;<m/><}/u^c/8^n/L^L^L^i^i^i^i^i^L^Q:,<'<)<. . . . . . . . .                                                                                                                                                                                           ",
"                                                      . . . . . . . . . !<:]~<{<]<^</<L^i^L^L^i^]/(<^<_<:<<<[<}<. . . . . . . . . .                                                                                                                                                                                             ",
"                                                          . . . . . . . . . . . . . . . . . . . . . . . . . . . . . . . . . .                                                                                                                                                                                                   ",
"                                                              . . . . . . . . . . . . . . . . . . . . . . . . . . . . . .                                                                                                                                                                                                       ",
"                                                                      . . . . . . . . . . . . . . . . . . . . . .                                                                                                                                                                                                               ",
"                                                                              . . . . . . . . . . . . . .                                                                                                                                                                                                                       ",
"                                                                                                                                                                                                                                                                                                                                ",
"                                                                                                                                                                                                                                                                                                                                ",
"                                                                                                                                                                                                                                                                                                                                ",
"                                                                                                                                                                                                                                                                                                                                ",
"                                                                                                                                                                                                                                                                                                                                ",
"                                                                                                                                                                                                                                                                                                                                ",
"                                                                                                                                                                                                                                                                                                                                ",
"                                                                                                                                                                                                                                                                                                                                ",
"                                                                                                                                                                                                                                                                                                                                ",
"                                                                                                                                                                                                                                                                                                                                ",
"                                                                                                                                                                                                                                                                                                                                ",
"                                                                                                                                                                                                                                                                                                                                ",
"                                                                                                                                                                                                                                                                                                                                ",
"                                                                                                                                                                                                                                                                                                                                ",
"                                                                                                                                                                                                                                                                                                                                ",
"                                                                                                                                                                                                                                                                                                                                ",
"                                                                                                                                                                                                                                                                                                                                ",
"                                                                                                                                                                                                                                                                                                                                ",
"                                                                                                                                                                                                                                                                                                                                ",
"                                                                                                                                                                                                                                                                                                                                "};
