/* XPM */
static const char * desktopIcon64x64_xpm[] = {
"64 64 1551 2",
"  	c None",
". 	c #74B8E6",
"+ 	c #5EB0E4",
"@ 	c #379BDB",
"# 	c #3197D7",
"$ 	c #459DD4",
"% 	c #4CA1D2",
"& 	c #4DA1D2",
"* 	c #4DA1D3",
"= 	c #4CA1D3",
"- 	c #4BA1D3",
"; 	c #419FD6",
"> 	c #349ADC",
", 	c #57A3D1",
"' 	c #B3B7B6",
") 	c #DFC4AF",
"! 	c #DCCABB",
"~ 	c #D5C8BC",
"{ 	c #CCBFB3",
"] 	c #CABAB2",
"^ 	c #D0B9B8",
"/ 	c #D4B5B7",
"( 	c #D5B0B0",
"_ 	c #D6B4B2",
": 	c #D6C3BE",
"< 	c #CDC6C1",
"[ 	c #BBBCBB",
"} 	c #B3B8B9",
"| 	c #D8C8B8",
"1 	c #D8C7B8",
"2 	c #D9C7B8",
"3 	c #D9C8B8",
"4 	c #E3CBB6",
"5 	c #F5D0B3",
"6 	c #BABDBC",
"7 	c #3392D1",
"8 	c #0081DA",
"9 	c #1188D6",
"0 	c #1D8CD4",
"a 	c #1E8CD4",
"b 	c #1F8CD4",
"c 	c #208CD4",
"d 	c #1E8BD4",
"e 	c #1B8BD5",
"f 	c #1E8CD5",
"g 	c #2A90D5",
"h 	c #53A3DC",
"i 	c #3F9BD9",
"j 	c #47A3DE",
"k 	c #4BA6E0",
"l 	c #45A3DF",
"m 	c #42A2DF",
"n 	c #43A2DF",
"o 	c #44A2DF",
"p 	c #41A2DF",
"q 	c #3EA1DF",
"r 	c #369EE0",
"s 	c #2B9AE3",
"t 	c #5CAADA",
"u 	c #C9CCC7",
"v 	c #F8DBBF",
"w 	c #EAD6C2",
"x 	c #E3D4C4",
"y 	c #E2D4C4",
"z 	c #E2D5C4",
"A 	c #E3D7C4",
"B 	c #E3D8C4",
"C 	c #E3D6C4",
"D 	c #EAD7C3",
"E 	c #2C9BE3",
"F 	c #3596D7",
"G 	c #2A8DD1",
"H 	c #3D94D2",
"I 	c #48A0DA",
"J 	c #98D0EF",
"K 	c #B3E2F9",
"L 	c #99D6F7",
"M 	c #8DD0F6",
"N 	c #8FD1F6",
"O 	c #91D1F6",
"P 	c #91D2F6",
"Q 	c #8CD1F7",
"R 	c #82CEF8",
"S 	c #85CEF7",
"T 	c #92D1F6",
"U 	c #B4DBEE",
"V 	c #E8EBE0",
"W 	c #FFF2DA",
"X 	c #FAEFDC",
"Y 	c #F7EEDD",
"Z 	c #F7EFDD",
"` 	c #F7F2DE",
" .	c #FAF8DE",
"..	c #FBFCDF",
"+.	c #FBFDDF",
"@.	c #FAF9DF",
"#.	c #F8F2DE",
"$.	c #FAF0DC",
"%.	c #E8ECE0",
"&.	c #B4DCEE",
"*.	c #92D2F6",
"=.	c #8CD0F7",
"-.	c #2085CC",
";.	c #378ECC",
">.	c #50A2D9",
",.	c #BDE4F6",
"'.	c #DFFBFE",
").	c #ACE4FE",
"!.	c #95DAFF",
"~.	c #9ADCFF",
"{.	c #9DDDFF",
"].	c #9CDCFF",
"^.	c #98DBFF",
"/.	c #96DBFF",
"(.	c #AAE1FA",
"_.	c #D2ECF1",
":.	c #EDF3EA",
"<.	c #FBF7E2",
"[.	c #FFF8DF",
"}.	c #FFF7E0",
"|.	c #FFF7E1",
"1.	c #FFF7E2",
"2.	c #FFF9E2",
"3.	c #FFFFE2",
"4.	c #FFF9E1",
"5.	c #F8EADF",
"6.	c #F5E2DD",
"7.	c #F5E2DC",
"8.	c #F8EADE",
"9.	c #FFFAE2",
"0.	c #FFFCE0",
"a.	c #FBF8E2",
"b.	c #EDF5E9",
"c.	c #D2EDF1",
"d.	c #ACE5FF",
"e.	c #DFFCFF",
"f.	c #1C81C8",
"g.	c #4190C6",
"h.	c #4F9FD6",
"i.	c #B6DEF5",
"j.	c #C6EEFE",
"k.	c #7ACBFB",
"l.	c #57BCF9",
"m.	c #5FC0F9",
"n.	c #63C1FA",
"o.	c #5DBFFB",
"p.	c #53BCFD",
"q.	c #5BBEFB",
"r.	c #74C6F5",
"s.	c #A1D4E8",
"t.	c #E2E7D5",
"u.	c #FFF0CC",
"v.	c #FFEECD",
"w.	c #FEEDCE",
"x.	c #FDECCE",
"y.	c #FCECCE",
"z.	c #FEEDCF",
"A.	c #FFF4D0",
"B.	c #FFFFD1",
"C.	c #F9E9CD",
"D.	c #DDA9C4",
"E.	c #CF88BE",
"F.	c #CF85BB",
"G.	c #DDA6C0",
"H.	c #FAEACE",
"I.	c #FFFFD3",
"J.	c #FFF6CF",
"K.	c #FFF0CD",
"L.	c #FFF1CC",
"M.	c #7ACCFC",
"N.	c #C6EFFF",
"O.	c #1D7DC2",
"P.	c #4790C2",
"Q.	c #4E9CD3",
"R.	c #B0DAF3",
"S.	c #B9E7FF",
"T.	c #62BFF8",
"U.	c #3BADF4",
"V.	c #44B1F4",
"W.	c #46B2F5",
"X.	c #43B1F6",
"Y.	c #41B0F7",
"Z.	c #40B0F7",
"`.	c #58B7F1",
" +	c #87C7E5",
".+	c #BAD6D7",
"++	c #F0E6C7",
"@+	c #FFECC0",
"#+	c #FFE9C4",
"$+	c #FCE7C6",
"%+	c #FBE7C6",
"&+	c #FAE7C6",
"*+	c #FDE9C6",
"=+	c #FFEEC8",
"-+	c #FFECC8",
";+	c #FBE4C6",
">+	c #EDC5C4",
",+	c #D38FC1",
"'+	c #C672BD",
")+	c #C46DB9",
"!+	c #CF88B9",
"~+	c #E9C2BD",
"{+	c #F9E4C2",
"]+	c #FEEFC7",
"^+	c #FFF3C6",
"/+	c #FFF0C1",
"(+	c #F0E7C7",
"_+	c #BAD7D7",
":+	c #1E7BBE",
"<+	c #478EBF",
"[+	c #4E9AD0",
"}+	c #AED7F3",
"|+	c #B7E4FF",
"1+	c #65BEF5",
"2+	c #40ADF0",
"3+	c #49B0F1",
"4+	c #48B0F3",
"5+	c #3EADF5",
"6+	c #46AFF3",
"7+	c #5FB7ED",
"8+	c #8DC6E2",
"9+	c #CEDDD1",
"0+	c #F4E9C8",
"a+	c #FDEAC6",
"b+	c #FFEAC6",
"c+	c #FEE8C7",
"d+	c #FCE8C8",
"e+	c #FBE8C8",
"f+	c #FDE8C8",
"g+	c #FFEECA",
"h+	c #FFFACC",
"i+	c #FEE1CA",
"j+	c #E5A5C2",
"k+	c #D98EC6",
"l+	c #DA9CD6",
"m+	c #D89FDB",
"n+	c #D299D6",
"o+	c #CF8EC7",
"p+	c #CE80AF",
"q+	c #DC9DAF",
"r+	c #F9E6C6",
"s+	c #FFFFCF",
"t+	c #FFF4C8",
"u+	c #FDEBC6",
"v+	c #F3E9C8",
"w+	c #CEDDD2",
"x+	c #5FB6ED",
"y+	c #2079BB",
"z+	c #478CBB",
"A+	c #4E97CE",
"B+	c #ABD4F1",
"C+	c #B4E2FE",
"D+	c #65BBF2",
"E+	c #40A9ED",
"F+	c #45ACEF",
"G+	c #48ADF0",
"H+	c #60B6EB",
"I+	c #91C7E0",
"J+	c #C3D9D4",
"K+	c #F8EBC7",
"L+	c #FFF2C3",
"M+	c #FFEEC7",
"N+	c #FFEBC9",
"O+	c #FEEBC9",
"P+	c #FFECCA",
"Q+	c #FFEECB",
"R+	c #FDEDC9",
"S+	c #F0E9C4",
"T+	c #DCC7BC",
"U+	c #C188B1",
"V+	c #C07BBC",
"W+	c #DAA1DD",
"X+	c #E2B1E9",
"Y+	c #D8AAE1",
"Z+	c #CD93CE",
"`+	c #C06CB1",
" @	c #C97AAB",
".@	c #E7BEBB",
"+@	c #F9E4C5",
"@@	c #FEEEC9",
"#@	c #FFF4C9",
"$@	c #FFF5C4",
"%@	c #F8ECC8",
"&@	c #2177B7",
"*@	c #4989B8",
"=@	c #4F95CA",
"-@	c #A8D2EE",
";@	c #B0DFFB",
">@	c #63B7EF",
",@	c #3CA4EA",
"'@	c #3AA4ED",
")@	c #47A9EC",
"!@	c #62B2E7",
"~@	c #91C5DE",
"{@	c #D4E1CF",
"]@	c #FBF1C8",
"^@	c #FFF3C8",
"/@	c #FFF2C9",
"(@	c #FFF1CA",
"_@	c #FFF1CB",
":@	c #FFF2CB",
"<@	c #FFF5CC",
"[@	c #FFFACF",
"}@	c #F3E7C5",
"|@	c #BBBBAF",
"1@	c #9A9D9F",
"2@	c #908D95",
"3@	c #A38EA7",
"4@	c #D3A0D5",
"5@	c #E4A6E6",
"6@	c #D6A0D9",
"7@	c #CB95CE",
"8@	c #C186C4",
"9@	c #C17BB7",
"0@	c #C875A6",
"a@	c #DB96AA",
"b@	c #FBE0C3",
"c@	c #FFFFCE",
"d@	c #FFFACA",
"e@	c #2374B4",
"f@	c #4B87B5",
"g@	c #4F93C7",
"h@	c #A5D0ED",
"i@	c #ABDBFA",
"j@	c #5CB2ED",
"k@	c #399FE7",
"l@	c #42A3E8",
"m@	c #5FAFE4",
"n@	c #91C3DC",
"o@	c #C1D5D1",
"p@	c #EFE6C3",
"q@	c #FEE9BC",
"r@	c #EEDFBD",
"s@	c #E7DABE",
"t@	c #E8DBBE",
"u@	c #E9DBBF",
"v@	c #E9DCBF",
"w@	c #E9DEC2",
"x@	c #EAE1C6",
"y@	c #ECE3C7",
"z@	c #EFE5C5",
"A@	c #D9D3BC",
"B@	c #AAADAE",
"C@	c #94A0A6",
"D@	c #97A9A3",
"E@	c #A5A9AC",
"F@	c #BD9EC0",
"G@	c #CB98CC",
"H@	c #CF96CF",
"I@	c #CB93D0",
"J@	c #C18FCD",
"K@	c #BC7ABB",
"L@	c #BD529A",
"M@	c #C96B98",
"N@	c #E0C5B6",
"O@	c #EBECC3",
"P@	c #E8E1C0",
"Q@	c #EEE0BE",
"R@	c #FEEABC",
"S@	c #EFE6C2",
"T@	c #2672B0",
"U@	c #4E85B2",
"V@	c #5190C5",
"W@	c #A3CDEB",
"X@	c #A4D7F9",
"Y@	c #50ABEC",
"Z@	c #379CE4",
"`@	c #5BAAE0",
" #	c #8FC0D8",
".#	c #D4DFCE",
"+#	c #E1D5B9",
"@#	c #CCC3B0",
"##	c #B1AFA7",
"$#	c #A5A6A3",
"%#	c #A8A8A4",
"&#	c #A9A9A5",
"*#	c #AAA9A5",
"=#	c #AAAAA5",
"-#	c #AAAAA6",
";#	c #AAABA7",
">#	c #ABB0AE",
",#	c #ADB7BA",
"'#	c #ABAEAD",
")#	c #AFB1B0",
"!#	c #BCBFC3",
"~#	c #C8CED1",
"{#	c #D5DDDB",
"]#	c #C6CCCA",
"^#	c #9A9C9F",
"/#	c #99879D",
"(#	c #C38CC4",
"_#	c #CF8DD3",
":#	c #BE89CB",
"<#	c #BB76B7",
"[#	c #C55597",
"}#	c #C16290",
"|#	c #B09EA1",
"1#	c #A6B6A8",
"2#	c #A4ACA5",
"3#	c #B1B0A8",
"4#	c #2970AD",
"5#	c #4F83AE",
"6#	c #4F8DC2",
"7#	c #9CC8EA",
"8#	c #A0D3F8",
"9#	c #56ABE8",
"0#	c #4EA3DD",
"a#	c #89BBD5",
"b#	c #C3D4CE",
"c#	c #FBEEC6",
"d#	c #B0AFAC",
"e#	c #A9ADB2",
"f#	c #A5ACB4",
"g#	c #A5ABB3",
"h#	c #A4ABB2",
"i#	c #A5ABB2",
"j#	c #A6ABB2",
"k#	c #A6ACB3",
"l#	c #A6AFB7",
"m#	c #A6B4BF",
"n#	c #A5ADB3",
"o#	c #A19B93",
"p#	c #9A928B",
"q#	c #8E929B",
"r#	c #9FA7B4",
"s#	c #CBCFD5",
"t#	c #E4E6E8",
"u#	c #EAECED",
"v#	c #CED5D1",
"w#	c #909F95",
"x#	c #848588",
"y#	c #A987AC",
"z#	c #BC83BC",
"A#	c #BE79B8",
"B#	c #C071AD",
"C#	c #C36B9C",
"D#	c #BC7C9D",
"E#	c #ABA5AE",
"F#	c #A4B7B6",
"G#	c #A5B1B6",
"H#	c #A9AEB2",
"I#	c #B0AFAD",
"J#	c #2A6EAA",
"K#	c #5081AA",
"L#	c #4C89C0",
"M#	c #90C1E9",
"N#	c #9DD0F5",
"O#	c #6FB1E1",
"P#	c #7FB3D2",
"Q#	c #CCD5C9",
"R#	c #F9EAC5",
"S#	c #FFF2C6",
"T#	c #EEDEBC",
"U#	c #D6DADD",
"V#	c #E8ECEF",
"W#	c #DEE4E8",
"X#	c #DAE0E5",
"Y#	c #DBE1E5",
"Z#	c #DBE0E5",
"`#	c #DBE1E6",
" $	c #DBE1E7",
".$	c #DCE9F2",
"+$	c #DFF7FF",
"@$	c #D7D8D1",
"#$	c #C58B50",
"$$	c #B17339",
"%$	c #9A908E",
"&$	c #A7B3C6",
"*$	c #D7DCE4",
"=$	c #E7E9EA",
"-$	c #D7D9D9",
";$	c #BFC2C1",
">$	c #9FA5A1",
",$	c #8A918F",
"'$	c #80858A",
")$	c #92748B",
"!$	c #BF5F94",
"~$	c #CB6A9E",
"{$	c #B895A9",
"]$	c #BBBBBE",
"^$	c #D3DCDD",
"/$	c #E3EDEE",
"($	c #E9F0F1",
"_$	c #D6DBDD",
":$	c #2A6CA7",
"<$	c #447AAA",
"[$	c #4584BD",
"}$	c #8DBEE7",
"|$	c #ACD5F1",
"1$	c #9DC3D8",
"2$	c #B5C8C9",
"3$	c #F2E5C2",
"4$	c #FFF3C1",
"5$	c #E6D9BC",
"6$	c #A6ADB4",
"7$	c #EBEEF1",
"8$	c #FFFFFF",
"9$	c #F3F8FC",
"0$	c #EBF1F6",
"a$	c #ECF2F7",
"b$	c #EDF3F7",
"c$	c #EDF4F8",
"d$	c #EDF6FD",
"e$	c #EEFBFF",
"f$	c #EDF8FF",
"g$	c #EBEEEB",
"h$	c #E5CAA7",
"i$	c #DC8D35",
"j$	c #CE8330",
"k$	c #BCAC9A",
"l$	c #BBC8D5",
"m$	c #CCD6E1",
"n$	c #CDD3DC",
"o$	c #BEC1C5",
"p$	c #ACAEAF",
"q$	c #999B9B",
"r$	c #838A87",
"s$	c #697B72",
"t$	c #796E73",
"u$	c #B3668A",
"v$	c #C97EA2",
"w$	c #BBB8BC",
"x$	c #C3DED7",
"y$	c #E2F0F1",
"z$	c #F8FFFF",
"A$	c #EBEEF0",
"B$	c #2265A4",
"C$	c #2C70AD",
"D$	c #3D7DBA",
"E$	c #93BFE3",
"F$	c #CAE1EB",
"G$	c #DFE0CE",
"H$	c #F0E3C0",
"I$	c #FDE9C0",
"J$	c #FFEDC2",
"K$	c #FFF0C5",
"L$	c #E7D9BB",
"M$	c #A6A8A3",
"N$	c #E7EAED",
"O$	c #FCFEFF",
"P$	c #E3E9EE",
"Q$	c #D8DFE6",
"R$	c #DAE1E7",
"S$	c #DBE2E7",
"T$	c #DBE2E8",
"U$	c #DBE2E9",
"V$	c #DBE3E9",
"W$	c #DCEAF7",
"X$	c #DDF7FF",
"Y$	c #D7DCE2",
"Z$	c #CB996B",
"`$	c #D08535",
" %	c #E6A041",
".%	c #F2C16F",
"+%	c #F3E6C0",
"@%	c #DCE4DF",
"#%	c #ACBBCD",
"$%	c #97A6BC",
"%%	c #9FA6AE",
"&%	c #97999B",
"*%	c #7F8181",
"=%	c #6D706F",
"-%	c #626866",
";%	c #717273",
">%	c #9A8E98",
",%	c #B8AEB9",
"'%	c #CBD2D7",
")%	c #D5E4E6",
"!%	c #D8E3E8",
"~%	c #E5ECF1",
"{%	c #FCFFFF",
"]%	c #135BA1",
"^%	c #467CAC",
"/%	c #638DB5",
"(%	c #AFCBDE",
"_%	c #E5EDE6",
":%	c #FFEDBC",
"<%	c #FFE9C0",
"[%	c #FFEAC3",
"}%	c #FFEFC5",
"|%	c #E8D9BB",
"1%	c #A7ADB4",
"2%	c #E5E8EC",
"3%	c #F7FAFD",
"4%	c #DCE2E8",
"5%	c #D0D8DE",
"6%	c #D2DAE0",
"7%	c #D3DBE1",
"8%	c #D3DBE2",
"9%	c #D3DCE4",
"0%	c #D4DFE8",
"a%	c #D4E4F1",
"b%	c #D2E0EC",
"c%	c #CED4DB",
"d%	c #CBB59E",
"e%	c #C98334",
"f%	c #D68725",
"g%	c #F1C070",
"h%	c #FFE5A3",
"i%	c #FFF6BF",
"j%	c #F2E3B9",
"k%	c #B9AB91",
"l%	c #989086",
"m%	c #8E9297",
"n%	c #7F8790",
"o%	c #6C6F73",
"p%	c #666769",
"q%	c #6D6F72",
"r%	c #81898A",
"s%	c #A1B3B2",
"t%	c #BDD0D1",
"u%	c #D5E1E5",
"v%	c #DCE5EB",
"w%	c #D3DDE3",
"x%	c #DCE4E9",
"y%	c #E5E8EB",
"z%	c #3D6D9C",
"A%	c #929EA7",
"B%	c #B9B5AF",
"C%	c #E2E4D8",
"D%	c #FBF7E1",
"E%	c #FFE7BD",
"F%	c #FEE6C0",
"G%	c #FFE8C3",
"H%	c #FFEEC5",
"I%	c #E8D9BA",
"J%	c #A8A8A3",
"K%	c #A7ADB3",
"L%	c #E3E7EB",
"M%	c #F6F9FE",
"N%	c #DDE5EA",
"O%	c #D2DBE1",
"P%	c #D4DDE2",
"Q%	c #D5DEE3",
"R%	c #D6DEE4",
"S%	c #D6DFE6",
"T%	c #D6E1EA",
"U%	c #D7E9F7",
"V%	c #D8F4FF",
"W%	c #D2D7DD",
"X%	c #C39166",
"Y%	c #CA8334",
"Z%	c #E7AC47",
"`%	c #F7CF76",
" &	c #FCECC0",
".&	c #FFF0CB",
"+&	c #FFDB97",
"@&	c #FFC263",
"#&	c #F5A52F",
"$&	c #CE9138",
"%&	c #8A857D",
"&&	c #657790",
"*&	c #5F6671",
"=&	c #6C6F72",
"-&	c #8C9195",
";&	c #ABB3B7",
">&	c #C8D4D7",
",&	c #D8E4E8",
"'&	c #DAE4E8",
")&	c #D8E1E7",
"!&	c #D4DDE3",
"~&	c #DEE6EA",
"{&	c #F6FAFE",
"]&	c #A09A97",
"^&	c #B1ABA3",
"/&	c #DDC5AB",
"(&	c #F9EED4",
"_&	c #FFFBDE",
":&	c #FFEBC7",
"<&	c #FDE3BD",
"[&	c #FCE4C0",
"}&	c #FFE8C2",
"|&	c #FFEEC4",
"1&	c #E8D8BA",
"2&	c #A9A8A3",
"3&	c #E3E6EB",
"4&	c #F5F9FE",
"5&	c #DFE6EB",
"6&	c #D4DEE3",
"7&	c #D6DFE5",
"8&	c #D8E0E6",
"9&	c #D8E1E8",
"0&	c #D9E2E9",
"a&	c #D8E3EB",
"b&	c #D6DFE7",
"c&	c #D3D8DD",
"d&	c #CFB9A2",
"e&	c #CB8435",
"f&	c #D98C27",
"g&	c #F8D076",
"h&	c #FFF3AE",
"i&	c #FFF5CF",
"j&	c #FFE4B8",
"k&	c #FEC168",
"l&	c #FFAA2C",
"m&	c #FF9E03",
"n&	c #E98D10",
"o&	c #937754",
"p&	c #6A6D78",
"q&	c #6D727A",
"r&	c #838990",
"s&	c #ACB4BA",
"t&	c #CAD2D8",
"u&	c #DDE5EB",
"v&	c #E3EBF1",
"w&	c #D7E0E5",
"x&	c #D5DEE4",
"y&	c #DFE7EC",
"z&	c #F5FAFE",
"A&	c #E2E6EB",
"B&	c #C9AC93",
"C&	c #A5A4A0",
"D&	c #CFBEA9",
"E&	c #F3E9D2",
"F&	c #FFF8DD",
"G&	c #FEE9C6",
"H&	c #FCE3BC",
"I&	c #FBE4BF",
"J&	c #FFE7C1",
"K&	c #FFEDC3",
"L&	c #E8D8B9",
"M&	c #A9A8A2",
"N&	c #A6ADB3",
"O&	c #E2E6EA",
"P&	c #E0E8ED",
"Q&	c #D7DFE5",
"R&	c #D9E0E7",
"S&	c #DAE2EA",
"T&	c #DBE4EE",
"U&	c #DAE4ED",
"V&	c #D9E1E6",
"W&	c #D2C4B6",
"X&	c #C48D5D",
"Y&	c #CB8539",
"Z&	c #E7AD49",
"`&	c #FEF0C2",
" *	c #FFF3CF",
".*	c #FFDA9D",
"+*	c #FFC169",
"@*	c #FFA733",
"#*	c #FF9914",
"$*	c #FF970E",
"%*	c #E78610",
"&*	c #A8661C",
"**	c #8D6A47",
"=*	c #94928F",
"-*	c #A9B6C2",
";*	c #CDD6DE",
">*	c #DFE6ED",
",*	c #DEE5EB",
"'*	c #D9E0E6",
")*	c #B9A591",
"!*	c #9D9E9C",
"~*	c #C8BAA8",
"{*	c #F0E6D1",
"]*	c #FFF7DC",
"^*	c #FEE9C5",
"/*	c #FBE2BB",
"(*	c #FBE4BE",
"_*	c #FEE7C0",
":*	c #E8D8B8",
"<*	c #E1E6EA",
"[*	c #E2E9EE",
"}*	c #D9E1E7",
"|*	c #DAE2E9",
"1*	c #DCE6F0",
"2*	c #DDEDFD",
"3*	c #D3C4B8",
"4*	c #CEA378",
"5*	c #CB7E2B",
"6*	c #D98D2B",
"7*	c #F8D178",
"8*	c #FFF3CE",
"9*	c #FEE2B8",
"0*	c #FEC069",
"a*	c #FFA833",
"b*	c #FF9C15",
"c*	c #FB9009",
"d*	c #E88611",
"e*	c #CE7A1C",
"f*	c #AD6F2B",
"g*	c #A5825D",
"h*	c #B5B4B1",
"i*	c #C8D6E3",
"j*	c #DFE8F1",
"k*	c #E7EDF4",
"l*	c #DCE2E9",
"m*	c #DAE1E8",
"n*	c #B0A090",
"o*	c #999696",
"p*	c #C7B7A7",
"q*	c #F0E6D0",
"r*	c #FFF7DB",
"s*	c #FBE4BD",
"t*	c #F5FBFE",
"u*	c #E3EAF0",
"v*	c #DBE3EA",
"w*	c #DCE4EC",
"x*	c #DEECFA",
"y*	c #E1FBFF",
"z*	c #D8DBE2",
"A*	c #C58E5F",
"B*	c #C97E2A",
"C*	c #E7AB45",
"D*	c #F8D177",
"E*	c #FFD99D",
"F*	c #FEBF69",
"G*	c #FEA634",
"H*	c #FF9A16",
"I*	c #FF9E0E",
"J*	c #F38E0C",
"K*	c #BB6B0E",
"L*	c #A06C35",
"M*	c #A19281",
"N*	c #B1B6BA",
"O*	c #D0D8E1",
"P*	c #E0E9F3",
"Q*	c #E1E9F1",
"R*	c #E1E8EF",
"S*	c #DDE4EA",
"T*	c #DCE3E9",
"U*	c #E3EAEF",
"V*	c #AE9C8F",
"W*	c #9A938F",
"X*	c #C5B5A5",
"Y*	c #EFE5CF",
"Z*	c #FFF7DA",
"`*	c #FEE9C4",
" =	c #FBE3BD",
".=	c #FEE7BF",
"+=	c #FFEDC1",
"@=	c #E8D8B7",
"#=	c #E0E6EA",
"$=	c #F5FBFF",
"%=	c #E4ECF2",
"&=	c #DDE7F1",
"*=	c #DFEDFA",
"==	c #DDEAF6",
"-=	c #D9DDE4",
";=	c #D3BCA5",
">=	c #CB863A",
",=	c #D88D2A",
"'=	c #FEE1B8",
")=	c #FE9208",
"!=	c #F48E0B",
"~=	c #D5821A",
"{=	c #A26F35",
"]=	c #95806C",
"^=	c #ACB6C0",
"/=	c #C5DAEE",
"(=	c #DFEBF7",
"_=	c #E9F0F8",
":=	c #E2E9F0",
"<=	c #DEE5EC",
"[=	c #E4EBF0",
"}=	c #AC9A8D",
"|=	c #9E9286",
"1=	c #C3B4A3",
"2=	c #EFE4CD",
"3=	c #FFF6D9",
"4=	c #FEE8C4",
"5=	c #FEE6BF",
"6=	c #FFECC1",
"7=	c #E8D7B7",
"8=	c #A9A7A2",
"9=	c #E5EDF4",
"0=	c #DFEEFB",
"a=	c #E2FDFF",
"b=	c #DADFE4",
"c=	c #C79469",
"d=	c #CB8335",
"e=	c #FEA534",
"f=	c #FF9D0E",
"g=	c #BD6C0C",
"h=	c #A06E35",
"i=	c #9D9385",
"j=	c #ACB7C0",
"k=	c #CDDBE7",
"l=	c #DFEDF8",
"m=	c #E3EDF4",
"n=	c #E0E8EE",
"o=	c #DEE6EC",
"p=	c #DEE6EB",
"q=	c #E0E5EA",
"r=	c #A9998A",
"s=	c #A39384",
"t=	c #C1B3A1",
"u=	c #EEE3CC",
"v=	c #FFF5D8",
"w=	c #FEE7C4",
"x=	c #FBE1BA",
"y=	c #FBE2BC",
"z=	c #FFE6BE",
"A=	c #E8D7B6",
"B=	c #DFE5EA",
"C=	c #F5FDFF",
"D=	c #E6F4FF",
"E=	c #DDEAF5",
"F=	c #DADFE2",
"G=	c #D4BCA2",
"H=	c #CB8333",
"I=	c #D78925",
"J=	c #F48E0C",
"K=	c #D4821B",
"L=	c #A06E36",
"M=	c #93806D",
"N=	c #ADB8C1",
"O=	c #C7DDF0",
"P=	c #E0EFF9",
"Q=	c #EAF4FA",
"R=	c #E4EDF2",
"S=	c #E1E9EE",
"T=	c #E6EDF2",
"U=	c #A79788",
"V=	c #A59586",
"W=	c #C0B19F",
"X=	c #EEE1CB",
"Y=	c #FFF4D7",
"Z=	c #FFE7C2",
"`=	c #FCE1B9",
" -	c #FCE2BB",
".-	c #FFE5BD",
"+-	c #FFEBBE",
"@-	c #E8D6B5",
"#-	c #A8A7A1",
"$-	c #A5ACB2",
"%-	c #F5FFFF",
"&-	c #E9FFFF",
"*-	c #D9DADE",
"=-	c #C69162",
"--	c #CA812E",
";-	c #E7AA43",
">-	c #F8CF73",
",-	c #FEEFC0",
"'-	c #FFF2CE",
")-	c #FEBF6A",
"!-	c #BC6D0F",
"~-	c #A06F38",
"{-	c #9E9488",
"]-	c #AEB9C4",
"^-	c #D0DEEA",
"/-	c #E3F1FB",
"(-	c #E6F0F7",
"_-	c #E6EFF4",
":-	c #E3ECF0",
"<-	c #E2EAEF",
"[-	c #E1EAEF",
"}-	c #E7EFF4",
"|-	c #A5ACB3",
"1-	c #A69687",
"2-	c #A49485",
"3-	c #BFB09E",
"4-	c #EDE1C9",
"5-	c #FFF4D6",
"6-	c #FCE0B8",
"7-	c #FCE2BA",
"8-	c #FFE5BC",
"9-	c #FFEBBD",
"0-	c #E8D6B4",
"a-	c #A8A7A0",
"b-	c #DEE7EE",
"c-	c #F6FFFF",
"d-	c #EBF4F3",
"e-	c #DDCCB1",
"f-	c #CD873D",
"g-	c #D58829",
"h-	c #FFF2AB",
"i-	c #FEE0B5",
"j-	c #FEBE68",
"k-	c #D48119",
"l-	c #A16B30",
"m-	c #947D68",
"n-	c #AFB9C3",
"o-	c #CADFF5",
"p-	c #E4F2FD",
"q-	c #EEF7FD",
"r-	c #E7F0F5",
"s-	c #E4ECF1",
"t-	c #E3EBF0",
"u-	c #E2EAF0",
"v-	c #E8F0F6",
"w-	c #DEE5EA",
"x-	c #A29284",
"y-	c #BDAE9D",
"z-	c #EDE0C8",
"A-	c #FFF4D5",
"B-	c #FCE1B8",
"C-	c #FFE5BB",
"D-	c #A5ADB6",
"E-	c #DEEAF5",
"F-	c #F6F6EA",
"G-	c #ECD296",
"H-	c #E9C06F",
"I-	c #EEC174",
"J-	c #F5D193",
"K-	c #FEF0CC",
"L-	c #FFF1CD",
"M-	c #FFD595",
"N-	c #FFBB61",
"O-	c #FEA431",
"P-	c #FF9A15",
"Q-	c #BC6D0E",
"R-	c #A06B2F",
"S-	c #A1886F",
"T-	c #B2AEAC",
"U-	c #D4DDE6",
"V-	c #E9F3FB",
"W-	c #E9F1F7",
"X-	c #E6EEF4",
"Y-	c #E5ECF2",
"Z-	c #E4EBF2",
"`-	c #EAF0F7",
" ;	c #F6FCFF",
".;	c #DFE5EB",
"+;	c #A09082",
"@;	c #BCAC9B",
"#;	c #EDDFC6",
"$;	c #FFF4D3",
"%;	c #FFE6C0",
"&;	c #FCE0B7",
"*;	c #FFEBBC",
"=;	c #E8D6B3",
"-;	c #A5AEB7",
";;	c #DFECF7",
">;	c #F7F5E2",
",;	c #EFC879",
"';	c #F1C365",
");	c #FFE5A7",
"!;	c #FFF7D2",
"~;	c #FFF9E9",
"{;	c #FDE8C9",
"];	c #FDC474",
"^;	c #FFAA38",
"/;	c #FE9005",
"(;	c #F38D0A",
"_;	c #A07039",
":;	c #957F69",
"<;	c #B3AFAC",
"[;	c #CED5DC",
"};	c #E8F1F9",
"|;	c #F1FBFF",
"1;	c #EAF2F9",
"2;	c #E6EDF4",
"3;	c #E6EDF3",
"4;	c #E5EDF3",
"5;	c #EBF2F8",
"6;	c #F6FDFF",
"7;	c #9E8E80",
"8;	c #BBAA98",
"9;	c #ECDEC4",
"0;	c #FFF3D2",
"a;	c #FFE6BF",
"b;	c #FDE0B6",
"c;	c #FFE4BA",
"d;	c #FFEABB",
"e;	c #E8D6B2",
"f;	c #A5AFB6",
"g;	c #DFECF3",
"h;	c #F9FAEB",
"i;	c #F4D79D",
"j;	c #F5D595",
"k;	c #FEF4D5",
"l;	c #FFFBE7",
"m;	c #FBEBCC",
"n;	c #F9D6A2",
"o;	c #F9BC69",
"p;	c #FFAA3A",
"q;	c #FFA014",
"r;	c #F48B04",
"s;	c #BC6A08",
"t;	c #A1978B",
"u;	c #B2BDC6",
"v;	c #D6E0E7",
"w;	c #E9F2F8",
"x;	c #EBF5FB",
"y;	c #EBF4FA",
"z;	c #EBF4F9",
"A;	c #F6FEFF",
"B;	c #A8A79E",
"C;	c #A38B7A",
"D;	c #BFA993",
"E;	c #EFDEBF",
"F;	c #FFE6BD",
"G;	c #FDDFB6",
"H;	c #FDE0B7",
"I;	c #FFE4B9",
"J;	c #FFE9BA",
"K;	c #E8D5B1",
"L;	c #A9A7A0",
"M;	c #A7B0B5",
"N;	c #E3EFF3",
"O;	c #F4F6EB",
"P;	c #DAC59C",
"Q;	c #DBC395",
"R;	c #F9F0D5",
"S;	c #FFFADE",
"T;	c #FDE1AF",
"U;	c #F9CD89",
"V;	c #F9BF6C",
"W;	c #F7AB46",
"X;	c #F19216",
"Y;	c #D57D0F",
"Z;	c #A16C32",
"`;	c #96826F",
" >	c #B3BFC7",
".>	c #CFE6F8",
"+>	c #E9F8FF",
"@>	c #F3FDFF",
"#>	c #ECF5FB",
"$>	c #E8F0F5",
"%>	c #EDF5FA",
"&>	c #F7FEFF",
"*>	c #A5ACB1",
"=>	c #A8A69E",
"->	c #AE8970",
";>	c #C8A789",
">>	c #F5DEB8",
",>	c #FFF4CA",
"'>	c #FFE6BC",
")>	c #FEDFB5",
"!>	c #FFE3B9",
"~>	c #FFE8B9",
"{>	c #E8D4B1",
"]>	c #A9A79F",
"^>	c #AAB2B7",
"/>	c #EBF3F7",
"(>	c #E7E8E2",
"_>	c #9F9178",
":>	c #A28C64",
"<>	c #F0DAA6",
"[>	c #FFF4B5",
"}>	c #FFDA92",
"|>	c #FECC80",
"1>	c #FECB7E",
"2>	c #E7AC5C",
"3>	c #B86F19",
"4>	c #A16728",
"5>	c #A39587",
"6>	c #B5BFC9",
"7>	c #D8E6EE",
"8>	c #EBF9FF",
"9>	c #EEF9FE",
"0>	c #EEF7FC",
"a>	c #EBF3F9",
"b>	c #EAF2F7",
"c>	c #EAF2F6",
"d>	c #EEF6FB",
"e>	c #FFE8BA",
"f>	c #87888A",
"g>	c #A4A59F",
"h>	c #D9D9C5",
"i>	c #F9F0CF",
"j>	c #FFE6BA",
"k>	c #FFE1B2",
"l>	c #FFE0B5",
"m>	c #FFE3B8",
"n>	c #A9A89F",
"o>	c #ACB3B7",
"p>	c #F1F6F8",
"q>	c #E1E1DF",
"r>	c #7C756B",
"s>	c #706147",
"t>	c #BEA672",
"u>	c #E8C580",
"v>	c #EEBF70",
"w>	c #F4BE6C",
"x>	c #F8C374",
"y>	c #DDAA66",
"z>	c #A27544",
"A>	c #957C63",
"B>	c #B6BEC5",
"C>	c #D3E8F9",
"D>	c #EDFAFF",
"E>	c #F0F8FD",
"F>	c #ECF4FA",
"G>	c #ECF4F9",
"H>	c #F9FFFF",
"I>	c #E0E7EB",
"J>	c #A5ADB1",
"K>	c #E8D4B0",
"L>	c #2D89C7",
"M>	c #52A2D5",
"N>	c #9DCEE5",
"O>	c #D7E6DD",
"P>	c #FCE6B9",
"Q>	c #FFE5AB",
"R>	c #FFE2B2",
"S>	c #FFE3B6",
"T>	c #FFE8B7",
"U>	c #E8D5B0",
"V>	c #ADB3B7",
"W>	c #F4F6F8",
"X>	c #E0E1E1",
"Y>	c #707275",
"Z>	c #47433D",
"`>	c #645439",
" ,	c #8C6E3E",
".,	c #BD914A",
"+,	c #DBA44F",
"@,	c #E6A74D",
"#,	c #D8A765",
"$,	c #B2A595",
"%,	c #B2BAC3",
"&,	c #DAE6EC",
"*,	c #EFFCFF",
"=,	c #F1FCFF",
"-,	c #F2FAFF",
";,	c #EFF8FD",
">,	c #EEF6FC",
",,	c #EDF6FC",
"',	c #EDF6FB",
"),	c #FAFFFF",
"!,	c #E0E9EB",
"~,	c #A5ADB2",
"{,	c #FFE8B8",
"],	c #0A89DE",
"^,	c #2C9FEA",
"/,	c #75C5F6",
"(,	c #B0DBEA",
"_,	c #D9DDC6",
":,	c #F4E0B3",
"<,	c #FEE2B1",
"[,	c #FFE5B2",
"},	c #FFE9B5",
"|,	c #E8D4AF",
"1,	c #A8A79F",
"2,	c #ACB2B7",
"3,	c #F6F7F7",
"4,	c #E7E8EA",
"5,	c #80858E",
"6,	c #4F5257",
"7,	c #544D46",
"8,	c #705E46",
"9,	c #A38759",
"0,	c #C49E62",
"a,	c #D3A463",
"b,	c #D5B587",
"c,	c #CBCED0",
"d,	c #D4E7F9",
"e,	c #F2FEFF",
"f,	c #FEFFFF",
"g,	c #F7FFFF",
"h,	c #F3FCFF",
"i,	c #F3FBFF",
"j,	c #F2FBFF",
"k,	c #F2FCFF",
"l,	c #E3ECED",
"m,	c #A7A59E",
"n,	c #E7D4AF",
"o,	c #1E87CF",
"p,	c #349CE1",
"q,	c #61BEF8",
"r,	c #84CFF8",
"s,	c #99CCE0",
"t,	c #BFD2C9",
"u,	c #F5E1B3",
"v,	c #FFE9AB",
"w,	c #FFE9B2",
"x,	c #E7D3AE",
"y,	c #A5A59E",
"z,	c #AAB1B6",
"A,	c #F5F6F7",
"B,	c #ABB0B7",
"C,	c #888E97",
"D,	c #8E9298",
"E,	c #95989A",
"F,	c #9FA09D",
"G,	c #ACACA6",
"H,	c #BEBCB4",
"I,	c #D4D3CE",
"J,	c #ECF1F3",
"K,	c #FBFFFF",
"L,	c #FDFFFF",
"M,	c #E9EFF0",
"N,	c #A5AEB3",
"O,	c #A5A49D",
"P,	c #E6D3AE",
"Q,	c #FFEAB2",
"R,	c #2986C7",
"S,	c #3A99DA",
"T,	c #5ABAF6",
"U,	c #6BC7FE",
"V,	c #6BBFF1",
"W,	c #8DC5DC",
"X,	c #D0D6C0",
"Y,	c #F8E2B2",
"Z,	c #FFE8B2",
"`,	c #EED6AC",
" '	c #B2ADA0",
".'	c #ACB0B2",
"+'	c #DDDFE0",
"@'	c #E0E2E5",
"#'	c #B5BAC1",
"$'	c #A2A9B2",
"%'	c #A6AFBA",
"&'	c #A4AFBC",
"*'	c #9CA9B9",
"='	c #9EADBE",
"-'	c #ACBCCE",
";'	c #C2CFDC",
">'	c #ECF0EF",
",'	c #E5EBEC",
"''	c #E2E9EA",
")'	c #E2E9EB",
"!'	c #E1EAEB",
"~'	c #E4EBED",
"{'	c #E9EEF0",
"]'	c #D5DADC",
"^'	c #A9ADB0",
"/'	c #B1ACA0",
"('	c #EED6AB",
"_'	c #2B84C4",
":'	c #3D97D6",
"<'	c #60B8F1",
"['	c #67C3FC",
"}'	c #50B6F7",
"|'	c #5EB6EB",
"1'	c #8FC2D9",
"2'	c #C4D2C7",
"3'	c #FBE5B3",
"4'	c #FEDEA9",
"5'	c #CDBDA6",
"6'	c #B1ADAA",
"7'	c #ACAFB3",
"8'	c #A6ACB4",
"9'	c #9FA5AB",
"0'	c #9CA3A9",
"a'	c #9DA5AC",
"b'	c #9CA4AD",
"c'	c #9AA2AC",
"d'	c #99A3AD",
"e'	c #9BA6B0",
"f'	c #A0A9B2",
"g'	c #A7AEB4",
"h'	c #AAAFB4",
"i'	c #A7ADB2",
"j'	c #A9ACB0",
"k'	c #B1ACA8",
"l'	c #CDBDA5",
"m'	c #FEDEA8",
"n'	c #2E82C1",
"o'	c #3F95D3",
"p'	c #61B5EC",
"q'	c #65BFF9",
"r'	c #47B1F7",
"s'	c #46AEF2",
"t'	c #62B4E9",
"u'	c #91C2D8",
"v'	c #D4D8BF",
"w'	c #EFDCB0",
"x'	c #E1CDAB",
"y'	c #B2ACA1",
"z'	c #B0AEA5",
"A'	c #B4B2A8",
"B'	c #B4B2A9",
"C'	c #B4B1A9",
"D'	c #B3B0A8",
"E'	c #ADABA2",
"F'	c #AAA89F",
"G'	c #A8A59D",
"H'	c #A7A49C",
"I'	c #A7A59C",
"J'	c #A8A59C",
"K'	c #A6A49C",
"L'	c #A5A39C",
"M'	c #B1AB9F",
"N'	c #2F81BD",
"O'	c #4093CF",
"P'	c #5FB2E9",
"Q'	c #65BCF5",
"R'	c #4FB0F0",
"S'	c #45ABEE",
"T'	c #47ABEF",
"U'	c #60B3E6",
"V'	c #91C1D5",
"W'	c #C1CFC3",
"X'	c #EFDDAF",
"Y'	c #FEDFA7",
"Z'	c #EED7AA",
"`'	c #E8D3AD",
" )	c #EAD5AE",
".)	c #ECD6AF",
"+)	c #ECD6B0",
"@)	c #EBD6B0",
"#)	c #EAD4AD",
"$)	c #E9D3AC",
"%)	c #E8D3AC",
"&)	c #E8D2AC",
"*)	c #E8D2AB",
"=)	c #E7D2AC",
"-)	c #E6D2AB",
";)	c #EED6A9",
">)	c #317FBA",
",)	c #4091CB",
"')	c #5DAEE5",
"))	c #64B8F0",
"!)	c #53AEEB",
"~)	c #47A8EA",
"{)	c #3EA6EE",
"])	c #47A9EB",
"^)	c #62B0E2",
"/)	c #90BFD3",
"()	c #D4D7BC",
"_)	c #FBE5B0",
":)	c #FFE8B0",
"<)	c #FFE9B0",
"[)	c #FFE7B1",
"})	c #FFE6B2",
"|)	c #FFE6B3",
"1)	c #FFE5B3",
"2)	c #FFE9AF",
"3)	c #347DB6",
"4)	c #418EC8",
"5)	c #5BA9E1",
"6)	c #61B4EC",
"7)	c #52ABE7",
"8)	c #4AA6E5",
"9)	c #47A5E6",
"0)	c #46A5E7",
"a)	c #46A4E7",
"b)	c #5EACDF",
"c)	c #90BCD1",
"d)	c #C3CEC1",
"e)	c #F8E2B0",
"f)	c #FFE9AA",
"g)	c #FFE4AF",
"h)	c #FFE1B1",
"i)	c #FFE0B1",
"j)	c #5AA9E1",
"k)	c #337DB6",
"l)	c #367BB3",
"m)	c #428BC5",
"n)	c #58A5DE",
"o)	c #5DAFE9",
"p)	c #51A7E3",
"q)	c #4BA3E1",
"r)	c #4CA3E1",
"s)	c #47A2E3",
"t)	c #3D9FE6",
"u)	c #45A1E4",
"v)	c #60A9DD",
"w)	c #8EB9CF",
"x)	c #D0D1BA",
"y)	c #F6DEAF",
"z)	c #FFE1AE",
"A)	c #FFDEAF",
"B)	c #FDDDB0",
"C)	c #418BC5",
"D)	c #357BB3",
"E)	c #387AB1",
"F)	c #4289C2",
"G)	c #54A1DA",
"H)	c #59ABE5",
"I)	c #50A4E0",
"J)	c #4CA0DE",
"K)	c #4DA1DF",
"L)	c #4BA0DF",
"M)	c #469FE1",
"N)	c #449EE1",
"O)	c #449EE2",
"P)	c #5CA6DB",
"Q)	c #8DB7CC",
"R)	c #C0CABD",
"S)	c #F6DFAE",
"T)	c #FFE6A9",
"U)	c #FFE0AD",
"V)	c #FDDDAF",
"W)	c #3A78AF",
"X)	c #4387C0",
"Y)	c #519ED8",
"Z)	c #55A8E3",
"`)	c #4FA2DF",
" !	c #4C9FDD",
".!	c #4B9FDD",
"+!	c #459DDF",
"@!	c #3B99E3",
"#!	c #439CE0",
"$!	c #5EA5D9",
"%!	c #8CB7CC",
"&!	c #D0D1B9",
"*!	c #F6E0B0",
"=!	c #FFE2B0",
"-!	c #FFE3B1",
";!	c #3C76AC",
">!	c #4384BD",
",!	c #4E9CD7",
"'!	c #52A6E3",
")!	c #4B9EDD",
"!!	c #4C9EDD",
"~!	c #499DDD",
"{!	c #459CDF",
"]!	c #439BE0",
"^!	c #429BE0",
"/!	c #5BA4D9",
"(!	c #8CB7CD",
"_!	c #C0CDC2",
":!	c #F5E6B8",
"<!	c #FFF0B5",
"[!	c #FFEDB7",
"}!	c #FFEBB8",
"|!	c #3C72A6",
"1!	c #427FB6",
"2!	c #4A91CB",
"3!	c #4C98D4",
"4!	c #4A95D1",
"5!	c #4994D0",
"6!	c #4993CF",
"7!	c #4893D0",
"8!	c #4391D1",
"9!	c #388DD4",
"0!	c #3F91D3",
"a!	c #5A9BCF",
"b!	c #8AAEC1",
"c!	c #D0C8A9",
"d!	c #F0D49F",
"e!	c #E9D0A3",
"f!	c #E5CFA5",
"g!	c #E5CEA5",
"h!	c #3A6C9C",
"i!	c #3F75A8",
"j!	c #447EB3",
"k!	c #4581B8",
"l!	c #4580B6",
"m!	c #4480B6",
"n!	c #447FB5",
"o!	c #457FB5",
"p!	c #3E7DB7",
"q!	c #3B7DBA",
"r!	c #397EBE",
"s!	c #5684AC",
"t!	c #938D83",
"u!	c #AD9171",
"v!	c #A59077",
"w!	c #A08F7A",
"x!	c #A08F7B",
"y!	c #345F89",
"z!	c #386693",
"A!	c #3B6A9A",
"B!	c #3C6C9C",
"C!	c #3C6C9B",
"D!	c #3C6B9A",
"E!	c #3C6C9A",
"F!	c #3B6B9A",
"G!	c #34699E",
"H!	c #2666A6",
"I!	c #386593",
"J!	c #6C6766",
"K!	c #816753",
"L!	c #786759",
"M!	c #74665D",
"N!	c #73665D",
"                                                                                                                                ",
"                                                                                                                                ",
"                                                                                                                                ",
"                                                                                                                                ",
"                                                                                                                                ",
"                                                                                                                                ",
"                                                                                                                                ",
"                                                                                                                                ",
"    . + @ # $ % & * * = = - - ; > , ' ) ! ~ { ] ^ / ( _ : < [ } | | | | | 1 1 1 1 2 3 4 5 6 7 8 9 0 a b b c c c b d e f g       ",
"    h i j k l m n o o o o p q r s t u v w x y y y y y y y y y y y y y y y z A B B A C D v u t E r q p o o o o n m l k j F G     ",
"    H I J K L M N O O O P Q R S T U V W X Y Y Y Y Y Y Y Y Y Y Y Y Y Y Y Z `  ...+.@.#.$.W %.&.*.S R =.P O O O N M L K J I -.    ",
"    ;.>.,.'.).!.~.{.{.].^././.(._.:.<.[.}.|.|.1.|.|.|.|.|.|.|.|.|.|.1.2.3.4.5.6.7.8.9.3.0.a.b.c.(././.^.].{.{.~.!.d.e.,.>.f.    ",
"    g.h.i.j.k.l.m.n.n.o.p.q.r.s.t.u.v.w.x.x.y.y.y.y.y.y.y.y.y.y.y.x.z.A.B.C.D.E.F.G.H.I.J.K.L.t.s.r.q.p.o.n.n.m.l.M.N.i.h.O.    ",
"    P.Q.R.S.T.U.V.W.X.Y.Z.`. +.+++@+#+$+$+%+&+&+&+&+&+&+&+&+&+%+%+*+=+-+;+>+,+'+)+!+~+{+]+^+/+(+_+ +`.Z.Y.X.W.V.U.T.S.R.Q.:+    ",
"    <+[+}+|+1+2+3+4+5+6+7+8+9+0+a+b+c+d+e+e+e+e+e+e+e+e+e+e+d+d+f+g+h+i+j+k+l+m+n+o+p+q+r+s+t+u+v+w+8+x+6+5+4+3+2+1+|+}+[+y+    ",
"    z+A+B+C+D+E+F+G+G+H+I+J+K+L+M+N+N+N+N+O+O+N+N+N+N+O+O+N+N+P+Q+R+S+T+U+V+W+X+Y+Z+`+ @.@+@@@#@$@%@J+I+H+G+G+F+E+D+C+B+A+&@    ",
"    *@=@-@;@>@,@'@)@!@~@{@]@^@t+/@(@_@_@_@_@_@_@_@_@_@_@:@:@:@<@[@}@|@1@2@3@4@5@6@7@8@9@0@a@b@c@d@t+]@{@~@!@)@'@,@>@;@-@=@e@    ",
"    f@g@h@i@j@k@l@m@n@o@p@q@r@s@t@t@u@u@u@u@u@u@u@u@u@v@v@w@x@y@z@A@B@C@D@E@F@G@H@I@J@K@L@M@N@O@P@Q@R@S@o@n@m@l@k@j@i@h@g@T@    ",
"    U@V@W@X@Y@Z@`@ #.#p@+#@###$#%#&#*#*#*#*#*#*#*#*#=#-#;#>#,#,#'#)#!#~#{#]#^#/#(#_#:#<#[#}#|#1#2#3#@#+#p@.# #`@Z@Y@X@W@V@4#    ",
"    5#6#7#8#9#0#a#b#c#q@@#d#e#f#g#h#i#i#j#j#j#j#j#j#k#l#m#n#o#p#q#r#s#t#u#v#w#x#y#z#A#B#C#D#E#F#G#H#I#@#q@c#b#a#0#9#8#7#6#J#    ",
"    K#L#M#N#O#P#Q#R#S#T###H#U#V#W#X#X#Y#Y#Y#Z#Y#Y#`# $.$+$@$#$$$%$&$*$=$-$;$>$,$'$)$!$~${$]$^$/$($_$H###T#S#R#Q#P#O#N#M#L#:$    ",
"    <$[$}$|$1$2$3$4$S#5$$#6$7$8$9$0$a$b$b$b$b$b$c$d$e$f$g$h$i$j$k$l$m$n$o$p$q$r$s$t$u$v$w$x$y$z$8$A$6$$#5$S#4$3$2$1$|$}$[$B$    ",
"    C$D$E$F$G$H$I$J$K$L$M$6$N$O$P$Q$R$S$T$T$T$U$V$W$X$Y$Z$`$ %.%+%@%#%$%%%&%*%=%-%;%>%,%'%)%!%~%{%N$6$M$L$K$J$I$H$G$F$E$D$]%    ",
"    ^%/%(%_%=+:%<%[%}%|%%#1%2%3%4%5%6%7%7%8%9%0%a%b%c%d%e%f%g%h%i%j%k%l%m%n%o%p%q%r%s%t%u%v%w%x%3%y%1%%#|%}%[%<%:%=+_%(%/%z%    ",
"    A%B%C%D%-+E%F%G%H%I%J%K%L%M%N%O%P%Q%R%S%T%U%V%W%X%Y%Z%`% &.&+&@&#&$&%&&&*&=&-&;&>&,&'&)&!&~&{&L%K%J%I%H%G%F%E%-+D%C%B%]&    ",
"    ^&/&(&_&:&<&[&}&|&1&2&K%3&4&5&6&7&8&9&0&a&b&c&d&e&f&g&h&i&j&k&l&m&n&o&p&q&r&s&t&u&v&x%w&x&y&z&A&K%2&1&|&}&[&<&:&_&(&/&B&    ",
"    C&D&E&F&G&H&I&J&K&L&M&N&O&z&P&Q&R&S&T&U&V&W&X&Y&Z&g&`& *.*+*@*#*$*%*&***=*-*;*>*>*,*T$'*Q&P&z&O&N&M&L&K&J&I&H&G&F&E&D&)*    ",
"    !*~*{*]*^*/*(*_*J$:*M&N&<*z&[*}*|*1*2*S&3*4*5*6*7*h&8*9*0*a*b*c*d*e*f*g*h*i*j*k*>*l*T$m*}*[*z&<*N&M&:*J$_*(*/*^*]*{*~*n*    ",
"    o*p*q*r*^*/*s*_*J$:*M&N&<*t*u*v*w*x*y*z*A*B*C*D*`&8*E*F*G*H*I*J*K*L*M*N*O*P*Q*R*,*S*S*T*U$U*t*<*N&M&:*J$_*s*/*^*r*q*p*V*    ",
"    W*X*Y*Z*`*/* =.=+=@=M&N&#=$=%=&=*===-=;=>=,=D*h&8*'=F*@*H*)=!=~={=]=^=/=(=_=:=<=,*,*,*,*S*[=t*#=N&M&@=+=.= =/*`*Z*Y*X*}=    ",
"    |=1=2=3=4=/* =5=6=7=8=k##=$=9=0=a=b=c=d=Z&7*`&8*E*F*e=H*f=!=g=h=i=j=k=l=m=v&n=y&y&y&y&o=p=~%$=q=k#8=7=6=5= =/*4=3=2=1=r=    ",
"    s=t=u=v=w=x=y=z=@+A=8=k#B=C=D=E=F=G=H=I=g&h& *'=F*@*H*)=J=K=L=M=N=O=P=Q=R=S=P&P&P&P&P&P&y&T=$=B=k#8=A=@+z=y=x=w=v=u=t=U=    ",
"    V=W=X=Y=Z=`= -.-+-@-#-$-B=%-&-*-=---;->-,-'-E*)-e=H*f=J=!-~-{-]-^-/-(-_-:-<-<-<-<-<-<-[-S=}-$=B=|-#-@-+-.- -`=Z=Y=X=W=1-    ",
"    2-3-4-5-Z=6-7-8-9-0-a-f#b-c-d-e-f-g-`%h-_@i-j-@*H*)=J=k-l-m-n-o-p-q-r-s-t-t-t-t-t-t-t-t-u-v-$=w-$-a-0-9-8-7-6-Z=5-4-3-2-    ",
"    x-y-z-A-J&B-7-C-9-0-#-D-E-F-G-H-I-J-K-L-M-N-O-P-f=J=Q-R-S-T-U-D=V-W-X-Y-Y-Y-Y-Y-Y-Y-Y-Y-Z-`- ;.;|-a-0-9-C-7-B-J&A-z-y-x-    ",
"    +;@;#;$;%;&;`=C-*;=;#--;;;>;,;';);!;~;{;];^;P-/;(;K=_;:;<;[;};|;1;X-2;3;3;3;3;3;3;3;3;3;4;5;6;5&$-a-=;*;C-`=&;%;$;#;@;+;    ",
"    7;8;9;0;a;b;B-c;d;e;a-f;g;h;i;j;k;l;m;n;o;p;q;r;s;h=t;u;v;w;x;y;v-}-}-}-}-}-}-}-}-}-}-}-_-z;A;5&$-B;e;d;c;B-b;a;0;9;8;7;    ",
"    C;D;E; *F;G;H;I;J;K;L;M;N;O;P;Q;R;S;T;U;V;W;X;Y;Z;`; >.>+>@>#>W-$>$>$>$>$>$>$>$>$>$>$>$>$>%>&>5&*>=>K;J;I;H;G;F; *E;D;C;    ",
"    ->;>>>,>'>)>H;!>~>{>]>^>/>(>_>:><>[>}>|>1>2>3>4>5>6>7>8>9>0>a>b>b>c>b>b>b>b>b>b>b>b>b>b>b>d>z$5&*>=>{>e>!>H;)>'>,>>>;>->    ",
"    f>g>h>i>j>k>l>m>~>{>n>o>p>q>r>s>t>u>v>w>x>y>z>A>B>C>D>c-E>F>z;a>a>z;z;z;z;z;z;z;z;z;z;z;G>E>H>I>J>=>K>~>m>l>k>j>i>h>g>f>    ",
"    L>M>N>O>P>Q>R>S>T>U>n>V>W>X>Y>Z>`> ,.,+,@,#,$,%,&,*,=,-,;,>,,,',',',',',',',',',',',',,,>,-,),!,~,=>K>{,S>R>Q>P>O>N>M>L>    ",
"    ],^,/,(,_,:,<,[,},|,1,2,3,4,5,6,7,8,9,0,a,b,c,d,e,f,g,h,i,i,j,k,k,k,k,k,k,k,k,k,k,k,k,j,i,g,8$l,n#m,n,},[,<,:,_,(,/,^,],    ",
"    o,p,q,r,s,t,u,v,w,x,y,z,A,A,B,C,D,E,F,G,H,I,J,K,f,8$L,K,K,K,K,K,K,K,K,K,K,K,K,K,K,K,K,K,K,8$8$M,N,O,P,Q,v,u,t,s,r,q,p,o,    ",
"    R,S,T,U,V,W,X,Y,Z,`, '.'+'@'#'$'%'&'*'='-';'<*>',''')'!'!'!'!'!'!'!'!'!'!'!'!'!'!'!'!'!'!'~'{']'^'/'('Z,Y,X,W,V,U,T,S,R,    ",
"    _':'<'['}'|'1'2'3'4'5'6'7'8'9'0'a'b'c'd'e'f'g'h'i'*>*>J>J>J>J>J>J>J>J>J>J>J>J>J>J>J>J>J>J>$-|-j'k'l'm'3'2'1'|'}'['<':'_'    ",
"    n'o'p'q'r's't'u'v'w'x'5'y'#-z'A'B'B'C'D'z'E'F'=>G'H'I'J'J'J'J'J'J'J'J'J'J'J'J'J'J'J'J'J'I'K'L'M'l'x'w'v'u't's'r'q'p'o'n'    ",
"    N'O'P'Q'R'S'T'U'V'W'X'Y'Z'`' ).)+)+)+)@) )#)$)%)&)&)*)*)*)*)*)*)*)*)*)*)*)*)*)*)*)*)*)&)&)=)-);)Y'X'W'V'U'T'S'R'Q'P'O'N'    ",
"    >),)')))!)~){)])^)/)()_):)<)[)})|)|)|)|)})})})})|)1)1)1)1)1)1)1)1)1)1)1)1)1)1)1)1)1)1)|)|)Z,<)2)_)()/)^)]){)~)!)))'),)>)    ",
"    3)4)5)6)7)8)9)0)a)b)c)d)e)f)g)h)i)i)i)i)i)i)i)i)i)i)i)i)i)i)i)i)i)i)i)i)i)i)i)i)i)i)i)i)h)g)f)e)d)c)b)a)0)9)8)7)6)j)4)k)    ",
"    l)m)n)o)p)q)r)s)t)u)v)w)x)y)z)z)A)B)B)B)B)B)B)B)B)B)B)B)B)B)B)B)B)B)B)B)B)B)B)B)B)B)B)A)z)z)y)x)w)v)u)t)s)r)q)p)o)n)C)D)    ",
"    E)F)G)H)I)J)K)L)M)N)O)P)Q)R)S)T)U)V)V)V)V)V)V)V)V)V)V)V)V)V)V)V)V)V)V)V)V)V)V)V)V)V)V)U)T)S)R)Q)P)O)N)M)L)K)J)I)H)G)F)E)    ",
"    W)X)Y)Z)`) ! ! !.!+!@!#!$!%!&!*!=!-!R>R>k>k>k>k>k>k>k>k>k>k>k>k>k>k>k>k>k>k>k>k>R>R>-!=!*!&!%!$!#!@!+!.! ! ! !`)Z)Y)X)W)    ",
"    ;!>!,!'!K))!)!!!)!~!{!]!^!/!(!_!:!<![!}!}!}!}!}!}!}!}!}!}!}!}!}!}!}!}!}!}!}!}!}!}![!<!:!_!(!/!^!]!{!~!)!!!)!)!K)'!,!>!;!    ",
"    |!1!2!3!4!5!6!6!6!6!7!8!9!0!a!b!c!d!e!f!g!g!g!g!g!g!g!g!g!g!g!g!g!g!g!g!g!g!g!g!f!e!d!c!b!a!0!9!8!7!6!6!6!6!5!4!3!2!1!|!    ",
"    h!i!j!k!l!m!n!n!o!n!m!1!p!q!r!s!t!u!v!w!x!x!x!x!x!x!x!x!x!x!x!x!x!x!x!x!x!x!x!x!w!v!u!t!s!r!q!p!1!m!n!o!n!n!m!l!k!j!i!h!    ",
"    y!z!A!B!C!D!E!E!E!E!E!F!F!G!H!I!J!K!L!M!M!N!M!M!M!M!M!M!M!M!M!M!M!M!M!M!M!M!N!M!M!L!K!J!I!H!G!F!F!E!E!E!E!E!D!C!B!A!z!y!    ",
"                                                                                                                                ",
"                                                                                                                                ",
"                                                                                                                                ",
"                                                                                                                                ",
"                                                                                                                                ",
"                                                                                                                                ",
"                                                                                                                                ",
"                                                                                                                                "};
