/* XPM */
static const char * SidePicture0_xpm[] = {
"160 400 1946 2",
"  	c None",
". 	c #9A9494",
"+ 	c #999494",
"@ 	c #989495",
"# 	c #999496",
"$ 	c #999495",
"% 	c #94979F",
"& 	c #8E9EB0",
"* 	c #89A4C0",
"= 	c #86A9CC",
"- 	c #84ACD3",
"; 	c #84ACD4",
"> 	c #84ADD5",
", 	c #85AACF",
"' 	c #88A5C3",
") 	c #8D9FB5",
"! 	c #9298A3",
"~ 	c #979598",
"{ 	c #939AA4",
"] 	c #8DA0B6",
"^ 	c #85A9CD",
"/ 	c #81B0DF",
"( 	c #82B2E0",
"_ 	c #81B0DE",
": 	c #81B1DF",
"< 	c #7FAFDD",
"[ 	c #7DADDC",
"} 	c #7BABD9",
"| 	c #7DA5CD",
"1 	c #859EB8",
"2 	c #8F98A6",
"3 	c #95959A",
"4 	c #9398A1",
"5 	c #86A8CA",
"6 	c #81AFDC",
"7 	c #8FBAE3",
"8 	c #9DC2E6",
"9 	c #A5C7E8",
"0 	c #AACBEA",
"a 	c #A6C8E9",
"b 	c #9EC3E7",
"c 	c #93BCE4",
"d 	c #7EAEDD",
"e 	c #7BABDA",
"f 	c #7AAAD8",
"g 	c #78A7D6",
"h 	c #76A5D4",
"i 	c #75A3D2",
"j 	c #74A1CF",
"k 	c #769EC6",
"l 	c #8B96A6",
"m 	c #979497",
"n 	c #8EA0B4",
"o 	c #84ABD1",
"p 	c #82B1DF",
"q 	c #86B5E1",
"r 	c #A1C5E7",
"s 	c #B9D4ED",
"t 	c #D1E2F3",
"u 	c #E6F0F9",
"v 	c #F8FBFD",
"w 	c #FFFFFF",
"x 	c #FBFDFE",
"y 	c #E9F1F8",
"z 	c #D3E3F1",
"A 	c #B9D1E9",
"B 	c #9EBFE0",
"C 	c #80ABD6",
"D 	c #72A2D1",
"E 	c #71A0CF",
"F 	c #6F9FCE",
"G 	c #6E9DCC",
"H 	c #6E9AC6",
"I 	c #7F96B0",
"J 	c #91949C",
"K 	c #8CA0B5",
"L 	c #9FC4E7",
"M 	c #DFEBF7",
"N 	c #FEFEFE",
"O 	c #FDFEFE",
"P 	c #FDFDFE",
"Q 	c #FAFBFD",
"R 	c #E5EEF8",
"S 	c #C5DBF0",
"T 	c #BED7EF",
"U 	c #BDD6EE",
"V 	c #BFD7EF",
"W 	c #C7DCF1",
"X 	c #D5E4F3",
"Y 	c #EAF1F9",
"Z 	c #FCFDFE",
"` 	c #E7EFF7",
" .	c #9FBEDE",
"..	c #709ECC",
"+.	c #6C9BCA",
"@.	c #6A98C7",
"#.	c #6897C7",
"$.	c #6695C5",
"%.	c #7593B4",
"&.	c #979395",
"*.	c #8E9FB3",
"=.	c #83ADD7",
"-.	c #9AC0E5",
";.	c #D0E2F3",
">.	c #F2F7FB",
",.	c #E8F1F9",
"'.	c #C4DAF0",
").	c #A9CAE9",
"!.	c #97BFE5",
"~.	c #88B5E1",
"{.	c #80B0DF",
"].	c #7DADDA",
"^.	c #7AA9D8",
"/.	c #83AED9",
"(.	c #92B7DC",
"_.	c #A6C4E2",
":.	c #C7DAEC",
"<.	c #F1F6FA",
"[.	c #F7F9FC",
"}.	c #D0DFED",
"|.	c #94B5D7",
"1.	c #6594C4",
"2.	c #6392C2",
"3.	c #6390BF",
"4.	c #7790AD",
"5.	c #96979C",
"6.	c #83ACD3",
"7.	c #91BBE3",
"8.	c #E1ECF7",
"9.	c #8AB7E2",
"0.	c #82B2DF",
"a.	c #7DADDB",
"b.	c #79A9D8",
"c.	c #77A7D6",
"d.	c #75A5D4",
"e.	c #74A4D3",
"f.	c #6F9ECD",
"g.	c #88AED5",
"h.	c #D0DFEE",
"i.	c #F5F8FB",
"j.	c #E9F0F6",
"k.	c #84A8CE",
"l.	c #6391C0",
"m.	c #608EBD",
"n.	c #5E8CBD",
"o.	c #5D8AB9",
"p.	c #8B919C",
"q.	c #8BA2BA",
"r.	c #81B0DC",
"s.	c #8EB9E3",
"t.	c #D5E5F4",
"u.	c #9BC1E6",
"v.	c #85B4E0",
"w.	c #81B1E0",
"x.	c #80B0DE",
"y.	c #7EAEDC",
"z.	c #72A1D0",
"A.	c #6B9ACA",
"B.	c #6A99C8",
"C.	c #729ECA",
"D.	c #92B3D5",
"E.	c #E5ECF4",
"F.	c #E4ECF4",
"G.	c #85A8CD",
"H.	c #5C8ABB",
"I.	c #5A88B9",
"J.	c #5987B8",
"K.	c #6A89AB",
"L.	c #989598",
"M.	c #87A7C8",
"N.	c #B8D3ED",
"O.	c #92BCE4",
"P.	c #78A8D8",
"Q.	c #74A3D2",
"R.	c #6D9CCC",
"S.	c #6998C8",
"T.	c #6694C4",
"U.	c #6593C3",
"V.	c #6391C1",
"W.	c #93B2D3",
"X.	c #E6EDF5",
"Y.	c #B9CDE1",
"Z.	c #648FBB",
"`.	c #5785B5",
" +	c #5583B5",
".+	c #5782B1",
"++	c #8D9099",
"@+	c #979599",
"#+	c #83AED8",
"$+	c #EFF5FB",
"%+	c #F0F5FB",
"&+	c #95BEE4",
"*+	c #7CACDB",
"=+	c #7AAAD9",
"-+	c #6E9DCD",
";+	c #6998C9",
">+	c #6897C6",
",+	c #6190C0",
"'+	c #5F8EBE",
")+	c #608EBE",
"!+	c #8EAECF",
"~+	c #F4F7FA",
"{+	c #7FA1C7",
"]+	c #5381B1",
"^+	c #5280B1",
"/+	c #507EAE",
"(+	c #7C8B9E",
"_+	c #AFCEEB",
":+	c #C0D8EF",
"<+	c #79A8D7",
"[+	c #77A6D5",
"}+	c #75A4D3",
"|+	c #5C8ABA",
"1+	c #5A88B8",
"2+	c #608CBA",
"3+	c #C7D6E6",
"4+	c #ACC2D9",
"5+	c #507EAF",
"6+	c #4E7CAC",
"7+	c #4C7AAC",
"8+	c #77889E",
"9+	c #9299A4",
"0+	c #CDE0F2",
"a+	c #F5F8FC",
"b+	c #7FAFDE",
"c+	c #73A3D2",
"d+	c #71A1D0",
"e+	c #70A0CF",
"f+	c #6B9AC9",
"g+	c #6998C7",
"h+	c #6493C3",
"i+	c #6291C1",
"j+	c #5E8CBC",
"k+	c #5987B7",
"l+	c #5583B4",
"m+	c #87A7C9",
"n+	c #E0E8F1",
"o+	c #507DAD",
"p+	c #4A78AA",
"q+	c #4977A9",
"r+	c #6B829F",
"s+	c #929AA5",
"t+	c #D9E7F5",
"u+	c #D4E5F4",
"v+	c #79A8D6",
"w+	c #6D9CCB",
"x+	c #6999C7",
"y+	c #6896C6",
"z+	c #5E8BBC",
"A+	c #5886B7",
"B+	c #5684B5",
"C+	c #5381B2",
"D+	c #517FB1",
"E+	c #6B92BC",
"F+	c #E5EBF3",
"G+	c #DEE6EF",
"H+	c #5781AF",
"I+	c #4774A5",
"J+	c #4673A5",
"K+	c #6D829C",
"L+	c #94979E",
"M+	c #7CACDA",
"N+	c #5F8DBD",
"O+	c #4F7DAF",
"P+	c #4D7BAD",
"Q+	c #4E7CAD",
"R+	c #E5EBF2",
"S+	c #F0F4F8",
"T+	c #547DAC",
"U+	c #4370A2",
"V+	c #416EA1",
"W+	c #71839A",
"X+	c #82AED9",
"Y+	c #DEEBF6",
"Z+	c #BCD5EE",
"`+	c #76A6D5",
" @	c #709FCE",
".@	c #6796C6",
"+@	c #618FBF",
"@@	c #5B89BA",
"#@	c #5482B4",
"$@	c #5280B2",
"%@	c #4D7CAD",
"&@	c #4C79AB",
"*@	c #4A77A9",
"=@	c #4B78A9",
"-@	c #CEDAE7",
";@	c #E9EEF4",
">@	c #4F79A8",
",@	c #406D9E",
"'@	c #3E6B9E",
")@	c #7E8897",
"!@	c #82ABD3",
"~@	c #DAE8F5",
"{@	c #C2D9EF",
"]@	c #78A8D7",
"^@	c #6A99C9",
"/@	c #6492C2",
"(@	c #6290C0",
"_@	c #5D8BBC",
":@	c #4D7BAC",
"<@	c #4976A8",
"[@	c #4674A6",
"}@	c #4573A5",
"|@	c #D4DFEA",
"1@	c #DEE6EE",
"2@	c #436F9F",
"3@	c #3D6A9B",
"4@	c #3B679A",
"5@	c #8B8D95",
"6@	c #89A5C1",
"7@	c #BBD5EE",
"8@	c #C9DEF1",
"9@	c #73A2D1",
"0@	c #6C9BCB",
"a@	c #5886B6",
"b@	c #4F7DAE",
"c@	c #4876A8",
"d@	c #4370A3",
"e@	c #4773A3",
"f@	c #E3E9F1",
"g@	c #CFDAE6",
"h@	c #3A6799",
"i@	c #396699",
"j@	c #456B97",
"k@	c #9399A4",
"l@	c #DBE9F6",
"m@	c #6897C8",
"n@	c #608FBF",
"o@	c #5C8ABC",
"p@	c #517FB0",
"q@	c #4E7BAC",
"r@	c #4572A5",
"s@	c #426FA0",
"t@	c #406D9F",
"u@	c #446FA0",
"v@	c #EEF2F6",
"w@	c #9AB1CB",
"x@	c #376496",
"y@	c #356295",
"z@	c #5A7494",
"A@	c #F4F8FC",
"B@	c #6795C5",
"C@	c #5E8DBD",
"D@	c #4D7AAC",
"E@	c #4B79AB",
"F@	c #4572A4",
"G@	c #426FA1",
"H@	c #3F6C9F",
"I@	c #3D6A9D",
"J@	c #3C699C",
"K@	c #5F84AD",
"L@	c #FBFCFD",
"M@	c #5177A3",
"N@	c #346093",
"O@	c #345F92",
"P@	c #868A94",
"Q@	c #8AA3BE",
"R@	c #DAE8F6",
"S@	c #98BFE5",
"T@	c #6F9ECE",
"U@	c #6898C6",
"V@	c #5D8ABB",
"W@	c #5B89B9",
"X@	c #5482B3",
"Y@	c #3A679A",
"Z@	c #396598",
"`@	c #91A9C5",
" #	c #F1F4F7",
".#	c #3A6495",
"+#	c #305C90",
"@#	c #3E638F",
"##	c #969599",
"$#	c #B1CEEB",
"%#	c #B3D0EC",
"&#	c #78A7D5",
"*#	c #4875A7",
"=#	c #406DA1",
"-#	c #3C699B",
";#	c #3A6699",
">#	c #376396",
",#	c #366295",
"'#	c #C6D2E0",
")#	c #96ACC6",
"!#	c #2E5A8E",
"~#	c #2D598D",
"{#	c #627690",
"]#	c #85ABD2",
"^#	c #F0F6FB",
"/#	c #84B3E0",
"(#	c #79A9D7",
"_#	c #5785B6",
":#	c #507EB0",
"<#	c #4E7CAE",
"[#	c #426FA2",
"}#	c #3C689B",
"|#	c #335F93",
"1#	c #4F75A2",
"2#	c #406896",
"3#	c #2B578B",
"4#	c #31598A",
"5#	c #969193",
"6#	c #81B0DD",
"7#	c #77A7D5",
"8#	c #75A1CF",
"9#	c #7CA5CF",
"0#	c #8CB0D4",
"a#	c #B5CCE2",
"b#	c #E0E9F3",
"c#	c #F7F9FB",
"d#	c #F6F9FB",
"e#	c #9BB8D5",
"f#	c #5C8BBA",
"g#	c #4F7DB0",
"h#	c #4B78AA",
"i#	c #4471A4",
"j#	c #416EA0",
"k#	c #346295",
"l#	c #336093",
"m#	c #315D91",
"n#	c #305C8F",
"o#	c #9BB0C8",
"p#	c #D3DCE7",
"q#	c #295589",
"r#	c #275387",
"s#	c #69798F",
"t#	c #88A6C6",
"u#	c #8CB8E2",
"v#	c #D2E3F4",
"w#	c #A4C3E0",
"x#	c #CBDCED",
"y#	c #E4EDF5",
"z#	c #F0F4F9",
"A#	c #9EB9D6",
"B#	c #5381B3",
"C#	c #3F6C9E",
"D#	c #386598",
"E#	c #366396",
"F#	c #2E5A8D",
"G#	c #2E598D",
"H#	c #E6EBF1",
"I#	c #4A6F9A",
"J#	c #255185",
"K#	c #245084",
"L#	c #979394",
"M#	c #9AC1E6",
"N#	c #9CB8D5",
"O#	c #4C7AAB",
"P#	c #4775A7",
"Q#	c #3D6A9C",
"R#	c #356195",
"S#	c #2C588C",
"T#	c #2A568A",
"U#	c #93A9C3",
"V#	c #B3C2D5",
"W#	c #214D82",
"X#	c #62748C",
"Y#	c #88A6C5",
"Z#	c #F1F6FB",
"`#	c #E7F0F9",
" $	c #77A6D6",
".$	c #9BB6D4",
"+$	c #356194",
"@$	c #335F92",
"#$	c #315D90",
"$$	c #285488",
"%$	c #375F8E",
"&$	c #204B80",
"*$	c #385983",
"=$	c #999393",
"-$	c #989597",
";$	c #A2C6E8",
">$	c #97BEE5",
",$	c #76A7D6",
"'$	c #ECF1F7",
")$	c #D9E4F0",
"!$	c #C2D3E6",
"~$	c #9BB8D6",
"{$	c #F3F6FA",
"]$	c #9AB6D2",
"^$	c #4D7AAB",
"/$	c #4471A3",
"($	c #416E9F",
"_$	c #3B689B",
":$	c #386497",
"<$	c #356193",
"[$	c #325E90",
"}$	c #2F5B8F",
"|$	c #285489",
"1$	c #265287",
"2$	c #255186",
"3$	c #91A7C1",
"4$	c #A8B9CD",
"5$	c #1E497E",
"6$	c #1D487D",
"7$	c #8F8E92",
"8$	c #9598A0",
"9$	c #EBF2FA",
"0$	c #E9F1F9",
"a$	c #C0D3E7",
"b$	c #90B1D4",
"c$	c #6B97C4",
"d$	c #6693C2",
"e$	c #628FBF",
"f$	c #EFF3F7",
"g$	c #99B4D2",
"h$	c #325E92",
"i$	c #234F83",
"j$	c #345B8B",
"k$	c #F8FAFB",
"l$	c #E1E7EE",
"m$	c #244F82",
"n$	c #1A467B",
"o$	c #526886",
"p$	c #8AA3BD",
"q$	c #90BAE3",
"r$	c #98B3D1",
"s$	c #4E7BAD",
"t$	c #406DA0",
"u$	c #29558A",
"v$	c #255085",
"w$	c #214C81",
"x$	c #234D81",
"y$	c #D7DEE8",
"z$	c #385E8C",
"A$	c #19447A",
"B$	c #1B4478",
"C$	c #80AFDB",
"D$	c #A6C8E8",
"E$	c #9BC2E6",
"F$	c #77A5D4",
"G$	c #6796C5",
"H$	c #5B8AB9",
"I$	c #EFF4F8",
"J$	c #97B2CF",
"K$	c #4774A6",
"L$	c #3B689A",
"M$	c #2C588B",
"N$	c #245085",
"O$	c #1F4B80",
"P$	c #1D497E",
"Q$	c #90A6BF",
"R$	c #90A5BE",
"S$	c #174277",
"T$	c #154075",
"U$	c #80848E",
"V$	c #95979E",
"W$	c #CCDFF2",
"X$	c #78A8D6",
"Y$	c #77A6D4",
"Z$	c #5F8DBE",
"`$	c #5D8BBB",
" %	c #EFF3F8",
".%	c #96B1CF",
"+%	c #4B7AAC",
"@%	c #3F6CA0",
"#%	c #346094",
"$%	c #2F5B8E",
"%%	c #2D598C",
"&%	c #265286",
"*%	c #245184",
"=%	c #1C487D",
"-%	c #335A89",
";%	c #F1F3F7",
">%	c #164175",
",%	c #133E74",
"'%	c #627187",
")%	c #8E9FB4",
"!%	c #CEE1F3",
"~%	c #77A5D5",
"{%	c #6B9AC8",
"]%	c #94B0CE",
"^%	c #3E6B9D",
"/%	c #346194",
"(%	c #234E83",
"_%	c #204C81",
":%	c #1C477C",
"<%	c #1A457A",
"[%	c #194479",
"}%	c #EDF0F4",
"|%	c #2C5383",
"1%	c #113C72",
"2%	c #445D7F",
"3%	c #87B5E1",
"4%	c #A0C4E7",
"5%	c #93AFCC",
"6%	c #4472A4",
"7%	c #376497",
"8%	c #325E91",
"9%	c #2B578C",
"0%	c #224E83",
"a%	c #164177",
"b%	c #A3B4C8",
"c%	c #6580A3",
"d%	c #103A70",
"e%	c #284976",
"f%	c #86AACE",
"g%	c #A8C9E9",
"h%	c #76A5D5",
"i%	c #93ADCB",
"j%	c #406C9F",
"k%	c #1F4A7F",
"l%	c #184379",
"m%	c #143F75",
"n%	c #627FA2",
"o%	c #96A8C0",
"p%	c #0E386E",
"q%	c #000000",
"r%	c #C6DBF0",
"s%	c #75A5D5",
"t%	c #91ACCA",
"u%	c #3E618D",
"v%	c #FCFCFD",
"w%	c #B5C2D2",
"x%	c #0D376D",
"y%	c #0A356B",
"z%	c #8F8D92",
"A%	c #989596",
"B%	c #82AFDA",
"C%	c #83B3E0",
"D%	c #6696C5",
"E%	c #4F7DAD",
"F%	c #EEF3F7",
"G%	c #90ACC9",
"H%	c #275388",
"I%	c #174279",
"J%	c #133E73",
"K%	c #113C71",
"L%	c #2E5382",
"M%	c #F5F7F9",
"N%	c #CBD4E0",
"O%	c #083369",
"P%	c #737A89",
"Q%	c #EDF1F6",
"R%	c #8FAAC8",
"S%	c #224D82",
"T%	c #19457A",
"U%	c #143F74",
"V%	c #0F3A70",
"W%	c #1F4779",
"X%	c #EFF2F5",
"Y%	c #DDE3EA",
"Z%	c #0A346A",
"`%	c #073167",
" &	c #5A6981",
".&	c #EEF4FA",
"+&	c #D9E8F5",
"@&	c #6695C4",
"#&	c #EEF2F7",
"$&	c #8EA9C7",
"%&	c #2A568B",
"&&	c #1E4A7F",
"*&	c #1B477C",
"=&	c #184278",
"-&	c #164176",
";&	c #0D386E",
">&	c #163F73",
",&	c #EBEFF3",
"'&	c #093368",
")&	c #052F65",
"!&	c #475C7A",
"~&	c #94969D",
"{&	c #86B4E1",
"]&	c #76A4D3",
"^&	c #5B89B8",
"/&	c #8DA8C6",
"(&	c #184377",
"_&	c #123D73",
":&	c #103B71",
"<&	c #0C376D",
"[&	c #0D376C",
"}&	c #E7EBF0",
"|&	c #F4F6F8",
"1&	c #073166",
"2&	c #032D64",
"3&	c #3C5477",
"4&	c #9498A0",
"5&	c #6795C4",
"6&	c #4A79AB",
"7&	c #8BA6C5",
"8&	c #1B467B",
"9&	c #184378",
"0&	c #0C366C",
"a&	c #093369",
"b&	c #E6EAF0",
"c&	c #FBFBFC",
"d&	c #012B62",
"e&	c #314C72",
"f&	c #9598A1",
"g&	c #F3F7FB",
"h&	c #CBDEF1",
"i&	c #79A9D6",
"j&	c #8BA6C3",
"k&	c #234F84",
"l&	c #214E82",
"m&	c #083269",
"n&	c #E6EAEF",
"o&	c #FDFDFD",
"p&	c #032D63",
"q&	c #002A61",
"r&	c #304B71",
"s&	c #93969E",
"t&	c #6595C4",
"u&	c #EDF2F6",
"v&	c #8AA4C2",
"w&	c #063067",
"x&	c #052F66",
"y&	c #F6F7F9",
"z&	c #032C62",
"A&	c #375176",
"B&	c #82B0DE",
"C&	c #D2E3F2",
"D&	c #5987B9",
"E&	c #88A3C2",
"F&	c #224E84",
"G&	c #174278",
"H&	c #154076",
"I&	c #0F396F",
"J&	c #09346A",
"K&	c #083268",
"L&	c #042E65",
"M&	c #083166",
"N&	c #E9ECF1",
"O&	c #EEF0F4",
"P&	c #425978",
"Q&	c #EBF2F9",
"R&	c #D9E7F3",
"S&	c #87A2C1",
"T&	c #184479",
"U&	c #0B366C",
"V&	c #073269",
"W&	c #042E64",
"X&	c #0F376A",
"Y&	c #EDEFF3",
"Z&	c #E1E6EC",
"`&	c #022C63",
" *	c #53647D",
".*	c #7EABD7",
"+*	c #E2EDF6",
"@*	c #E0EBF6",
"#*	c #87A1BF",
"$*	c #255187",
"%*	c #174178",
"&*	c #123D72",
"**	c #063066",
"=*	c #1A3F72",
"-*	c #F2F4F6",
";*	c #CFD7E1",
">*	c #6B7485",
",*	c #989496",
"'*	c #7DA7D1",
")*	c #CADDEF",
"!*	c #ECF2F9",
"~*	c #78A6D4",
"{*	c #ECF0F4",
"]*	c #85A0BE",
"^*	c #012B61",
"/*	c #002A62",
"(*	c #284C7A",
"_*	c #F8F9FA",
":*	c #B9C4D3",
"<*	c #87888F",
"[*	c #7FA4CA",
"}*	c #ABC8E5",
"|*	c #78A5D2",
"1*	c #6594C3",
"2*	c #EDF1F5",
"3*	c #859FBE",
"4*	c #123C72",
"5*	c #0E396F",
"6*	c #083168",
"7*	c #3A5B85",
"8*	c #9DADC2",
"9*	c #81A1C2",
"0*	c #85AED7",
"a*	c #7DA8D3",
"b*	c #3D6A9E",
"c*	c #839DBC",
"d*	c #224E82",
"e*	c #7289A8",
"f*	c #6C84A4",
"g*	c #163A69",
"h*	c #879BB3",
"i*	c #A9C5E1",
"j*	c #5A88B7",
"k*	c #ECF0F5",
"l*	c #829CBB",
"m*	c #234E82",
"n*	c #143F73",
"o*	c #0B356B",
"p*	c #BCC7D5",
"q*	c #315380",
"r*	c #344E73",
"s*	c #9096A1",
"t*	c #D4E2F0",
"u*	c #E1EAF4",
"v*	c #EBEFF4",
"w*	c #819CBA",
"x*	c #073168",
"y*	c #54647D",
"z*	c #A2C0DE",
"A*	c #719DCA",
"B*	c #7F9AB9",
"C*	c #022C62",
"D*	c #4A688F",
"E*	c #A8B6C9",
"F*	c #747A88",
"G*	c #7C99B9",
"H*	c #84ABD2",
"I*	c #9BBADA",
"J*	c #5886B8",
"K*	c #416D9E",
"L*	c #5C81AB",
"M*	c #597EA9",
"N*	c #577DA8",
"O*	c #567BA6",
"P*	c #557BA5",
"Q*	c #5379A4",
"R*	c #4D729F",
"S*	c #EFF2F6",
"T*	c #94AAC4",
"U*	c #486D99",
"V*	c #476B97",
"W*	c #446996",
"X*	c #436895",
"Y*	c #426693",
"Z*	c #395E8D",
"`*	c #123D74",
" =	c #AEBBCD",
".=	c #979293",
"+=	c #8E95A0",
"@=	c #F4F8FB",
"#=	c #C9DAEA",
"$=	c #3E6B9C",
"%=	c #587EA9",
"&=	c #D1DAE4",
"*=	c #113B71",
"==	c #063068",
"-=	c #0B3468",
";=	c #E2E6ED",
">=	c #EAEDF2",
",=	c #0F376B",
"'=	c #324E73",
")=	c #969498",
"!=	c #6C97C4",
"~=	c #6795C6",
"{=	c #AEC6E0",
"]=	c #557BA7",
"^=	c #CAD4E0",
"/=	c #123E73",
"(=	c #073068",
"_=	c #345682",
":=	c #BBC6D5",
"<=	c #82848D",
"[=	c #7395BA",
"}=	c #A7C0DB",
"|=	c #5D8CBC",
"1=	c #547BA6",
"2=	c #CCD5E1",
"3=	c #073067",
"4=	c #C5CEDB",
"5=	c #42618A",
"6=	c #173A69",
"7=	c #8E949D",
"8=	c #BFD1E5",
"9=	c #F8FAFC",
"0=	c #628FBE",
"a=	c #4573A4",
"b=	c #466E9D",
"c=	c #AEC0D4",
"d=	c #A8BBD0",
"e=	c #A8BAD0",
"f=	c #A6B9CF",
"g=	c #A6B8CE",
"h=	c #A5B8CE",
"i=	c #A4B7CD",
"j=	c #A3B6CD",
"k=	c #A3B5CC",
"l=	c #A2B5CB",
"m=	c #A1B4CA",
"n=	c #A1B3CA",
"o=	c #A0B2C9",
"p=	c #9FB1C8",
"q=	c #9FB1C7",
"r=	c #9EB0C7",
"s=	c #9DAFC6",
"t=	c #9CAEC5",
"u=	c #7D95B2",
"v=	c #365783",
"w=	c #D5DCE5",
"x=	c #455A78",
"y=	c #6C91B8",
"z=	c #7EA4CA",
"A=	c #97B4D3",
"B=	c #5987B6",
"C=	c #3C699D",
"D=	c #224D81",
"E=	c #B1BECE",
"F=	c #47668D",
"G=	c #8A898F",
"H=	c #8892A0",
"I=	c #5F8EBD",
"J=	c #D0DDEB",
"K=	c #F2F6F9",
"L=	c #5684B6",
"M=	c #3C6A9D",
"N=	c #173E70",
"O=	c #EBEEF2",
"P=	c #062F65",
"Q=	c #3F5677",
"R=	c #989394",
"S=	c #628BB7",
"T=	c #628EBB",
"U=	c #B1C6DD",
"V=	c #D6DCE5",
"W=	c #4C6A90",
"X=	c #062E63",
"Y=	c #8F8C90",
"Z=	c #8A919D",
"`=	c #B6CADF",
" -	c #6991BB",
".-	c #3D699C",
"+-	c #627C9E",
"@-	c #B2BECF",
"#-	c #354F74",
"$-	c #6A89AC",
"%-	c #5684B4",
"&-	c #5784B4",
"*-	c #D5E0EC",
"=-	c #2E5A8C",
"--	c #204C82",
";-	c #052F67",
">-	c #0C3469",
",-	c #F1F3F6",
"'-	c #254978",
")-	c #052E64",
"!-	c #8E919A",
"~-	c #6A91BC",
"{-	c #ABC1D8",
"]-	c #D9DFE7",
"^-	c #7088A6",
"/-	c #7C8CA1",
"(-	c #B0C5DA",
"_-	c #6D91B9",
":-	c #8095B0",
"<-	c #B6C2D2",
"[-	c #1F406D",
"}-	c #6182A7",
"|-	c #4B79AA",
"1-	c #D5E0EB",
"2-	c #5882AF",
"3-	c #526F94",
"4-	c #052E63",
"5-	c #949296",
"6-	c #517DAC",
"7-	c #F3F6F9",
"8-	c #335581",
"9-	c #FAFAFB",
"0-	c #F5F6F8",
"a-	c #1E4374",
"b-	c #6E7686",
"c-	c #8B8E98",
"d-	c #4775A6",
"e-	c #4673A4",
"f-	c #547DAB",
"g-	c #F4F7F9",
"h-	c #E7ECF3",
"i-	c #4A74A4",
"j-	c #2F5B90",
"k-	c #214B80",
"l-	c #063065",
"m-	c #355782",
"n-	c #4F6C92",
"o-	c #495D7A",
"p-	c #79889C",
"q-	c #4370A1",
"r-	c #5C83AD",
"s-	c #E8EDF3",
"t-	c #214B81",
"u-	c #2E517E",
"v-	c #F9FAFB",
"w-	c #3D5D87",
"x-	c #3A5275",
"y-	c #72849B",
"z-	c #597FAB",
"A-	c #F0F3F7",
"B-	c #597EA8",
"C-	c #204B81",
"D-	c #5E799B",
"E-	c #547095",
"F-	c #2D4A71",
"G-	c #687F9B",
"H-	c #4871A0",
"I-	c #F3F5F8",
"J-	c #6E8EB3",
"K-	c #042E66",
"L-	c #93A5BC",
"M-	c #F7F8FA",
"N-	c #30527F",
"O-	c #25446F",
"P-	c #989393",
"Q-	c #718197",
"R-	c #396496",
"S-	c #3D6899",
"T-	c #C0CEDE",
"U-	c #B0C1D5",
"V-	c #315D8F",
"W-	c #1F4B81",
"X-	c #103C72",
"Y-	c #224776",
"Z-	c #C8D1DD",
"`-	c #002B61",
" ;	c #385174",
".;	c #798496",
"+;	c #366395",
"@;	c #91A9C4",
"#;	c #F0F3F6",
"$;	c #4E739E",
"%;	c #5A7599",
"&;	c #375074",
"*;	c #898B94",
"=;	c #376193",
"-;	c #4B719D",
";;	c #D8E0E9",
">;	c #C3CFDD",
",;	c #386190",
"';	c #44638B",
");	c #D4DBE4",
"!;	c #F4F5F8",
"~;	c #41618A",
"{;	c #646F83",
"];	c #4D6B91",
"^;	c #9BAFC7",
"/;	c #3E6492",
"(;	c #103B70",
"_;	c #BFC9D7",
":;	c #A1B0C5",
"<;	c #143969",
"[;	c #81838D",
"};	c #999394",
"|;	c #7B8392",
"1;	c #2E588A",
"2;	c #90A6C0",
"3;	c #D2DAE5",
"4;	c #54759C",
"5;	c #113A70",
"6;	c #6A83A3",
"7;	c #E3E7ED",
"8;	c #A6B5C8",
"9;	c #193F71",
"0;	c #4B5E7B",
"a;	c #929094",
"b;	c #4F6A8C",
"c;	c #2E5687",
"d;	c #96AAC3",
"e;	c #E0E6ED",
"f;	c #EBEEF3",
"g;	c #94A8C1",
"h;	c #57759C",
"i;	c #2A5180",
"j;	c #567296",
"k;	c #A3B2C6",
"l;	c #9EAEC3",
"m;	c #234877",
"n;	c #23436D",
"o;	c #787D89",
"p;	c #918F93",
"q;	c #395B86",
"r;	c #3F6390",
"s;	c #C2CDDB",
"t;	c #EFF1F5",
"u;	c #A4B4C8",
"v;	c #5E7B9E",
"w;	c #234A7A",
"x;	c #2A4D7B",
"y;	c #B5C1D1",
"z;	c #D7DDE6",
"A;	c #49678E",
"B;	c #093065",
"C;	c #737A88",
"D;	c #7C828F",
"E;	c #496385",
"F;	c #1F487B",
"G;	c #57769C",
"H;	c #8CA0BA",
"I;	c #C2CDDA",
"J;	c #DFE4EB",
"K;	c #DEE3EA",
"L;	c #E0E5EB",
"M;	c #90A2BA",
"N;	c #577397",
"O;	c #1B4172",
"P;	c #26446E",
"Q;	c #657083",
"R;	c #566A86",
"S;	c #1B4377",
"T;	c #153F74",
"U;	c #0F386D",
"V;	c #47678F",
"W;	c #778EAB",
"X;	c #98A9C0",
"Y;	c #B4C0D1",
"Z;	c #D0D7E2",
"`;	c #C9D2DD",
" >	c #B7C3D2",
".>	c #A0B0C4",
"+>	c #7B91AD",
"@>	c #4E6B92",
"#>	c #143B6E",
"$>	c #022B62",
"%>	c #072F63",
"&>	c #304C72",
"*>	c #8B8A90",
"=>	c #80838E",
"->	c #616F86",
";>	c #325179",
">>	c #0B346B",
",>	c #032D65",
"'>	c #1B3D6B",
")>	c #4D607C",
"!>	c #767C88",
"~>	c #918E91",
"{>	c #7D818C",
"]>	c #546580",
"^>	c #304D74",
"/>	c #1A3D6C",
"(>	c #133968",
"_>	c #0E3466",
":>	c #0D3365",
"<>	c #0C3265",
"[>	c #0D3366",
"}>	c #113667",
"|>	c #163969",
"1>	c #24446E",
"2>	c #475B7A",
"3>	c #6E7687",
"4>	c #949092",
"5>	c #8E8C90",
"6>	c #908D91",
"7>	c #938F92",
"8>	c #95989E",
"9>	c #949AA4",
"0>	c #8F9DAF",
"a>	c #8CA2BA",
"b>	c #89A6C3",
"c>	c #87A9CA",
"d>	c #84A9CE",
"e>	c #85ABD0",
"f>	c #84A9CD",
"g>	c #87A8C9",
"h>	c #89A5C3",
"i>	c #8CA1B9",
"j>	c #909DAD",
"k>	c #9399A3",
"l>	c #95979D",
"m>	c #8CA1B8",
"n>	c #7DABD7",
"o>	c #7CA8D3",
"p>	c #7DA4CB",
"q>	c #889BB1",
"r>	c #979496",
"s>	c #8DA1B6",
"t>	c #9CC2E6",
"u>	c #A3C6E8",
"v>	c #A7C8E9",
"w>	c #AACAE9",
"x>	c #8FB9E2",
"y>	c #82B0DD",
"z>	c #799EC4",
"A>	c #8798AC",
"B>	c #92959C",
"C>	c #83ACD4",
"D>	c #83B2E0",
"E>	c #ACCCEA",
"F>	c #D6E6F5",
"G>	c #F9FBFD",
"H>	c #CCDEF0",
"I>	c #9CBEE0",
"J>	c #6D9BCA",
"K>	c #7298BF",
"L>	c #92949B",
"M>	c #8F9DAD",
"N>	c #E6EFF8",
"O>	c #CADEF1",
"P>	c #BAD4ED",
"Q>	c #BED6EE",
"R>	c #C5DAEF",
"S>	c #D0E2F2",
"T>	c #DEEAF5",
"U>	c #E0EAF4",
"V>	c #BBD1E7",
"W>	c #8BB0D6",
"X>	c #6A98C8",
"Y>	c #7193B7",
"Z>	c #8893A2",
"`>	c #96969B",
" ,	c #83ABD4",
".,	c #B2CFEB",
"+,	c #FBFCFE",
"@,	c #FAFCFD",
"#,	c #E5EFF8",
"$,	c #B4D1EC",
"%,	c #8BB7E2",
"&,	c #9BBDDF",
"*,	c #CEDEEE",
"=,	c #F6F9FC",
"-,	c #F2F6FA",
";,	c #93B5D7",
">,	c #6A98C6",
",,	c #6492C1",
"',	c #6B8FB6",
"),	c #959396",
"!,	c #CFE2F3",
"~,	c #88B6E1",
"{,	c #84ABD4",
"],	c #A6C2DF",
"^,	c #E7EEF6",
"/,	c #EEF3F8",
"(,	c #B7CCE3",
"_,	c #6390C1",
":,	c #608FBE",
"<,	c #748DAA",
"[,	c #9499A2",
"},	c #B7D3ED",
"|,	c #B6D2ED",
"1,	c #DBE5F1",
"2,	c #91B0D1",
"3,	c #608DBC",
"4,	c #5D87B3",
"5,	c #8F9199",
"6,	c #8BA3BD",
"7,	c #A7C9E9",
"8,	c #F3F7FC",
"9,	c #EEF5FA",
"0,	c #9DC3E6",
"a,	c #749DC7",
"b,	c #C6D7E8",
"c,	c #E7EDF4",
"d,	c #7399C3",
"e,	c #5582B2",
"f,	c #778AA2",
"g,	c #F5F9FC",
"h,	c #BCD6EE",
"i,	c #7EA2C8",
"j,	c #DCE6F0",
"k,	c #A5BDD7",
"l,	c #5582B3",
"m,	c #5280B0",
"n,	c #6F87A3",
"o,	c #DCE9F6",
"p,	c #98B4D2",
"q,	c #E5ECF3",
"r,	c #5884B3",
"s,	c #5E7FA5",
"t,	c #7AAAD7",
"u,	c #6F96BF",
"v,	c #E1E9F1",
"w,	c #7396BD",
"x,	c #587CA3",
"y,	c #959295",
"z,	c #8DB8E2",
"A,	c #CAD8E6",
"B,	c #6E92BA",
"C,	c #4674A5",
"D,	c #5679A1",
"E,	c #8BB8E2",
"F,	c #628FC0",
"G,	c #A4BBD4",
"H,	c #84A2C3",
"I,	c #54769E",
"J,	c #AFCDEB",
"K,	c #618FC0",
"L,	c #688CB4",
"M,	c #657D99",
"N,	c #8AA4BF",
"O,	c #ADCCEA",
"P,	c #DDEAF6",
"Q,	c #7BABDB",
"R,	c #698CB3",
"S,	c #6A7E96",
"T,	c #94BDE4",
"U,	c #709FCF",
"V,	c #9FB5CF",
"W,	c #3A6698",
"X,	c #3A6596",
"Y,	c #898C94",
"Z,	c #6C9BCC",
"`,	c #6090C0",
" '	c #4672A4",
".'	c #C5D2E1",
"+'	c #E4EAF1",
"@'	c #3B6698",
"#'	c #3B6594",
"$'	c #87A7C7",
"%'	c #7EAEDE",
"&'	c #DDE4ED",
"*'	c #9AB0C9",
"='	c #5A7392",
"-'	c #B5D2EC",
";'	c #567CA7",
">'	c #597CA6",
",'	c #908F94",
"''	c #83ADD8",
")'	c #89B6E1",
"!'	c #F8FAFD",
"~'	c #7CACD9",
"{'	c #4472A5",
"]'	c #829DBD",
"^'	c #E5EAF1",
"/'	c #345F91",
"('	c #3E628E",
"_'	c #82AAD3",
":'	c #9FBDDC",
"<'	c #B3CAE3",
"['	c #BDD1E6",
"}'	c #BED2E6",
"|'	c #B4CBE2",
"1'	c #A0BCD9",
"2'	c #7EA4CB",
"3'	c #618FBE",
"4'	c #D4DDE7",
"5'	c #7894B5",
"6'	c #737E91",
"7'	c #7DAAD5",
"8'	c #93B7DA",
"9'	c #FAFBFC",
"0'	c #AFC6DD",
"a'	c #6B94C0",
"b'	c #577BA4",
"c'	c #305B8E",
"d'	c #3E608A",
"e'	c #909CAB",
"f'	c #87B0D9",
"g'	c #DEE9F4",
"h'	c #F4F7FB",
"i'	c #B3C7DD",
"j'	c #B1C1D4",
"k'	c #A5B7CD",
"l'	c #848892",
"m'	c #C8DDF1",
"n'	c #A4C2E0",
"o'	c #C0D1E3",
"p'	c #5380B1",
"q'	c #4571A3",
"r'	c #436998",
"s'	c #F6F8FA",
"t'	c #ECEFF4",
"u'	c #295486",
"v'	c #315784",
"w'	c #939AA6",
"x'	c #CFE1F3",
"y'	c #7AAADA",
"z'	c #A1C0DF",
"A'	c #B1C8E0",
"B'	c #8CAED2",
"C'	c #779FC8",
"D'	c #749DC6",
"E'	c #88AACE",
"F'	c #BBCEE2",
"G'	c #BACCDF",
"H'	c #396497",
"I'	c #28548A",
"J'	c #CAD5E2",
"K'	c #708CAE",
"L'	c #848790",
"M'	c #8BA4BE",
"N'	c #DDE7F2",
"O'	c #AAC5DF",
"P'	c #6F9AC8",
"Q'	c #5A87B7",
"R'	c #678EB8",
"S'	c #4D709B",
"T'	c #F6F7FA",
"U'	c #5E7089",
"V'	c #B5D1EC",
"W'	c #99C0E5",
"X'	c #7BAAD9",
"Y'	c #9FBEDD",
"Z'	c #E7EFF6",
"`'	c #7AA4CD",
" )	c #A0B9D4",
".)	c #DDE6EF",
"+)	c #356294",
"@)	c #D9E0E9",
"#)	c #56779E",
"$)	c #2C517F",
"%)	c #9299A5",
"&)	c #F7FAFD",
"*)	c #74A0CC",
"=)	c #608DBD",
"-)	c #5380B2",
";)	c #5780AE",
">)	c #4371A4",
",)	c #748FB0",
"')	c #8D8D92",
"))	c #87A6C6",
"!)	c #C4DBF0",
"~)	c #7BABD8",
"{)	c #7496BB",
"])	c #406491",
"^)	c #D7DEE7",
"/)	c #536884",
"()	c #7AABD8",
"_)	c #6F9ECC",
":)	c #7295BC",
"<)	c #819FC1",
"[)	c #194378",
"})	c #82AFDB",
"|)	c #678DB7",
"1)	c #7F9EC0",
"2)	c #214D81",
"3)	c #ABBACE",
"4)	c #6C87A8",
"5)	c #194073",
"6)	c #D3E4F4",
"7)	c #80A0C2",
"8)	c #6F91B7",
"9)	c #275389",
"0)	c #54739B",
"a)	c #BECAD8",
"b)	c #123B6F",
"c)	c #83858E",
"d)	c #5E8DBE",
"e)	c #C0CFE0",
"f)	c #4E77A6",
"g)	c #F8F9FB",
"h)	c #777D8B",
"i)	c #8CA2BB",
"j)	c #6D9DCD",
"k)	c #6A99CA",
"l)	c #517CAB",
"m)	c #DAE2EC",
"n)	c #1B487D",
"o)	c #E5EAEF",
"p)	c #204879",
"q)	c #5D6C83",
"r)	c #A5C8E8",
"s)	c #9EB6CF",
"t)	c #6286AF",
"u)	c #C3CEDB",
"v)	c #365885",
"w)	c #465C7C",
"x)	c #84ABD0",
"y)	c #8DB9E2",
"z)	c #6E9CCD",
"A)	c #7697BC",
"B)	c #CCD8E5",
"C)	c #A7B6CA",
"D)	c #46668E",
"E)	c #334F75",
"F)	c #83AED7",
"G)	c #5F8CBC",
"H)	c #507AA9",
"I)	c #285487",
"J)	c #90A3BC",
"K)	c #537096",
"L)	c #234470",
"M)	c #80AFDC",
"N)	c #79AAD7",
"O)	c #5C8AB9",
"P)	c #E9EEF3",
"Q)	c #7090B5",
"R)	c #336094",
"S)	c #1C467B",
"T)	c #194478",
"U)	c #0D366C",
"V)	c #8096B1",
"W)	c #5B769A",
"X)	c #193C6B",
"Y)	c #6E9DCB",
"Z)	c #517FB2",
"`)	c #C9D6E4",
" !	c #AABDD3",
".!	c #335F94",
"+!	c #788FAD",
"@!	c #103667",
"#!	c #CDD9E6",
"$!	c #B4C5D8",
"%!	c #778EAC",
"&!	c #627C9D",
"*!	c #103566",
"=!	c #80AFDD",
"-!	c #C0D8EE",
";!	c #BACADC",
">!	c #C2CFDF",
",!	c #798FAC",
"'!	c #5A7598",
")!	c #163A6A",
"!!	c #BAD3EC",
"~!	c #5D8CBD",
"{!	c #BCCCDD",
"]!	c #C9D5E3",
"^!	c #265288",
"/!	c #0C366D",
"(!	c #8499B3",
"_!	c #536F95",
":!	c #1D3E6B",
"<!	c #82A9D0",
"[!	c #ADCBE8",
"}!	c #7FADD8",
"|!	c #4F7CAD",
"1!	c #B3C5D8",
"2!	c #D2DCE8",
"3!	c #3B6799",
"4!	c #376295",
"5!	c #94A5BC",
"6!	c #45648C",
"7!	c #2B4870",
"8!	c #84A5C7",
"9!	c #A3C4E4",
"0!	c #89B1DA",
"a!	c #B2C4D8",
"b!	c #D4DDE8",
"c!	c #325F92",
"d!	c #AFBCCD",
"e!	c #3D5476",
"f!	c #87A0BB",
"g!	c #96BCDF",
"h!	c #96B9DD",
"i!	c #AEC1D7",
"j!	c #E2E8F0",
"k!	c #1D4373",
"l!	c #54647E",
"m!	c #8C9BAE",
"n!	c #A7C5E2",
"o!	c #A9BDD4",
"p!	c #DBE3EC",
"q!	c #275386",
"r!	c #0C356B",
"s!	c #9198A2",
"t!	c #BDD3E9",
"u!	c #5E8CBB",
"v!	c #A6BBD2",
"w!	c #7E818B",
"x!	c #94969C",
"y!	c #75A3D0",
"z!	c #DAE7F3",
"A!	c #DCE8F3",
"B!	c #6D9CCA",
"C!	c #A1B7D0",
"D!	c #E1E7EF",
"E!	c #3D689A",
"F!	c #6D85A5",
"G!	c #7E93AF",
"H!	c #093064",
"I!	c #8B8A8F",
"J!	c #76A1CD",
"K!	c #9BB2CD",
"L!	c #F4F6F9",
"M!	c #3C6899",
"N!	c #0C356C",
"O!	c #799DC1",
"P!	c #90B3D6",
"Q!	c #98B0CB",
"R!	c #E9EDF3",
"S!	c #456E9E",
"T!	c #1A457B",
"U!	c #0B356C",
"V!	c #11396C",
"W!	c #E8EBF0",
"X!	c #3A5376",
"Y!	c #8A97A7",
"Z!	c #E1EBF4",
"`!	c #D8E4F0",
" ~	c #87A4C3",
".~	c #6083AC",
"+~	c #557AA5",
"@~	c #5479A4",
"#~	c #5277A2",
"$~	c #5176A1",
"%~	c #5075A0",
"&~	c #4E739F",
"*~	c #4C719D",
"=~	c #4B709C",
"-~	c #496E9A",
";~	c #476C99",
">~	c #476B98",
",~	c #456A96",
"'~	c #446895",
")~	c #2F5788",
"!~	c #0A366B",
"~~	c #3C5C86",
"{~	c #7B7F8B",
"]~	c #B4CCE3",
"^~	c #709BC7",
"/~	c #5D8ABC",
"(~	c #517FAF",
"_~	c #CAD6E4",
":~	c #19457B",
"<~	c #5D789B",
"[~	c #0C3266",
"}~	c #7996B5",
"|~	c #81A7CF",
"1~	c #92B2D4",
"2~	c #C7D4E2",
"3~	c #8AA0BB",
"4~	c #073066",
"5~	c #445978",
"6~	c #8A94A3",
"7~	c #6794C4",
"8~	c #E1EAF3",
"9~	c #DBE5F0",
"0~	c #C8D5E3",
"a~	c #8BA0BB",
"b~	c #768DAA",
"c~	c #757B88",
"d~	c #979396",
"e~	c #6593C1",
"f~	c #7BA0C8",
"g~	c #ACBED4",
"h~	c #AABCD2",
"i~	c #A9BCD2",
"j~	c #A8BBD1",
"k~	c #A7BAD0",
"l~	c #A7B9CF",
"m~	c #A3B6CC",
"n~	c #A3B5CB",
"o~	c #A2B4CA",
"p~	c #A0B3C9",
"q~	c #9FB2C8",
"r~	c #9EB1C7",
"s~	c #9EB0C6",
"t~	c #9DAFC5",
"u~	c #E5E9EE",
"v~	c #0D356A",
"w~	c #0A3164",
"x~	c #7E92AB",
"y~	c #E3EBF3",
"z~	c #DDE7F0",
"A~	c #265285",
"B~	c #BAC5D4",
"C~	c #657184",
"D~	c #628EBC",
"E~	c #99B6D4",
"F~	c #769CC4",
"G~	c #133768",
"H~	c #798FA9",
"I~	c #E2EAF2",
"J~	c #E9EFF5",
"K~	c #8498B3",
"L~	c #9AABC0",
"M~	c #55657E",
"N~	c #969396",
"O~	c #7299C2",
"P~	c #A3BBD6",
"Q~	c #214E83",
"R~	c #0A356A",
"S~	c #F0F2F5",
"T~	c #133A6D",
"U~	c #0A3165",
"V~	c #848FA0",
"W~	c #C9D7E7",
"X~	c #245086",
"Y~	c #0A346B",
"Z~	c #CAD2DE",
"`~	c #7A7F8A",
" {	c #6185AD",
".{	c #ECF1F6",
"+{	c #E1E8F1",
"@{	c #738AA8",
"#{	c #28466F",
"${	c #7196BD",
"%{	c #B0C4DA",
"&{	c #214676",
"*{	c #F3F5F7",
"={	c #8E8C91",
"-{	c #7E8C9E",
";{	c #92ACCA",
">{	c #0A3369",
",{	c #1C4273",
"'{	c #3B5C86",
"){	c #6F7686",
"!{	c #5F80A6",
"~{	c #4875A6",
"{{	c #B5C7DB",
"]{	c #7797BC",
"^{	c #093267",
"/{	c #D3DAE3",
"({	c #334E73",
"_{	c #5379A5",
":{	c #D2DDE9",
"<{	c #6C8EB6",
"[{	c #305C91",
"}{	c #0A3469",
"|{	c #DBE1E8",
"1{	c #899CB6",
"2{	c #23446D",
"3{	c #909096",
"4{	c #4973A4",
"5{	c #426FA3",
"6{	c #CED9E6",
"7{	c #7393B7",
"8{	c #09336A",
"9{	c #CBD3DE",
"0{	c #9CACC2",
"a{	c #0F3567",
"b{	c #919096",
"c{	c #D1DCE7",
"d{	c #8DA7C4",
"e{	c #12396D",
"f{	c #8FA1BA",
"g{	c #083065",
"h{	c #878C97",
"i{	c #B2C3D7",
"j{	c #ABBDD2",
"k{	c #143F76",
"l{	c #08336A",
"m{	c #7A90AD",
"n{	c #073064",
"o{	c #909095",
"p{	c #3E6999",
"q{	c #8BA5C2",
"r{	c #FCFDFD",
"s{	c #3C6696",
"t{	c #8C9FB8",
"u{	c #939092",
"v{	c #8E8E95",
"w{	c #436A97",
"x{	c #5D80A8",
"y{	c #204C80",
"z{	c #DAE0E8",
"A{	c #CCD4DF",
"B{	c #20416D",
"C{	c #8D8B90",
"D{	c #4C6D94",
"E{	c #305B8F",
"F{	c #C2CFDE",
"G{	c #5477A1",
"H{	c #163D6F",
"I{	c #98A9BF",
"J{	c #2F4B72",
"K{	c #707F93",
"L{	c #50749F",
"M{	c #E3E9EF",
"N{	c #5A7AA1",
"O{	c #093268",
"P{	c #ABB9CB",
"Q{	c #1F4475",
"R{	c #687284",
"S{	c #858993",
"T{	c #3E618C",
"U{	c #809AB8",
"V{	c #DEE5EC",
"W{	c #DAE1EA",
"X{	c #6986A9",
"Y{	c #A2B1C5",
"Z{	c #516E93",
"`{	c #22426D",
" ]	c #87878E",
".]	c #707D90",
"+]	c #55769E",
"@]	c #D8DFE8",
"#]	c #6984A6",
"$]	c #AAB8CA",
"%]	c #C7D0DC",
"&]	c #294D7B",
"*]	c #566C8A",
"=]	c #234E81",
"-]	c #4B6D96",
";]	c #98ABC3",
">]	c #D9E0E8",
",]	c #D3DBE5",
"']	c #9FB0C6",
")]	c #758DAC",
"!]	c #547197",
"~]	c #234879",
"{]	c #123A6E",
"]]	c #153C6E",
"^]	c #617B9D",
"/]	c #889CB5",
"(]	c #8196B1",
"_]	c #4A5E7A",
":]	c #928F92",
"<]	c #556B88",
"[]	c #1D477B",
"}]	c #20497B",
"|]	c #7D94B2",
"1]	c #DBE1E9",
"2]	c #647E9F",
"3]	c #4F617D",
"4]	c #6E798B",
"5]	c #3D5980",
"6]	c #133C70",
"7]	c #305481",
"8]	c #4A6990",
"9]	c #5E799D",
"0]	c #768DAB",
"a]	c #8DA0B8",
"b]	c #97A8BE",
"c]	c #95A6BD",
"d]	c #587498",
"e]	c #406089",
"f]	c #244878",
"g]	c #6A7385",
"h]	c #284B77",
"i]	c #0E386D",
"j]	c #073268",
"k]	c #20416C",
"l]	c #626E83",
"m]	c #918E92",
"n]	c #757B89",
"o]	c #566780",
"p]	c #3B5477",
"q]	c #23436E",
"r]	c #103668",
"s]	c #103767",
"t]	c #3B5375",
"u]	c #56667E",
"v]	c #83848C",
"w]	c #928F91",
"x]	c #71A0CE",
"y]	c #8CB1D6",
"z]	c #A1BFDD",
"A]	c #B2CAE2",
"B]	c #BFD3E7",
"C]	c #BACFE4",
"D]	c #ACC5DE",
"E]	c #92B1D3",
"F]	c #6A95C1",
"G]	c #7BA8D5",
"H]	c #91B6DB",
"I]	c #C1D6EA",
"J]	c #EEF3F9",
"K]	c #8AABCE",
"L]	c #5F8BBA",
"M]	c #789DC4",
"N]	c #BED4E9",
"O]	c #8AA9CA",
"P]	c #BED3E8",
"Q]	c #EFF4F9",
"R]	c #C2D5E8",
"S]	c #9EBBD9",
"T]	c #759EC8",
"U]	c #739CC6",
"V]	c #81A5CB",
"W]	c #A3BDD8",
"X]	c #E0E9F2",
"Y]	c #618AB6",
"Z]	c #AFC9E3",
"`]	c #CDDDED",
" ^	c #A0BEDC",
".^	c #729DC9",
"+^	c #7B9FC5",
"@^	c #E7EDF3",
"#^	c #6C9ACA",
"$^	c #5D88B7",
"%^	c #7094BB",
"&^	c #8EABCB",
"*^	c #95AFCB",
"=^	c #A6BCD4",
"-^	c #A8BDD4",
";^	c #97B0CB",
">^	c #7497BD",
",^	c #7293B8",
"'^	c #4A78A9",
")^	c #F2F5F8",
"!^	c #4E7AAB",
"~^	c #D3DEE9",
"{^	c #5A80AC",
"]^	c #7096BF",
"^^	c #7499C0",
"/^	c #7297BF",
"(^	c #7095BD",
"_^	c #6F94BD",
":^	c #7296BD",
"<^	c #82A2C4",
"[^	c #B7C9DC",
"}^	c #F9FAFC",
"|^	c #88A4C3",
"1^	c #537BA8",
"2^	c #E4EAF2",
"3^	c #94ADC9",
"4^	c #E4EBF2",
"5^	c #7392B7",
"6^	c #98B2CF",
"7^	c #A5BBD4",
"8^	c #A4BAD3",
"9^	c #A3B9D2",
"0^	c #ACC0D6",
"a^	c #C4D2E2",
"b^	c #B5C5D8",
"c^	c #436FA3",
"d^	c #7A99BB",
"e^	c #BFCDDD",
"f^	c #436FA2",
"g^	c #446F9F",
"h^	c #7390B3",
"i^	c #436FA1",
"j^	c #CCD6E3",
"k^	c #8CA5C1",
"l^	c #5B7EA7",
"m^	c #FBFCFC",
"n^	c #5678A2",
"o^	c #4F74A0",
"p^	c #6E8BAE",
"q^	c #416EA2",
"r^	c #5175A0",
"s^	c #6786AA",
"t^	c #5F80A7",
"u^	c #466B96",
"v^	c #ADBED2",
"w^	c #5376A0",
"x^	c #C7D2DF",
"y^	c #91ABC9",
"z^	c #829FC0",
"A^	c #6080A8",
"B^	c #728DAE",
"C^	c #B0C3D7",
"D^	c #98B0CA",
"E^	c #4771A1",
"F^	c #3D699B",
"G^	c #315C8F",
"H^	c #3F6796",
"I^	c #C0CDDD",
"J^	c #E2E8EE",
"K^	c #B0C2D7",
"L^	c #D7E0EA",
"M^	c #C8D4E2",
"N^	c #BECBDB",
"O^	c #C3D0DF",
"P^	c #D0DAE5",
"Q^	c #E3E8EF",
"R^	c #2C5486",
"S^	c #AFC2D7",
"T^	c #2A5385",
"U^	c #7897BA",
"V^	c #EAEFF4",
"W^	c #EAEEF3",
"X^	c #6C88AB",
"Y^	c #1F4B7F",
"Z^	c #4E75A2",
"`^	c #92AAC6",
" /	c #CBD6E3",
"./	c #DFE6EE",
"+/	c #F5F7FA",
"@/	c #F7F9FA",
"#/	c #E8ECF2",
"$/	c #DAE1E9",
"%/	c #B4C3D4",
"&/	c #5C7CA3",
"*/	c #3A6393",
"=/	c #3F6795",
"-/	c #3C6392",
";/	c #37608F",
">/	c #2F588A",
",/	c #254F83",
"                                                                                                                                                                                                                                                                                                                                ",
"                                                                                                                                                                                                                                                                                                                                ",
"                                                                                                                                                                                                                                                                                                                                ",
"                                                                                                                                                                                                                                                                                                                                ",
"                                                                                                                                                                                                                                                                                                                                ",
"                                                                                                                                                                                                                                                                                                                                ",
"                                                                                                                                                                                                                                                                                                                                ",
"                                                                                                                                                                                                                                                                                                                                ",
"                                                                                                                                                                                                                                                                                                                                ",
"                                                                                                                                                                                                                                                                                                                                ",
"                                                                                                                                                                                                                                                                                                                                ",
"                                                                                                                                                                                                                                                                                                                                ",
"                                                                                                                                                                                                                                                                                                                                ",
"                                                                                                                                                                                                                                                                                                                                ",
"                                                                                                                                                                                                                                                                                                                                ",
"                                                                                                                                                                                                                                                                                                                                ",
"                                                                                                                                                                                                                                                                                                                                ",
"                                                                                                                                                                                                                                                                                                                                ",
"                                                                                                                                                                                                                                                                                                                                ",
"                                                                                                                                                                                                                                                                                                                                ",
"                                                                              . . . . . . . . . . . . . .                                                                                                                                                                                                                       ",
"                                                                      . . . . . . . . . . . . . . . . . . . . . .                                                                                                                                                                                                               ",
"                                                              . . . . . . . . . . . . . . . . . . . . . . . . . . . . . .                                                                                                                                                                                                       ",
"                                                          . . . . . . . . . . . . . . + @ # $ + . . . . . . . . . . . . . . .                                                                                                                                                                                                   ",
"                                                      . . . . . . . . . . . % & * = - ; > > > > - , ' ) ! . . . . . . . . . . . . .                                                                                                                                                                                             ",
"                                                  . . . . . . . . ~ { ] ^ / ( ( ( ( ( ( ( ( ( ( _ ( : < [ } | 1 2 3 . . . . . . . . .                                                                                                                                                                                           ",
"                                              . . . . . . . . 4 5 6 _ ( ( ( _ ( ( ( 7 8 9 0 a b c : d [ e f g h i j k l . . . . . . . . .                                                                                                                                                                                       ",
"                                            . . . . . . m n o : ( p ( q r s t u v w w w w w w w w w x y z A B C D E F G H I J . . . . . . . .                                                                                                                                                                                   ",
"                                        . . . . . . . K ( ( p ( ( L M w w N O P Q R t S T U V W X Y Z O O N w w `  ...+.@.#.$.%.&.. . . . . . .                                                                                                                                                                                 ",
"                                      . . . . . . *.=.( _ ( -.;.>.w w ,.'.).!.~.( ( ( ( : ( {.d ].} ^./.(._.:.<.w w [.}.|.$.1.2.3.4.&.. . . . . .                                                                                                                                                                               ",
"                                    . . . . . 5.6.( _ ( 7.8.w O >.S 9.( ( ( ( ( ( ( ( 0.( {.d a.} b.c.d.e.D E f.g.h.i.w w j.k.l.m.n.o.p.. . . . . . .                                                                                                                                                                           ",
"                                . . . . . . q.r.( _ s.M N w t.u.v.( ( ( ( ( ( ( ( ( : w.x.y.a.} b.c.d.e.z.E f.G A.B.C.D.E.w w F.G.H.I.J.K.. . . . . . .                                                                                                                                                                         ",
"                              . . . . . L.M.( _ v.N.w N M O.( ( ( ( ( ( ( ( ( ( ( ( : x.y.a.} P.c.d.Q.z.E f.R.A.S.#.T.U.V.W.X.w w Y.Z.`. +.+++. . . . . .                                                                                                                                                                       ",
"                            . . . . . @+#+( _ s.$+w %+&+( ( ( ( ( ( ( ( ( ( ( ( : : x.y.*+=+P.c.d.Q.z.E -+R.A.;+>+T.U.V.,+'+)+!+w w ~+{+]+^+/+(+. . . . . .                                                                                                                                                                     ",
"                          . . . . . { : ( ( _+w Z :+( ( ( ( ( ( ( ( ( ( ( ( ( ( : x.y.*+=+<+[+}+Q.z.E -+R.A.S.>+T.U.V.,+'+n.|+1+2+3+w w 4+5+6+7+8+. . . . . .                                                                                                                                                                   ",
"                          . . . . 9+: ( _ 0+w a+s.( ( ( ( ( ( ( ( ( ( ( ( ( : : b+[ *+=+<+[+}+c+d+e+-+R.f+g+>+T.h+i+,+'+j+|+1+k+`.l+m+w w n+o+p+q+r+. . . . . .                                                                                                                                                                 ",
"                        . . . . s+: p _ t+w u+v.( ( ( ( ( ( ( ( ( ( ( ( ( ( : b+[ *+=+v+[+}+c+d+e+-+w+f+x+y+T.h+i+,+'+z+|+1+A+B+l+C+D+E+F+w G+H+I+J+K+. . . . .                                                                                                                                                                 ",
"                      . . . . L+( ( ( ,.w ;.( ( ( ( ( ( ( ( ( ( ( ( ( ( ( : b+[ M+f v+[+}+c+d+e+-+w+f+g+y+1.h+i+,+N+j+|+1+A+B+l+C+D+O+P+Q+R+w S+T+U+V+W+. . . . .                                                                                                                                                               ",
"                    . . . . L.X+( p Y+w Z+( ( ( ( ( ( ( ( ( ( ( ( ( ( : : b+[ M+f <+`+}+c+d+ @G w+f+g+.@1.h+i++@N+j+@@1+A+B+#@$@D+O+%@&@*@=@-@w ;@>@,@'@)@. . . . .                                                                                                                                                             ",
"                    . . . . !@( ( ~@w {@( ( ( ( ( ( ( ( ( ( ( ( ( w.( : b+a.M+f ]@`+e.c+d+ @G w+^@#..@1./@(@+@N+_@@@J.A+B+#@$@D+O+:@&@*@<@[@}@|@w 1@2@3@4@5@. . . . .                                                                                                                                                           ",
"                  . . . . 6@( _ 7@w 8@( ( ( ( ( ( ( ( ( ( ( ( ( w.0.{.< a.M+f ]@`+e.9@E  @G 0@^@#..@1./@(@+@N+_@@@J.a@B+#@$@D+b@:@&@*@c@[@}@d@e@f@w g@h@i@j@. . . . .                                                                                                                                                           ",
"                . . . . k@: p 9 w l@( ( ( ( ( ( ( ( ( ( ( ( ( : : {.< a.M+b.c.`+e.9@E  @G 0@^@m@.@U./@(@n@N+o@@@J.a@B+#@$@p@b@q@&@*@c@[@r@U+s@t@u@v@w w@x@y@z@. . . . .                                                                                                                                                         ",
"                . . . ~ _ ( ~.A@$+q ( ( ( ( ( ( ( ( ( ( ( ( : ( x.< a.e b.]@`+Q.9@E  @R.0@^@>+B@U./@(@+@C@o@@@J.a@B+#@^+p@b@D@E@q+c@[@F@U+G@H@I@J@K@L@w M@N@O@P@. . . .                                                                                                                                                         ",
"              . . . . Q@( ( R@w S@( ( ( ( ( ( ( ( ( ( ( ( : ( x.d a.e b.g h Q.9@E T@G 0@^@U@B@U./@(@n@C@V@W@k+a@B+X@^+p@b@7+E@q+c@[@F@U+V+H@I@J@Y@Z@`@w  #.#+#@#. . . . .                                                                                                                                                       ",
"              . . . ##: ( $#w %#( ( ( ( ( ( ( ( ( ( ( ( ( ( x.d *+e b.&#h Q.9@e+T@R.0@^@>+B@U.2.,+n@C@V@W@k+a@ +X@^+p@b@7+E@q+*#J+F@U+=#H@I@-#;#Z@>#,#'#w )#!#~#{#. . . . .                                                                                                                                                     ",
"            . . . . ]#( ( ^#%+/#( ( ( ( ( ( ( ( ( ( ( : ( x.d *+e (#&#h Q.D e+T@R.+.B.U@B@U.2.,+n@n.V@W@k+_#l+X@^+:#<#7+E@q+*#J+F@[#=#H@I@}#;#Z@>#y@|#1#w w 2#3#4#5#. . . .                                                                                                                                                     ",
"            . . . k@6#p 7@w u.( ( ( ( ( ( ( ( ( ( ( : ( b+d *+} (#7#h Q.D e+T@8#9#0#a#b#c#c#d#c#e#f#W@k+_#l+X@^+g#<#7+h#<@*#J+i#[#j#H@I@}#;#Z@>#k#l#m#n#o#w p#q#r#s#. . . .                                                                                                                                                     ",
"          . . . . t#( u#N v#( ( ( ( ( ( ( ( ( ( ( : ( b+d *+} (#g h c+D w#x#y#z#Q w w w w N N w A#W@A+_#l+B#D+:#<#7+h#<@*#J+i#[#j#C#I@}#;#D#E#y@|#m#n#F#G#H#L@I#J#K#L#. . . .                                                                                                                                                   ",
"          . . . @+: p Z+w M#( ( ( ( ( ( ( ( ( w.0.: b+d M+} (#c.h c+z.E w w N w w w w w w w w w N#A+_#l+B#D+:#Q+O#h#<@P#}@i#[#j#C#Q#}#i@D#E#R#|#m#n#F#S#T#U#w V#K#W#X#. . . .                                                                                                                                                   ",
"          . . . Y#( _ Z#`#( ( ( ( ( ( ( ( ( ( ( w.b+y.M+} (# $d.c+D  @f.N w w w w N w w w w w N .$_##@B#D+5+Q+&@h#<@P#}@i#[#j#C#Q#}#i@D#E#+$@$#$n#~#S#T#q#$$w w %$&$*$=$. . . .                                                                                                                                                 ",
"        . . . -$#+_ ;$w >$( ( ( ( ( ( ( ( : ( : < y.M+=+]@,$d.c+z. @f.w+w w w w '$)$!$~${$w w w ]$#@B#D+/+Q+^$p+c@P#}@/$G@($C#Q#_$i@:$,#<$@$[$}$~#S#T#|$1$2$3$w 4$5$6$7$. . . .                                                                                                                                                 ",
"        . . . 8$: ( 9$0$( ( ( ( ( ( ( ( ( ( : < y.M+=+]@[+}+9@z. @-+0@+.z#a$b$c$d$e$'+_@f$w w N g$B#p@5+Q+&@p+c@P#}@/$G@j#'@J@_$i@:$,#+$h$#$}$~#S#T#|$1$2$i$j$k$l$m$n$o$. . . .                                                                                                                                                 ",
"        . . . p$( q$Z {@( ( ( ( ( ( ( ( ( : < y.e =+]@[+}+9@z. @-+0@A.g+.@T./@V.+@'+_@|+S+w w w r$p@5+s$&@p+c@P#F@/$G@t$'@J@_$i@:$,#+$@$#$}$~#S#u$|$1$v$i$w$x$y$w z$A$B$. . . .                                                                                                                                                 ",
"      . . . . C$( D$w E$( ( ( ( ( ( : ( : < [ e =+]@F$}+9@d+F -+0@A.g+G$T./@i+n@'+_@H$1+I$w w w J$5+P+E@p+c@K$F@/$G@H@'@J@L$Z@:$,#+$h$+#}$~#M$u$|$1$N$i$w$O$P$Q$w R$S$T$U$. . . .                                                                                                                                               ",
"      . . . V$( _ W$Z ( ( ( ( ( ( ( ( {.< [ e f X$Y$}+9@d+F -+0@f+g+G$T./@i+n@Z$`$H$1+a@ %w w w .%P++%*@c@K$F@/$G@@%'@J@4@Z@:$,##%h$+#$%%%M$u$$$&%*%i$w$O$P$=%-%w ;%>%,%'%. . . .                                                                                                                                               ",
"      . . . )%( ( A@!%( ( ( ( ( : ( {.d [ e f X$~%}+9@d+F -+0@{%g+B@1.2.i+n@N+`$@@1+_#B+ %w w w ]%E@*@*#K$F@d@V+@%^%-#4@Z@:$y@/%h$+#$%%%M$u$$$&%J#(%_%O$P$:%<%[%}%w |%1%2%. . . .                                                                                                                                               ",
"      . . . t#( 3%w 4%( ( ( ( ( ( {.d a.} f X$~%e.D d+F G +.f+g+B@1.2.i+n@N+`$@@J._#B+X@ %w w w 5%*@*#K$6%d@V+t@^%-#4@Z@7%y@/%8%+#$%%%9%q#$$&%N$0%_%O$P$:%<%[%a%b%w c%d%e%. . . .                                                                                                                                               ",
"      . . + f%_ g%w 3%( ( ( : ( {.d a.} ^.X$h%e.D d+T@G +.^@g+$.1.2.(@)+N+`$@@J._#B+B#$@f$w w w i%*#[@6%d@V+j%^%-#Y@Z@7%y@#%h$n#$%%%3#q#$$&%K#0%_%k%6$:%<%l%S$m%n%w o%p%p%. . . . .       q%q%q%q%q%q%q%q%                                                                                                                      ",
"    . . . $ > ( r%A@v.( ( ( ( {.y.a.} f c.s%e.D d+f.G +.f+#.$.1.2.(@)+N+H.@@J._#B+B#$@:#v@w w N t%[@6%d@V+C#^%}#4@D#7%y@N@8%n#$%%%3#q#$$2$K#0%&$k%6$:%<%l%a%m%,%u%v%w%x%y%z%. . . .       q%q%q%q%q%q%q%q%                                                                                                                      ",
"    . . . A%B%( Y+,.C%( ( : x.y.a.} b.c.`+e.D E f.G +.;+#.D%1.V.(@)+n.H.@@k+_# +B#$@5+E%F%w w w G%6%U+j#,@^%}#Y@D#7%+$N@8%n#!#S#3#q#H%2$N$0%&$k%6$:%<%I%a%m%J%K%L%M%N%y%O%P%. . . .       q%q%                                                                                                                                  ",
"    . . . -$_ ( 9$M ( ( : x.y.a.} b.c.h Q.z.E f.G A.^@#.$.U.V.(@'+n.H.W@k+`. +B#^+5+b@:@Q%w w N R%U+j#H@I@_$Y@D#7%+$N@8%}$!#S#3#|$H%2$K#S%&$k%=%:%T%l%a%U%J%K%V%W%X%Y%Z%`% &. . . .       q%q%                          q%            q%                        q%            q%                                                ",
"    . . . L.: /#.&+&: : x.y.*+=+b.c.h Q.z.E f.R.A.^@#.@&U.V.(@'+n.H.W@k+_# +B#^+5+<#7+h##&w w w $&j#H@I@_$Y@D#>#+$N@m#n#!#S#%&|$H%2$K#S%&$&&6$*&T%=&-&m%J%K%d%;&>&,&,&'&)&!&. . . .       q%q%                q%q%q%q%q%q%q%    q%q%q%q%q%q%          q%q%  q%q%q%q%q%    q%q%q%q%q%          q%q%                              ",
"    . . . ~&( {&^#;.: x.y.*+=+b.c.]&Q.z.e+-+R.A.B.#.T.U.i+,+'+n.H.^&k+`. +C+^+5+b@7+p+q+Q%w w N /&H@I@_$;#:$>#+$N@m#}$!#M$%&|$H%2$K#S%&$&&=%*&T%(&-&U%_&:&V%;&<&[&}&|&1&2&3&. . . .       q%q%                q%q%q%          q%q%q%      q%q%        q%q%q%q%    q%q%q%q%q%      q%q%        q%q%                              ",
"    . . . 4&( 3%>.W$x.[ *+=+(#[+}+Q.z.e+-+R.A.B.>+5&h+i+,+'+j+|+^&k+`.l+C+^+5+<#7+6&q+K$v@w w w 7&I@_$;#:$>#/%|#m#}$F#S#%&|$r#J#i$S%&$&&=%8&T%9&-&U%J%:&V%;&0&Z%a&b&c&)&d&e&. . . .       q%q%q%q%q%q%q%q%    q%q%            q%q%          q%q%      q%q%          q%q%q%        q%q%        q%q%                              ",
"    . . . f&( ~.g&h&[ *+=+i&[+d.Q.d+e+-+w+f+B.>+T.h+i+,+'+j+|+W@A+`.l+C+D+O+<#7+p+<@K$}@v@w w w j&_$;#:$E#/%|#m#$%F#S#%&$$r#J#k&l&&$&&=%8&[%9&-&,%_&:&V%;&0&Z%m&`%n&o&p&q&r&. . . .       q%q%q%q%q%q%q%q%    q%q%          q%q%            q%q%      q%q%          q%q%          q%q%                                          ",
"    . . . s&( v.Z#h&*+=+(#[+d.c+d+e+-+w+f+B.y+t&h+i+,+N+j+|+I.A+B+l+C+D+O+<#&@p+<@K$}@d@u&w w w v&;#:$E#/%|#m#$%F#S#T#$$r#J#k&W#O$&&=%8&[%9&-&,%_&:&V%x%0&Z%m&w&x&n&y&z&q&A&. . . .       q%q%                q%q%          q%q%            q%q%      q%q%          q%q%          q%q%                                          ",
"    . . . @+: B&.&C&f (#[+d.c+d+ @G w+f+S..@1.h+i++@N+_@|+D&A+B+l+$@D+O+s$7+*@<@K$}@d@[#Q%w w w E&7%E#/%@$#$$%F#M$T#$$r#J#F&W#O$5$=%8&[%G&H&,%_&:&I&x%0&J&K&w&L&M&N&O&p&q&P&. . . .       q%q%                q%q%          q%q%            q%q%      q%q%          q%q%          q%q%                                          ",
"    . . . -$b+a.Q&R&(#`+d.c+d+ @G w+f+S..@1.h+(@+@N+j+@@D&A+B+#@$@D+O+Q+&@*@<@[@}@d@[#t@Q%w w w S&E#/%@$#$$%F#3#T#$$1$N$F&W#O$5$:%8&T&G&H&,%_&d%I&x%U&J&V&w&W&p&X&Y&Z&`&q& *. . . .       q%q%                q%q%          q%q%            q%q%      q%q%          q%q%          q%q%                                          ",
"    . . . -$.*M++*@*[+}+c+d+ @G w+f+m@.@1./@(@+@N+_@@@I.a@B+#@$@p@O+q@&@*@c@[@}@U+G@t@C#Q%w w w #*N@@$#$$%~#3#T#$$$*N$k&w$O$5$:%n$T&%*H&,%&*d%I&<&U&J&m&**W&p&d&=*-*;*d&q&>*. . . .       q%q%                q%q%          q%q%            q%q%      q%q%          q%q%          q%q%                                          ",
"    . . . ,*'*f )*!*~*9@E  @G w+^@S..@U./@(@+@C@_@@@1+a@B+#@$@p@b@s$&@q+c@[@r@d@G@t@'@J@{*w w N ]*@$#$!#~#3#T#H%1$N$(%w$k%5$:%n$l%G&H&J%&*d%I&<&U&J&K&**W&p&^*/*(*_*:*d&q&<*. . . .       q%q%                q%q%            q%q%        q%q%q%      q%q%          q%q%          q%q%        q%q%                              ",
"      . . $ [*]@}*L@|*E T@G 0@^@S.B@1*/@(@n@C@_@@@1+a@B+#@^+p@b@s$E@q+c@[@F@U+G@t@'@J@Y@2*w w w 3*+#!#~#3#u$H%1$N$(%w$k%5$*&n$l%S$T$J%4*d%5*<&U&a&6***W&p&d&/*d&7*w 8*d&`&. . . . .       q%q%                q%q%              q%q%q%q%q%q%q%        q%q%          q%q%          q%q%        q%q%                              ",
"      . . . 9*`+0*w a*F R.0@^@g+G$U.2.(@n@C@_@@@k+a@B+X@^+p@b@P+E@q+c@[@F@U+G@t@b*J@Y@i@{*w w N c*!#~#3#u$H%1$K#d*w$k%P$*&n$l%S$T$J%&*V%5*<&U&a&K&**W&`&q&d&d&d&e*w f*d&g*. . . .         q%q%                q%q%                q%q%q%q%q%          q%q%          q%q%            q%        q%q%                              ",
"      . . . h*}+9@w i*R.0@^@g+B@U.2.,+n@C@`$W@j*a@l+X@^+p@<#P+E@q+*#J+F@U+V+H@b*J@Y@Z@>#k*w w w l*%%3#u$H%&%K#m*w$&&P$*&<%9&S$T$n*1%V%5*<&o*a&K&x&2&`&/*d&d&d&d&p*w q*d&r*. . . .                                                                                                                                               ",
"      . . . s*9@ @t*u*+.B.g+G$U.2.,+n@n.`$W@J._#l+X@^+:#<#P+E@q+*#J+F@U+V+H@^%}#;#Z@>#y@v*w w N w*3#u$H%&%K#0%_%&&P$*&<%9&S$T$J%1%V%5*0&o*a&x*x&2&`&q&d&d&d&d&d&w w d&q&y*. . . .                                                                                                                                               ",
"      . . . . e+T@z*w A*g+$.h+2.,+n@j+`$W@J._#l+X@^+:#<#P+h#<@*#J+F@[#V+H@^%}#;#Z@>#y@l#k*w w w B*q#r#&%K#0%_%&&P$*&<%9&S$m%_&1%V%p%0&o*a&x*x&2&C*/*q&d&d&d&d&D*w E*d&q&F*. . . .                                                                                                                                               ",
"        . . . G*w+H*P I*B@h+2.,+)+j+`$W@J*_#l+B#D+:#<#D@h#<@*#J+i#[#V+H@K*L*M*N*O*P*Q*R*S*w w N T*U*U*V*W*X*Y*Z*8&<%9&a%m%`*K%V%p%0&o*a&x*x&2&C*^*d&d&d&d&d&d& =w 7*q&d&.=. . .                                                                                                                                                 ",
"        . . . +=+.B.@=#=h+2.+@)+j+`$W@J*_#l+B#D+:#<#D@h#<@*#}@i#[#j#C#$=%=w N N N N N w w w w o&w w N N N N N &=<%9&a%m%_&*=I&p%0&o*O%==x&2&C*/*d&d&d&d&d&d&-=;=>=,=q&'=. . . .                                                                                                                                                 ",
"        . . . )=!=~={=N V.+@)+j+H.I.J*_##@B#D+5+<#^$h#<@P#}@i#[#j#C#I@_$]=w w w w w w w w w w w w w w w w w w ^=G&a%m%/=*=I&p%0&y%O%(=)&p&C*^*d&d&d&d&d&d&d&_=w :=d&d&<=. . . .                                                                                                                                                 ",
"          . . . [=$.h+w }=)+|=H.I.A+_##@B#D+5+Q+7+h#c@P#}@/$G@j#C#I@_$i@1=w w w w w w w w w w w w w w w w w w 2=a%m%&**=I&p%U&y%O%3=)&p&C*/*d&d&d&d&d&d&d&d&4=w 5=d&6==$. . . .                                                                                                                                                 ",
"          . . . 7=U.l.8=9=0=H.1+A+_##@B#p@5+Q+7+p+c@P#a=/$G@j#'@I@_$i@:$b=c=d=e=f=g=h=i=j=k=l=m=n=o=p=q=r=s=t=u=U%&**=I&;&U&y%m&3=)&p&d&^*d&d&d&d&d&d&d&d&v=w w=d&q&x=. . . .                                                                                                                                                   ",
"          . . . . y=+@z=w A=1+B=`.#@C+p@5+Q+7+p+c@P#F@/$G@t$C#C=_$i@:$,#+$@$m#}$~#S#T#|$1$J#i$D=&$5$=%n$A$G&>%U%&**=5*;&U&y%K&1&)&p&d&q&d&d&d&d&d&d&d&d&d&E=w F=q&d&G=. . . .                                                                                                                                                   ",
"            . . . H=I=_@J=K=B=L=X@C+p@O+P+7+p+c@K$F@/$G@t$'@M=4@Z@:$,#+$@$m#}$~#S#u$|$1$J#i$S%O$P$=%n$A$S$-&U%&*:&5*;&o*Z%K&`%)&p&d&q&d&d&d&d&d&d&d&d&d&N=w O=P=q&Q=. . . .                                                                                                                                                     ",
"            . . . R=S=|+T=w U=X@C+p@O+P+7+p+c@K$F@d@V+t$'@Q#4@Z@:$,#/%h$m#}$~#M$u$$$&%J#i$W#O$P$=%n$[%S$-&U%&*:&5*x%o*Z%K&w&L&`&d&q&d&d&d&d&d&d&d&d&d&d&V=w W=d&X=Y=. . . .                                                                                                                                                     ",
"              . . . Z=1+A+`=9= -:#O+P+7+*@*#K$F@d@V+t$'@.-4@Z@:$,#/%h$#$}$%%S#u$|$&%J#i$W#O$P$:%n$[%S$-&,%1%:&5*x%o*Z%K&w&L&`&d&q&d&d&d&d&d&d&d&d&d&d&+-w @-d&q&#-. . . . .                                                                                                                                                     ",
"              . . . . $-%-&-K=*-O+P+&@*@*#K$F@d@V+t$^%J@4@Z@7%y@/%h$#$}$=-3#u$$$&%J#i$--O$P$:%<%[%S$H&,%1%:&p%x%o*J&K&;-L&`&d&q&d&d&d&d&d&d&d&d&d&d&>-,-w '-q&)-5#. . . .                                                                                                                                                       ",
"                . . . !-B#$@~-w {-&@*@*#[@6%d@V+t$^%J@4@D#7%y@/%h$#$$%%%3#q#$$&%J#0%W#k%6$:%<%[%a%H&,%1%d%p%x%o*J&x*;-L&`&^*d&d&d&d&d&d&d&d&d&d&d&d&]-w ^-d&d&>*. . . .                                                                                                                                                         ",
"                . . . . /-:#b@(-w _-*#[@6%d@j#t@^%J@Y@D#7%y@N@8%#$$%%%3#q#$$2$N$0%w$k%P$:%<%l%a%H&,%1%d%p%x%y%J&x***W&C*^*/*d&d&d&d&d&d&d&d&d&d&d&:-w <-d&q&[-=$. . . .                                                                                                                                                         ",
"                  . . . . }-:@|-1-w 2-6%d@j#t@^%J@Y@D#7%y@N@8%+#$%S#3#q#$$2$N$0%w$O$6$:%T%l%a%T$,%K%d%p%x%y%J&x***W&C*^*d&d&d&d&d&d&d&d&d&d&d&d&3-w ,-,=q&4-.=. . . .                                                                                                                                                           ",
"                    . . . 5-h#q+6-7-;@U+j#t@^%J@Y@D#7%+$N@8%#$!#S#3#q#H%2$N$0%w$k%6$:%T%l%a%T$J%K%d%p%<&y%J&x***W&C*^*/*d&d&d&d&d&d&d&d&d&d&d&8-9-0-a-d&q&b-. . . . .                                                                                                                                                           ",
"                    . . . . c-d-e-f-g-h-i-I@_$Y@D#>#+$N@8%j-!#S#%&|$H%2$K#d*k-k%6$*&T%l%a%T$J%K%V%;&<&y%a&`%l-W&C*q&/*d&d&d&d&d&d&d&d&d&d&d&m-w w n-d&d&o-. . . . .                                                                                                                                                             ",
"                      . . . . p-/$q-r-w s-J@Y@:$>#+$N@m#+#!#S#%&|$H%J#K#d*t-k%=%*&A$9&-&T$J%*=V%;&<&y%a&`%**W&d&q&d&d&d&d&d&d&d&d&d&d&d&d&u-v-o&w-d&q&x-. . . . .                                                                                                                                                               ",
"                        . . . . y-j#C#z-f$A-B-E#+$|#m#+#!#%%%&|$r#J#K#d*C-&&=%*&T%9&-&m%J%K%V%;&<&Z%a&`%x&2&d&q&d&d&d&d&d&d&d&d&d&d&d&d&D-w v%E-d&q&F-. . . . .                                                                                                                                                                 ",
"                          . . . . G-I@L$H-I-w J-|#m#n#F#M$%&$$r#J#K#d*&$&&=%*&[%9&-&T$_&:&V%;&0&Z%a&`%K-2&d&q&d&d&d&d&d&d&d&d&d&d&d&d&L-w M-N-q&q&O-P-. . . . .                                                                                                                                                                 ",
"                          . . . . . Q-;#R-S-T-w U-V-F#%%T#$$r#J#k&W#W-&&=%8&[%9&-&m%_&X-V%;&0&Z%a&w&L&2&d&q&d&d&d&d&d&d&d&d&d&d&d&Y-Z-w ;*Y-d&`- ;P-. . . . .                                                                                                                                                                   ",
"                            . . . . . .;+;/%|#@;L@#;$;T#$$r#J#k&W#_%5$:%8&[%G&H&U%_&:&I&x%0&Z%m&w&)&2&^*q&d&d&d&d&d&d&d&d&d&d&)&%;w N @-d&q&d&&;. . . . . .                                                                                                                                                                     ",
"                              . . . . . *;=;#$n#-;;;w >;,;N$k&W#&$5$:%8&[%G&H&m%&*:&I&x%0&Z%m&w&x&p&d&q&d&d&d&d&d&d&d&d&d&d&';);w !;~;d&q&q&{;. . . . . .                                                                                                                                                                       ",
"                                . . . . . . ];F#3#T#T*A-w ^;/;&$5$:%8&[%G&H&U%&*(;I&x%U&J&m&**)&p&^*/*d&d&d&d&d&d&d&d&p&8-_;w !;:;d&q&q&<;[;. . . . . .                                                                                                                                                                         ",
"                                    . . . . };|;T#$$1$1;2;w v-3;4;n$l%G&H&U%&*5;5*<&U&J&m&w&W&p&^*q&d&d&d&d&d&d&d&d&6;7;v%w 8;9;d&d&d&0;.=. . . . . .                                                                                                                                                                           ",
"                                      . . . . . a;b;J#(%w$c;d;e;w f;g;h;i;&*(;5*<&U&J&K&**W&p&d&/*d&d&d&d&d&'-j;k;o&w >=l;m;d&q&d&n;o;. . . . . .                                                                                                                                                                               ",
"                                        . . . . . . p;q;k%P$*&n$r;s;w w v%t;u;v;w;a&K&**)&p&q&q&d&d&x;6;y;9-v%w w z;A;d&d&d&q&B;C;. . . . . . .                                                                                                                                                                                 ",
"                                            . . . . . . D;E;8&9&S$T$F;G;H;I;y&w w w y&}&J;K;L;O=c&w w w N Z-M;N;O;d&d&q&q&P;Q;. . . . . . . .                                                                                                                                                                                   ",
"                                              . . . . . . . + R;S;T;1%V%5*0&o*U;V;W;X;Y;4=Z;`; >.>+>@>#>d&d&q&q&q&$>%>&>*>. . . . . . . .                                                                                                                                                                                       ",
"                                                  . . . . . . . R==>->;>;&>>a&`%x&,>`&d&d&d&d&d&d&d&d&q&q&q&d&'>)>!>~>. . . . . . . .                                                                                                                                                                                           ",
"                                                      . . . . . . . . . . {>]>^>/>(>_>:>:>:>:><>[>}>|>1>2>3>. . . . . . . . . . . .                                                                                                                                                                                             ",
"                                                          . . . . . . . . . . . . 4>~>5>5>5>5>5>6>7>=$. . . . . . . . . . . .                                                                                                                                                                                                   ",
"                                                              . . . . . . . . . . . . . . . . . . . . . . . . . . . . . .                                                                                                                                                                                                       ",
"                                                                      . . . . . . . . . . . . . . . . . . . . . .                                                                                                                                                                                                               ",
"                                                                              . . . . . . . . . . . . . .                                                                                                                                                                                                                       ",
"                                                                                  . . . . . . . . . .                                                                                                                                                                                                                           ",
"                                                                                  . . . . . . . . . .                                                                                                                                                                                                                           ",
"                                                                                  . . . . . . . . . .                                                                                                                                                                                                                           ",
"                                                                                  . . . . . . . . . .                                                                                                                                                                                                                           ",
"                                                                                  . . . . . . . . . .                                                                                                                                                                                                                           ",
"                                                                                  . . . . . . . . . .                                                                                                                                                                                                                           ",
"                                                                                  . . . . . . . . . .                                                                                                                                                                                                                           ",
"                                                                                  . . . . . . . . . .                                                                                                                                                                                                                           ",
"                                                                                  . . . . . . . . . .                                                                                                                                                                                                                           ",
"                                                                                  . . . . . . . . . .                                                                                                                                                                                                                           ",
"                                                                                  . . . . . . . . . .                                                                                                                                                                                                                           ",
"                                                                                  . . . . . . . . . .                                                                                                                                                                                                                           ",
"                                                                                  . . . . . . . . . .                                                                                                                                                                                                                           ",
"                                                                                  . . . . . . . . . .                                                                                                                                                                                                                           ",
"                                                                                  . . . . . . . . . .                                                                                                                                                                                                                           ",
"                                                                                  . . . . . . . . . .                                                                                                                                                                                                                           ",
"                                                                                  . . . . . . . . . .                                                                                                                                                                                                                           ",
"                                                                                  . . . . . . . . . .                                                                                                                                                                                                                           ",
"                                                                                  . . . . . . . . . .                                                                                                                                                                                                                           ",
"                                                                                  . . . . . . . . . .                                                                                                                                                                                                                           ",
"                                                                                  . . . . . . . . . .                                                                                                                                                                                                                           ",
"                                                                                  . . . . . . . . . .                                                                                                                                                                                                                           ",
"                                                                                  . . . . . . . . . .                                                                                                                                                                                                                           ",
"                                                                                  . . . . . . . . . .                                                                                                                                                                                                                           ",
"                                                                                  . . . . . . . . . .                                                                                                                                                                                                                           ",
"                                                                                  . . . . . . . . . .                                                                                                                                                                                                                           ",
"                                                                                  . . . . . . . . . .                                                                                                                                                                                                                           ",
"                                                                                  . . . . . . . . . .                                                                                                                                                                                                                           ",
"                                                                                  . . . . . . . . . .                                                                                                                                                                                                                           ",
"                                                                                  . . . . . . . . . .                                                                                                                                                                                                                           ",
"                                                                                  . . . . . . . . . .                                                                                                                                                                                                                           ",
"                                                                                  . . . . . . . . . .                                                                                                                                                                                                                           ",
"                                                                                  . . . . . . . . . .                                                                                                                                                                                                                           ",
"                                                                                  . . . . . . . . . .                                                                                                                                                                                                                           ",
"                                                                                  . . . . . . . . . .                                                                                                                                                                                                                           ",
"                                                                                  . . . . . . . . . .                                                                                                                                                                                                                           ",
"                                                                                  . . . . . . . . . .                                                                                                                                                                                                                           ",
"                                                                                  . . . . . . . . . .                                                                                                                                                                                                                           ",
"                                                                                  . . . . . . . . . .                                                                                                                                                                                                                           ",
"                                                                                  . . . . . . . . . .                                                                                                                                                                                                                           ",
"                                                                                  . . . . . . . . . .                                                                                                                                                                                                                           ",
"                                                                                  . . . . . . . . . .                                                                                                                                                                                                                           ",
"                                                                                  . . . . . . . . . .                                                                                                                                                                                                                           ",
"                                                                                  . . . . . . . . . .                                                                                                                                                                                                                           ",
"                                                                                  . . . . . . . . . .                                                                                                                                                                                                                           ",
"                                                                                  . . . . . . . . . .                                                                                                                                                                                                                           ",
"                                                                                  . . . . . . . . . .                                                                                                                                                                                                                           ",
"                                                                                  . . . . . . . . . .                                                                                                                                                                                                                           ",
"                                                                                . . . . . . . . . . . . .                                                                                                                                                                                                                       ",
"                                                                      . . . . . . . . . . . . . . . . . . . . . . .                                                                                                                                                                                                             ",
"                                                                . . . . . . . . . . . . . . . . . . . . . . . . . . . . .                                                                                                                                                                                                       ",
"                                                          . . . . . . . . . . . . . . . . . . . . . . . . . . . . . . . . . .                                                                                                                                                                                                   ",
"                                                      . . . . . . . . . . L.8>9>0>a>b>c>d>e>e>f>g>h>i>j>k>l>m . . . . . . . . . .                                                                                                                                                                                               ",
"                                                  . . . . . . . . . ~ m>; X+r.: ( ( ( ( ( ( ( ( ( ( ( b+a.n>o>p>q>r>. . . . . . . . .                                                                                                                                                                                           ",
"                                              . . . . . . . . 4&s>H*( ( ( _ ( ( ~.c t>u>v>0 w>a r -.x>y>M+f v+[+d.c+z>A>B>. . . . . . . .                                                                                                                                                                                       ",
"                                            . . . . . . . 4 C>p : ( _ ( D>E>F>G>P O N N N N N N N O O O @=H>I>d.9@z. @G J>K>L>. . . . . . . .                                                                                                                                                                                   ",
"                                        . . . . . . . M>, ( ( _ ( ;$8@,.w w w G>N>F>O>{@7@P>7@Q>R>S>T>Z#w w w w U>V>W>0@X>S..@Y>Z>. . . . . . .                                                                                                                                                                                 ",
"                                      . . . . . . `> ,( _ ( /#.,+,w O @,#,$,%,( ( ( ( ( : ( : < [ e b.]@`+&,*,=,L@w w -,;,>,T.,,V.',),. . . . . .                                                                                                                                                                               ",
"                                    . . . . . . h>: ( / %,!,=,w P S b ~,( ( ( ( ( ( ( : ( : < [ e b.]@`+}+9@d+T@{,],^,w w /,(,_,:,C@`$<,. . . . . . .                                                                                                                                                                           ",
"                                  . . . . . [,6 ( _ q },w w %+|,( ( ( ( ( ( ( ( ( ( : ( : < *+e b.g h }+9@d+ @R.0@^@g+e>1,9=w L@2,3,^&1+4,5,. . . . . .                                                                                                                                                                         ",
"                              . . . . . . 6,6#( _ 7,8,w 9,0,/#( ( ( ( ( ( ( ( ( ( ( ( : d *+e b.g h }+9@d+T@R.0@B.g+G$T.2.a,b,w w c,d,`.B+e,f,. . . . . .                                                                                                                                                                       ",
"                            . . . . . ,*h>: _ ~.W$w g,h,( ( ( ( ( ( ( ( ( ( ( ( : ( {.d [ e (#g h e.D d+F R.+.B.g+G$1.2.(@n@j+i,j,w w k,l,m,:#n,R=. . . . .                                                                                                                                                                     ",
"                          . . . . . . ]#( p 7 A@w o,q ( ( ( ( ( ( ( ( ( ( ( ( ( ( {.d a.} (#g h e.D d+T@w++.B.#.$.1.2.(@)+j+`$I.1+p,w w q,r,<#P+s,. . . . . .                                                                                                                                                                   ",
"                          . . . . @+C>( ( w>N N %#( ( ( ( ( ( ( ( ( ( ( ( ( : ( {.d *+} t,c.d.e.D E f.w++.B.#.$.1.2.e$)+j+`$I.J._# +u,v,w #&w,=@*@x,y,. . . . .                                                                                                                                                                 ",
"                        . . . . . C>_ ( E>w a+z,( ( ( ( ( ( ( ( ( ( ( ( w.0.( {.y.].} ]@c.d.e.D E f.w++.S.#.$.U.V.+@)+j+H.I.J._# +B#D+:#A,w L@B,P#C,D,. . . . .                                                                                                                                                                 ",
"                      . . . . ,*H*( ( Z+w 8.E,( ( ( ( ( ( ( ( ( ( ( ( ( ( w.x.y.a.=+(#c.d.e.z.E f.w+A.S.>+$.U.V.F,)+_@H.I.J._# +B#D+5+Q+D@G,w w H,/$G@I,R=. . . .                                                                                                                                                               ",
"                    . . . . . Y#( ( J,w ,.C%( ( ( ( ( ( ( ( ( ( ( ( : ( : x.y.*+} ]@c.d.Q.z.E f.0@A.S.#.@&U.V.K,'+_@H.1+J.`. +B#p@5+Q+D@p+q+t%N w L,j#C#M,. . . . .                                                                                                                                                             ",
"                    . . . . N,( _ O,w P,C%( ( ( ( ( ( ( ( ( ( ( ( ( ( : x.y.Q,=+]@c.d.Q.z.E -+w+A.g+>+T.U.i+K,'+_@|+1+k+_# +C+p@5+Q+7+p+q+K$J+R%w v%R,I@_$S,. . . . .                                                                                                                                                           ",
"                  . . . . { _ _ T,w $+3%( ( ( ( ( ( ( ( ( ( ( ( ( ( : x.y.e =+]@[+}+Q.z.U,-+0@A.g+>+T.h+V.+@'+_@|+1+k+`.#@C+p@5+Q+7+p+q+P#F@/$G@V,w S*u@W,X,Y,. . . .                                                                                                                                                           ",
"                . . . . @ _ ( E,=,A@q ( ( ( ( ( ( ( ( ( ( ( ( ( : : b+[ Q,=+X$[+}+Q.z.e+-+Z,f+g+>+T.h+i+`,'+`$|+1+A+B+l+C+m,O+P+7+p+<@K$ '/$V+t$'@.'w +'@',##'. . . . .                                                                                                                                                         ",
"                . . . . $'( p t.w r ( ( ( ( ( ( ( ( ( ( ( ( ( ( : %'[ *+f X$[+}+c+d+U,-+0@f+g+.@1.h+i+,+N+`$|+1+A+B+l+C+p@O+P+&@p+<@K$}@d@V+t$'@I@4@&'w *'/%h$='. . . .                                                                                                                                                         ",
"              . . . . % : _ -'w |,( ( ( ( ( ( ( ( ( ( ( ( ( : : b+[ M+f X$[+}+c+d+e+-++.f+g+y+1.h+i++@N+`$|+1+A+B+l+$@:#O+P+&@*@<@K$r@d@V+t$^%Q#4@;#;'w w >'m#}$,'. . . .                                                                                                                                                       ",
"              . . . . ''( )'!'N>( ( ( ( ( ( ( ( ( ( ( ( ( ( : b+[ ~'f X$`+e.c+d+ @G +.f+g+.@1./@i+)+N+`$|+J.A+B+#@$@:#O+P+&@*@<@K${'d@V+t$^%Q#4@i@7%y@]'w ^'/'F#('. . . . .                                                                                                                                                     ",
"            . . . . *.( ( O>w >$( ( ( ( ( ( ( ( ( ( ( ( ( : < a.~'f X$`+e.c+d+ @_':'<'['}'|'1'2'3'N+H.@@J.A+B+#@$@:#b@:@&@*@c@[@r@d@V+t@^%Q#Y@i@7%y@N@O@4'w 5'3#q#6'. . . .                                                                                                                                                     ",
"            . . . . C>_ S@w :+( ( ( ( ( ( ( ( ( ( ( w.0.x.< a.M+b.c.`+e.7'8'x#w N N w N w w w w 9'0'a'J.a@B+#@$@:#b@:@&@*@c@[@F@U+j#t@^%J@Y@i@7%y@N@8%#$b'w N c'H%d'. . . .                                                                                                                                                     ",
"          . . . . e'( ( P,=,9.( ( ( ( ( ( ( ( ( ( : : {.< a.e b.c.`+f'g'h'w w w o&w w w w w w N w w c#i'B+X@$@5+b@:@E@q+c@[@F@U+j#t@^%J@Y@Z@7%+$N@8%+#!#~#j'w k'2$N$l'. . . .                                                                                                                                                   ",
"          . . . . B%( )'w m'( ( ( ( ( ( ( ( ( ( : ( x.< *+e b.c.h e.n'w w w o&N w w w w w w w w N w N N o'p':#b@7+E@q+c@[@q'U+j#H@I@J@Y@Z@>#+$N@m#+#!#~#3#r's't'u'd*v'. . . .                                                                                                                                                   ",
"          . . . w'_ p x'w ( ( ( ( ( ( ( ( ( ( : : x.d a.y'b.c.`+Q.9@z'N w N N w F.A'B'C'D'E'F'w N N w N w G'b@7+E@q+*#[@/$U+j#H@I@J@Y@H'>#+$N@8%+#!#%%3#I'H%J'w K'w$k%L'. . . .                                                                                                                                                 ",
"        . . . . M': )'w '.( ( ( ( ( ( ( ( ( : ( x.d *+y'b.c.h Q.9@e+ .N w N'O'P'U.2.,+n@n.|+W@Q'o'w N w N w R'E@q+*#J+q'U+t$H@I@J@;#Z@>#+$|#m#+#F#%%3#|$r#J#S'w T'&&P$U'. . . .                                                                                                                                                 ",
"        . . . . B%( V'N W'( ( ( ( ( ( ( ( : : b+d *+X'(#[+h Q.D e+T@Y'Z'`'>+$.h+2.,+)+j+|+W@k+_#l+ )N w w N .)q+*#J+i#[#t$H@I@}#;#Z@>#+)|#m#+#F#%%3#|$r#J#K#S%@)w #)*&$). . . .                                                                                                                                                 ",
"        . . . %)( _ ~@&)( ( ( ( ( ( ( ( ( ( b+d *+=+(#[+h c+D e+T@R.*)B.>+B@h+2.,+=)j+|+W@A+_#l+X@-)q,w w N w ;)J+>)[#t$H@I@}#;#Z@>#/%|#m#n#F#%%3#|$r#J#K#W#_%,)w s=[%9&'). . .                                                                                                                                                 ",
"      . . . . ))( ( N !)( ( ( ( ( ( ( : ( b+y.*+~)(#[+d.c+D e+f.w+f+B.>+$.h+2.,+=)j+|+I.A+_#l+B#D+g#G,w w w N {)>)[#t$C#Q#}#;#D#E#k#@$m#n#F#%%T#$$r#J#k&W#_%&&])v-^)G&H&/). . . .                                                                                                                                               ",
"      . . . + #+_ b w E,( ( ( ( ( ( ( ( b+d M+()]@[+d.c+D e+_)w+f+S..@$.h+2.,+m.j+|+I.A+_##@B#D+O+Q+:)w w w w <)[#t$C#Q#}#i@D#E#/%@$#$n#F#S#T#q#1$N$k&W#&$&&6$8&#;w [)m%m;. . . .                                                                                                                                               ",
"      . . . 5.})( ;.>.( ( ( ( ( ( 0.( < y.M+} ]@[+d.c+z. @f.w+f+S..@$./@V.+@I=_@@@I.A+_##@B#D+O+Q+&@|)N w w N 1)t@C#Q#}#i@D#E#/%@$#$n#~#S#T#|$1$N$k&2)&$5$6$8&T&3)w 4)&*5)6>. . .                                                                                                                                               ",
"      . . . [,_ ( !'6)( ( ( ( : ( : b+y.M+=+]@`+d.9@z. @-+w+^@S..@T./@V.+@Z$_@@@I.a@`.#@B#D+O+Q+&@h#7)w w w N 8)C#J@_$i@:$E#N@@$#$}$~#S#T#9)1$N$k&w$&$5$=%n$l%G&0)w a)*=b)c). . .                                                                                                                                               ",
"      . . . j>( E,O 7@( ( ( ( ( : < y.e =+]@`+}+9@z. @-+0@f+S..@T./@V.+@d)_@@@I.a@_##@C+p@b@Q+E@p+c@e)w w N w f)J@_$i@D#,#N@@$#$}$~#S#T#H%1$N$i$w$&$5$6$n$l%G&T$U%w g)5*x%h). . . .                                               q%                                                                                            ",
"    . . . . i)( W'N ).( ( : ( : < [ e =+]@`+}+9@z. @j)0@k)g+G$T./@i+n@C@_@@@1+a@`.#@C+p@b@P+E@p+c@l)f$o&w w m)J@_$i@:$,#<$h$+#}$~#S#u$9)1$K#i$w$&$5$n)n$T&S$T$U%&*o)v%p)U&q). . . .     q%q%            q%q%            q%q%      q%q%                                                                                          ",
"    . . . . $'( r)w -.( ( ( : d [ e f ]@h }+9@z.F -+0@^@g+G$T./@i+n@Z$_@W@1+a@L=X@C+p@b@P+E@p+c@K$s)w w N w t)_$Z@:$,#l#h$+#}$~#S#u$|$&%K#i$w$O$P$=%n$9&S$T$U%&*:&u)v%v)a&w). . . .     q%q%          q%q%q%q%          q%q%      q%q%                                                                                          ",
"    . . . . x)( J,w y): ( {.d [ e f g h }+9@d+F z)+.^@g+G$1.2.i+n@N+`$W@1+a@B+X@C+:#b@P+E@*@c@K$A)w N w o&B)4@Z@:$y@l#h$+#$%%%M$u$$$&%K#0%w$O$P$=%<%l%S$T$,%1%:&5*C)o&D)K&E). . . .     q%q%          q%q%q%q%          q%q%      q%q%                                                                                          ",
"    . . . . F)( N.w 0.( {.d [ e f g h }+D d+F -++.B.g+G$1.2.i+n@G)`$W@1+_#B+X@C+:#<#P+E@*@*#[@H)Q%N w N w %=Z@7%y@l#h$+#$%%%M$u$I)&%K#(%_%O$P$=%<%9&S$T$,%1%:&5*<&J)N K)x&L). . . .     q%q%          q%q%q%q%        q%q%q%      q%q%                                                                                          ",
"    . . . . M)( :+w ( {.d a.} N)g h e.D d+F G +.{%#.$.1.2.i+)+G)`$O)J._#B+X@$@:#<#P+h#*@*#K$6%P)w o&N w Q)Z@7%y@R)h$+#$%%%3#q#I)&%K#0%_%O$6$S)<%T)a%m%,%1%:&p%U)o*V)N W)L&X). . . .       q%q%        q%    q%        q%q%        q%q%  q%q%q%q%q%            q%q%q%q%q%q%          q%q%  q%q%q%q%      q%q%q%q%q%q%          q%",
"    . . . . : p S w {.d [ } f g d.e.D d+T@Y)+.B.#.$.1.2.(@)+N+`$W@J._#B+B#Z):#<#D@h#*@*#[@6%`)N N o&w  !D#7%y@.!8%n#$%%%3#q#H%2$k&0%_%O$6$:%<%9&a%m%,%1%d%p%<&y%O%+!w +-C*@!. . . .       q%q%        q%    q%        q%q%        q%q%q%      q%q%q%        q%q%q%      q%q%        q%q%q%q%          q%q%      q%q%q%        q%",
"    . . . . : p r%w y.a.} b.c.d.e.D E f.G +.B.#.$.U.V.(@)+N+H.I.J._# +B#$@:#Q+D@h#*@P#[@6%#!N w N w $!D#7%+$l#8%n#$%S#3#q#H%2$k&0%&$k%6$:%<%G&a%m%,%K%d%p%x%y%O%x*%!w &!^**!. . . .       q%q%      q%q%    q%q%      q%q%        q%q%          q%q%        q%q%          q%q%      q%q%q%          q%q%          q%q%        q%",
"    . . . . =!w.-!w a.} b.c.d.Q.D E f.R.+.S.#.$.U.V.(@)+n.H.I.J._# +B#^+5+Q+D@h#q+P#[@6%;!w N N N >!D#>#y@@$8%n#!#S#3#q#H%2$k&d*_%k%6$*&T%G&a%m%J%K%d%p%<&y%O%x*x&,!N '!q&)!. . . .         q%q%    q%q%    q%q%      q%q%        q%q%          q%q%      q%q%            q%q%      q%q%            q%q%            q%q%        ",
"    . . . . #+x.!!w =+(#c.d.e.z.E f.R.A.S.#.@&U.V.(@)+~!H.I.k+_# +B#$@5+Q+D@p+q+P#[@6%{!N w N w ]!D#>#+$@$8%n#!#S#3#|$^!2$k&S%&$k%6$*&A$G&a%U%J%K%d%;&/!y%O%`%)&W&(!N _!q&:!. . . .         q%q%    q%        q%    q%q%          q%q%          q%q%      q%q%q%q%q%q%q%q%q%q%      q%q%          q%q%q%q%q%q%q%q%q%q%q%        ",
"    . . . . <!y.[!w }!c.}+Q.z.E f.Z,A.S.>+T.U.V.,+'+~!H.I.k+_#l+B#m,5+|!7+p+q+P# '/$1!w N w N 2!3!4!+$@$m#}$!#S#%&|$H%2$k&S%&$k%=%*&T%G&-&U%J%K%V%;&<&Z%m&`%)&W&d&5!o&6!q&7!. . . .         q%q%    q%        q%q%  q%q%          q%q%          q%q%      q%q%q%q%q%q%q%q%q%q%      q%q%          q%q%q%q%q%q%q%q%q%q%q%        ",
"    . . . . 8!*+9!w 0!}+Q.z.E -+R.A.g+>+T.U.i+,+'+j+|+1+k+`.l+C+^+5+P+7+p+q+P#J+/$a!w N N w b!:$>#+$c!m#}$!#S#%&|$r#J#i$S%&$&&=%8&T%S$-&U%J%*=V%;&0&Z%K&`%)&W&d&q&d!o&8-q&e!. . . .         q%q%  q%q%        q%q%  q%q%          q%q%          q%q%      q%q%                      q%q%          q%q%                          ",
"    . . . . f!=+g!w h!Q.d+e+-+R.A.g+>+T.h+i+,+'+j+|+1+k+`.l+C+D+O+Q+7+p+<@K$J+/$i!N o&w N j!S-E#/%c!m#}$F#S#%&|$r#J#i$S%&$&&=%8&[%G&-&U%_&:&V%;&0&Z%K&`%)&2&d&q&d&;*v%k!q&l!. . . .         q%q%  q%q%        q%q%q%q%q%          q%q%          q%q%      q%q%                      q%q%            q%q%                        ",
"      . . . m!<+f'O n!d+e+-+w+A.g+y+T.h+i+,+N+z+|+1+k+B+l+C+D+O+P+7+p+<@K$J+/$o!w o&N N p!:$E#/%h$m#$%F#M$%&$$q!J#i$W#O$&&=%*&[%S$-&,%_&:&V%x%r!Z%K&`%L&2&d&q&d&d&y&9-`&d&b-. . . .           q%q%q%q%        q%q%q%q%            q%q%          q%q%        q%q%                    q%q%            q%q%                      q%",
"      . . . s![+}+P t!e+-+w+f+g+.@1.h+i+,+N+u!|+1+A+B+l+C+D+O+P+7+p+<@K$}@d@v!w o&w N 2*S-E#/%c!#$$%F#S#%&$$q!N$i$W#O$&&=%8&[%(&H&,%_&:&V%x%0&Z%K&w&L&2&d&q&d&d&N=w );d&z&w!. . .             q%q%q%            q%q%q%            q%q%          q%q%        q%q%q%        q%q%      q%q%              q%q%q%        q%        q%",
"      . . . x!y!c+z!A!-+B!f+g+.@1.h+i++@N+j+|+1+A+B+#@$@D+O+P+&@*@<@K$}@d@C!w o&N N D!E!E#/%h$#$$%F#M$T#$$r#N$0%W#O$5$:%8&[%S$H&,%_&:&I&x%U&Z%x*w&L&p&^*q&d&d&d&F!w G!d&H!I!. . .             q%q%q%            q%q%q%            q%q%          q%q%            q%q%q%q%q%q%        q%q%                q%q%q%q%q%q%q%        q%",
"      . . . ,*J!E n'w w+f+#..@1.h+(@+@N+_@@@J.A+B+#@$@D+O+:@&@*@<@[@}@d@K!w o&w w L!M!E#N@h$#$$%F#3#T#$$1$N$0%W#O$5$:%8&l%S$H&,%&*d%I&x%N!J&x*w&L&p&^*/*d&d&d&d&Z;w O;d&_>. . . .                                                                                                                                               ",
"      . . . . O! @_)w P!#..@1./@(@n@N+`$@@J.a@B+#@$@p@b@:@&@*@c@[@a=d@Q!N N N N R!S!,#/%8%#$$%~#3#u$$$$*N$0%w$k%5$:%T!T&a%H&,%&*d%I&x%U!J&x***W&p&^*/*d&d&d&d&V!y&W!d&q&X!. . . .                                                                                                                                               ",
"        . . . Y!G w+Z!`!G$1./@(@+@C@_@@@k+a@B+#@$@p@b@:@&@*@c@[@r@U+ ~N w w w w .~+~@~#~$~%~&~*~=~-~;~>~,~'~Y*)~:%n$l%a%H&J%&*d%5*<&!~J&x***W&p&^*q&d&d&d&d&d&~~v%E*d&q&{~. . .                                                                                                                                                 ",
"        . . . . +.B.]~@,^~/@(@+@C@/~@@J.a@B+#@$@(~<#:@E@q+c@[@F@U+G@_~w w w o&o&w N N N N N N N N N N N N N N R$:~l%a%T$J%&*d%5*<&o*a&x***W&`&q&/*d&d&d&d&d&d&M;w <~q&[~. . . .                                                                                                                                                 ",
"        . . . . }~#.|~w 1~,+n@C@V@W@k+a@B+X@^+p@b@D@E@q+c@[@F@U+V+H@2~w w w w w w w w w w w w w w w w w w w w 3~l%-&T$J%1%V%5*<&o*a&`%**2&`&q&d&d&d&d&d&d&d&d&w w 4~d&5~. . . .                                                                                                                                                 ",
"          . . . 6~7~U.8~9~n@C@V@W@k+a@%-X@^+:#<#7+E@q+*#J+F@U+V+H@I@0~w w w w w w w w w w w w w w w w w w w w a~a%T$J%1%V%5*<&o*a&`%**2&`&/*d&d&d&d&d&d&d&d&b~w L-d&$>c~. . . .                                                                                                                                                 ",
"          . . . d~e~2.2'w f~V@W@k+a@l+X@^+g#<#7+E@<@*#J+6%U+=#H@I@}#v&g~h~i~j~k~l~f=g=k'i=m~n~o~m=p~q~p=r~s~t~G;T$J%1%V%5*0&Z%a&`%x&2&`&q&d&d&d&d&d&d&d&d&4~u~c&v~q&w~. . . .                                                                                                                                                   ",
"          . . . . x~,+3'y~z~W@k+_#l+X@D+:#<#7+h#<@*#J+6%[#=#C#I@}#;#Z@E#y@|#m#n#F#%%3#q#r#A~k&S%_%&&P$8&<%9&-&m%_&1%V%p%0&o*a&w&x&2&`&q&d&d&d&d&d&d&d&d&d&~;w B~d&q&C~. . . .                                                                                                                                                   ",
"            . . . . D~u!E~w F~_#l+B#D+:#<#7+h#<@P#J+i#[#j#C#Q#}#;#D#E#y@l#m#n#F#%%T#q#r#2$k&W#_%&&6$8&<%9&-&m%_&1%V%p%0&y%m&w&x&2&C*q&d&d&d&d&d&d&d&d&d&d&}&w q*d&G~. . . .                                                                                                                                                     ",
"            . . . . H~H.I.I~J~l+B#D+:#Q+O#h#<@*#}@i#[#j#C#Q#}#;#D#E#y@|##$n#F#S#T#q#r#2$k&W#_%5$6$8&<%G&H&m%_&K%I&p%0&y%m&w&x&2&C*q&d&d&d&d&d&d&d&d&d&d&K~w L~d&q&M~. . . .                                                                                                                                                     ",
"              . . . N~1+A+O~w P~D+5+Q+^$p+<@P#}@/$[#($C#Q#_$;#D#E#+$@$#$}$F#S#T#q#r#2$k&Q~&$5$6$8&A$9&H&m%_&*=I&;&0&R~m&w&)&p&C*q&d&d&d&d&d&d&d&d&d&d&,=S~!;T~q&U~R=. . . .                                                                                                                                                     ",
"              . . . . V~_#X@W~g)r,Q+&@p+c@P#}@i#G@t$C#Q#_$i@D#E#+$@$#$n#~#S#T#|$1$X~k&W#&$5$6$n$A$G&H&U%&**=I&p%U&Y~m&**)&p&C*/*d&d&d&d&d&d&d&d&d&d&d&Z~w +>d&d&`~. . . .                                                                                                                                                       ",
"                . . . .  {C+p@.{+{O#p+c@P#}@/$G@t$'@J@_$i@:$,#+$@$#$}$~#S#T#|$1$v$i$W#&$5$=%n$A$G&H&U%&**=I&;&U&Y~K&w&)&p&d&q&d&d&d&d&d&d&d&d&d&d&d&@{w B~d&q&#{. . . .                                                                                                                                                         ",
"                . . . . ++p@O+${Z %{c@K$F@/$G@t$'@J@_$i@:$,#+$@$+#}$~#S#u$|$1$v$i$w$&$P$=%n$[%G&T$U%&*:&5*;&U&Z%K&**)&`&d&d&d&d&d&d&d&d&d&d&d&d&d&&{w *{k!q&d&={. . . .                                                                                                                                                         ",
"                  . . . . -{P+|-5%w ;{F@/$V+t$'@J@4@Z@:$,#/%h$+#}$~#S#u$|$&%v$i$w$O$P$=%n$[%S$T$U%&*:&5*;&U&>{K&**)&`&d&q&d&d&d&d&d&d&d&d&d&d&d&,{,-w '{d&d&){. . . .                                                                                                                                                           ",
"                    . . . };!{p+~{{{w ]{G@H@'@J@4@Z@:$,##%h$+#}$~#M$u$|$&%*%i$w$O$P$=%n$[)S$T$U%1%:&5*x%U&>{K&**L&`&d&d&d&d&d&d&d&d&d&d&d&d&d&^{/{w e*d&q&({. . . . .                                                                                                                                                           ",
"                    . . . . . _{K$F@:{w <{'@-#4@Z@:$,#/%h$[{$%%%S#u$$$&%J#(%_%O$P$=%<%[%S$T$,%1%:&5*x%o*}{x*x&L&`&d&q&d&d&d&d&d&d&d&d&d&d&d&^{|{w 1{d&q&2{. . . . .                                                                                                                                                             ",
"                      . . . . 3{4{5{V+6{w 7{4@Z@7%y@#%h$+#$%%%3#q#$$&%N$0%_%O$P$:%<%[%S$T$,%1%:&5*x%o*8{x*x&L&`&d&q&d&d&d&d&d&d&d&d&d&d&d&#>9{w 0{d&q&a{5>. . . .                                                                                                                                                               ",
"                        . . . . b{s@,@^%c{w d{7%y@#%8%n#$%%%3#q#$$&%N$0%_%k%6$:%<%l%a%m%,%K%d%p%x%o*8{x*x&L&C*^*q&d&d&d&d&d&d&d&d&d&d&d&e{N&w f{d&d&g{4>. . . .                                                                                                                                                                 ",
"                          . . . . h{^%-#Y@i{w j{N@8%V-!#%%3#q#H%&%K#0%_%k%6$:%<%l%a%k{J%1%d%p%<&o*l{x*x&W&C*^*/*d&d&d&d&d&d&d&d&d&d&d&3-y&w m{d&q&n{<=. . . . .                                                                                                                                                                 ",
"                          . . . . . o{p{D#x@q{r{D!s{!#S#3#|$H%2$N$0%&$k%6$:%<%l%a%m%J%K%d%p%<&y%l{x*x&W&C*^*d&d&d&d&d&d&d&d&d&d&d&d&t{w y&F=d&q&[>u{. . . . .                                                                                                                                                                   ",
"                            . . . . . v{w{+$N@x{{*9')#3#|$H%2$K#S%y{k%6$*&T%l%-&m%J%K%d%p%<&y%a&`%)&W&C*^*/*d&d&d&d&d&d&d&d&d&d&';z{w A{'-d&q&B{C{. . . . .                                                                                                                                                                     ",
"                              . . . . . . D{8%n#E{F{w v*G{r#K#S%&$k%6$*&T%9&a%U%J%K%d%;&<&y%a&`%)&W&C*q&d&d&d&d&d&d&d&d&d&d&H{l;w _*I{d&q&d&J{. . . . . .                                                                                                                                                                       ",
"                                  . . . . };K{!#S#%&L{M{w @)N{&$&&=%*&T%l%-&U%J%*=V%;&<&y%O{`%)&2&d&q&d&d&d&d&d&d&d&d&d&e{P{!;w _;Q{d&q&d&R{. . . . . .                                                                                                                                                                         ",
"                                    . . . . . S{T{|$r#J#U{V{w W{X{-%[%(&-&U%J%:&V%;&0&Z%'&`%)&2&d&q&d&d&d&d&d&d&d&-=w-Y{w w ;*Z{d&q&q&`{ ]. . . . . .                                                                                                                                                                           ",
"                                      . . . . . . .]2$i$W#D=+]e;w g)@]#]U%_&:&V%x%0&Z%a&`%L&2&d&q&d&d&d&d&d&d&8-$]*{o&w %]&]p&d&q&z&b-. . . . . .                                                                                                                                                                               ",
"                                        . . . . . . p;*]=]5$=%8&-];]>]w w ,]'])]!]q;~]{]x&2&d&g{]]&]5=^]/]:=M-w w Z~(]&]d&q&q&U~_]:]. . . . . .                                                                                                                                                                                 ",
"                                            . . . . . . . <][][%G&H&,%}]|]1]v%o&w w w w w w w w w w w N v%o&Z-2]P=d&q&q&d&4-3]. . . . . . . .                                                                                                                                                                                   ",
"                                              . . . . . . . :]4]5]m%&*d%I&x%6]7]8]9]0]a]b]:;.>c]/]^-d]e]f]`&d&d&q&q&d&({g]7>. . . . . . .                                                                                                                                                                                       ",
"                                                  . . . . . . . . + '%h]H{i]J&j]w&W&p&^*/*d&d&d&q&q&q&q&q&d&4-<>k]l]. . . . . . . . .                                                                                                                                                                                           ",
"                                                      . . . . . . . . . m]c)n]o]p]q]r]d&q&d&d&q&`&s]q]t]u]F*v]w]. . . . . . . . .                                                                                                                                                                                               ",
"                                                          . . . . . . . . . . . . . . . . . . . . . . . . . . . . . . . . . .                                                                                                                                                                                                   ",
"                                                                . . . . . . . . . . . . . . . . . . . . . . . . . . . . .                                                                                                                                                                                                       ",
"                                                                      . . . . . . . . . . . . . . . . . . . . . . .                                                                                                                                                                                                             ",
"                                                                                . . . . . . . . . . . . .                                                                                                                                                                                                                       ",
"                                                                                  . . . . . . . . . .                                                                                                                                                                                                                           ",
"                                                                                  . . . . . . . . . .                                                                                                                                                                                                                           ",
"                                                                                  . . . . . . . . . .                                                                                                                                                                                                                           ",
"                                                                                  . . . . . . . . . .                                                                                                                                                                                                                           ",
"                                                                                  . . . . . . . . . .                                                                                                                                                                                                                           ",
"                                                                                  . . . . . . . . . .                                                                                                                                                                                                                           ",
"                                                                                  . . . . . . . . . .                                                                                                                                                                                                                           ",
"                                                                                  . . . . . . . . . .                                                                                                                                                                                                                           ",
"                                                                                  . . . . . . . . . .                                                                                                                                                                                                                           ",
"                                                                                  . . . . . . . . . .                                                                                                                                                                                                                           ",
"                                                                                  . . . . . . . . . .                                                                                                                                                                                                                           ",
"                                                                                  . . . . . . . . . .                                                                                                                                                                                                                           ",
"                                                                                  . . . . . . . . . .                                                                                                                                                                                                                           ",
"                                                                                  . . . . . . . . . .                                                                                                                                                                                                                           ",
"                                                                                  . . . . . . . . . .                                                                                                                                                                                                                           ",
"                                                                                  . . . . . . . . . .                                                                                                                                                                                                                           ",
"                                                                                  . . . . . . . . . .                                                                                                                                                                                                                           ",
"                                                                                  . . . . . . . . . .                                                                                                                                                                                                                           ",
"                                                                                  . . . . . . . . . .                                                                                                                                                                                                                           ",
"                                                                                  . . . . . . . . . .                                                                                                                                                                                                                           ",
"                                                                                  . . . . . . . . . .                                                                                                                                                                                                                           ",
"                                                                                  . . . . . . . . . .                                                                                                                                                                                                                           ",
"                                                                                  . . . . . . . . . .                                                                                                                                                                                                                           ",
"                                                                                  . . . . . . . . . .                                                                                                                                                                                                                           ",
"                                                                                  . . . . . . . . . .                                                                                                                                                                                                                           ",
"                                                                                  . . . . . . . . . .                                                                                                                                                                                                                           ",
"                                                                                  . . . . . . . . . .                                                                                                                                                                                                                           ",
"                                                                                  . . . . . . . . . .                                                                                                                                                                                                                           ",
"                                                                                  . . . . . . . . . .                                                                                                                                                                                                                           ",
"                                                                                  . . . . . . . . . .                                                                                                                                                                                                                           ",
"                                                                                  . . . . . . . . . .                                                                                                                                                                                                                           ",
"                                                                                  . . . . . . . . . .                                                                                                                                                                                                                           ",
"                                                                                  . . . . . . . . . .                                                                                                                                                                                                                           ",
"                                                                                  . . . . . . . . . .                                                                                                                                                                                                                           ",
"                                                                                  . . . . . . . . . .                                                                                                                                                                                                                           ",
"                                                                                  . . . . . . . . . .                                                                                                                                                                                                                           ",
"                                                                                  . . . . . . . . . .                                                                                                                                                                                                                           ",
"                                                                                  . . . . . . . . . .                                                                                                                                                                                                                           ",
"                                                                                  . . . . . . . . . .                                                                                                                                                                                                                           ",
"                                                                                  . . . . . . . . . .                                                                                                                                                                                                                           ",
"                                                                                  . . . . . . . . . .                                                                                                                                                                                                                           ",
"                                                                                  . . . . . . . . . .                                                                                                                                                                                                                           ",
"                                                                                  . . . . . . . . . .                                                                                                                                                                                                                           ",
"                                                                                  . . . . . . . . . .                                                                                                                                                                                                                           ",
"                                                                                  . . . . . . . . . .                                                                                                                                                                                                                           ",
"                                                                                  . . . . . . . . . .                                                                                                                                                                                                                           ",
"                                                                                  . . . . . . . . . .                                                                                                                                                                                                                           ",
"                                                                                  . . . . . . . . . .                                                                                                                                                                                                                           ",
"                                                                              . . . . . . . . . . . . . .                                                                                                                                                                                                                       ",
"                                                                      . . . . . . . . . . . . . . . . . . . . . .                                                                                                                                                                                                               ",
"                                                              . . . . . . . . . . . . . . . . . . . . . . . . . . . . . .                                                                                                                                                                                                       ",
"                                                          . . . . . . . . . . . . . . . . . . . . . . . . . . . . . . . . . .                                                                                                                                                                                                   ",
"                                                      . . . . . . . . . . L.8>9>0>a>b>c>d>e>e>f>g>h>i>j>k>l>m . . . . . . . . . . .                                                                                                                                                                                             ",
"                                                  . . . . . . . . . ~ m>; X+r.: ( ( ( ( ( ( ( ( ( ( ( b+a.n>o>p>q>r>. . . . . . . . .                                                                                                                                                                                           ",
"                                              . . . . . . . . 4&s>H*( ( ( _ ( ( ~.c t>u>v>0 w>a r -.x>y>M+f v+[+d.c+z>A>B>. . . . . . . .                                                                                                                                                                                       ",
"                                            . . . . . . . 4 C>p : ( _ ( D>E>F>G>P O N N N N N N N O O O @=H>I>d.9@z. @G J>K>L>. . . . . . . .                                                                                                                                                                                   ",
"                                        . . . . . . . M>, ( ( _ ( ;$8@,.w w w G>N>F>O>{@7@P>7@Q>R>S>T>Z#w w w w U>V>W>0@X>S..@Y>Z>. . . . . . .                                                                                                                                                                                 ",
"                                      . . . . . . `> ,( _ ( /#.,+,w O @,#,$,%,( ( ( ( ( : ( : < [ e b.]@`+&,*,=,L@w w -,;,>,T.,,V.',),. . . . . .                                                                                                                                                                               ",
"                                    . . . . . . h>: ( / %,!,=,w P S b ~,( ( ( ( ( ( ( : ( : < [ e b.]@`+}+9@d+T@{,],^,w w /,(,_,:,C@`$<,. . . . . . .                                                                                                                                                                           ",
"                                . . . . . . [,6 ( _ q },w w %+|,( ( ( ( ( ( ( ( ( ( : ( : < *+e b.g h }+9@d+ @R.0@^@g+e>1,9=w L@2,3,^&1+4,5,. . . . . .                                                                                                                                                                         ",
"                              . . . . . . 6,6#( _ 7,8,w 9,0,/#( ( ( ( ( ( ( ( ( ( ( ( : d *+e b.g h }+9@d+T@R.0@B.g+G$T.2.a,b,w w c,d,`.B+e,f,. . . . . .                                                                                                                                                                       ",
"                            . . . . . ,*h>: _ ~.W$w g,h,( ( ( ( ( ( ( ( ( ( ( ( : ( {.d [ e (#g h e.D d+F R.+.B.g+G$1.2.(@n@j+i,j,w w k,l,m,:#n,R=. . . . .                                                                                                                                                                     ",
"                          . . . . . . ]#( p 7 A@w o,q ( ( ( ( ( ( ( ( ( ( ( ( ( ( {.d a.} (#g h e.D d+T@w++.B.#.$.1.2.(@)+j+`$I.1+p,w w q,r,<#P+s,. . . . . .                                                                                                                                                                   ",
"                          . . . . @+C>( ( w>N N %#( ( ( ( ( ( ( ( ( ( ( ( ( : ( {.d *+} t,c.d.e.D E f.w++.B.#.$.1.2.e$)+j+`$I.J._# +u,v,w #&w,=@*@x,y,. . . . .                                                                                                                                                                 ",
"                        . . . . . C>_ ( E>w a+z,( ( ( ( ( ( ( ( ( ( ( ( w.0.( {.y.].} ]@c.d.e.D E f.w++.S.#.$.U.V.+@)+j+H.I.J._# +B#D+:#A,w L@B,P#C,D,. . . . .                                                                                                                                                                 ",
"                      . . . . ,*H*( ( Z+w 8.E,( ( ( ( ( ( ( ( ( ( ( ( ( ( w.x.y.a.=+(#c.d.e.z.E f.w+A.S.>+$.U.V.F,)+_@H.I.J._# +B#D+5+Q+D@G,w w H,/$G@I,R=. . . .                                                                                                                                                               ",
"                    . . . . . Y#( ( J,w ,.C%( ( ( ( ( ( ( ( ( ( ( ( : ( : x.y.*+} ]@c.d.Q.z.E f.0@A.S.#.@&U.V.K,'+_@H.1+J.`. +B#p@5+Q+D@p+q+t%N w L,j#C#M,. . . . .                                                                                                                                                             ",
"                    . . . . N,( _ O,w P,C%( ( ( ( ( ( ( ( ( ( ( ( ( ( : x.y.Q,=+]@c.d.Q.z.E -+w+A.g+>+T.U.i+K,'+_@|+1+k+_# +C+p@5+Q+7+p+q+K$J+R%w v%R,I@_$S,. . . . .                                                                                                                                                           ",
"                  . . . . { _ _ T,w $+3%( ( ( ( ( ( ( ( ( ( ( ( ( ( : x.y.e =+]@[+}+Q.z.U,-+0@A.g+>+T.h+V.+@'+_@|+1+k+`.#@C+p@5+Q+7+p+q+P#F@/$G@V,w S*u@W,X,Y,. . . .                                                                                                                                                           ",
"                . . . . @ _ ( E,=,A@q ( ( ( ( ( ( ( ( ( ( ( ( ( : : b+[ Q,=+X$[+}+Q.z.e+-+Z,f+g+>+T.h+i+`,'+`$|+1+A+B+l+C+m,O+P+7+p+<@K$ '/$V+t$'@.'w +'@',##'. . . . .                                                                                                                                                         ",
"                . . . . $'( p t.w r ( ( ( ( ( ( ( ( ( ( ( ( ( ( : %'[ *+f X$[+}+c+d+U,-+0@f+g+.@1.h+i+,+N+`$|+1+A+B+l+C+p@O+P+&@p+<@K$}@d@V+t$'@I@4@&'w *'/%h$='. . . .                                                                                                                                                         ",
"              . . . . % : _ -'w |,( ( ( ( ( ( ( ( ( ( ( ( ( : : b+[ M+f X$[+}+c+d+e+-++.f+g+y+1.h+i++@N+`$|+1+A+B+l+$@:#O+P+&@*@<@K$r@d@V+t$^%Q#4@;#;'w w >'m#}$,'. . . .                                                                                                                                                       ",
"              . . . . ''( )'!'N>( ( ( ( ( ( ( ( ( ( ( ( ( ( : b+[ ~'f X$`+e.c+d+ @G +.f+g+.@1./@i+)+N+`$|+J.A+B+#@$@:#O+P+&@*@<@K${'d@V+t$^%Q#4@i@7%y@]'w ^'/'F#('. . . . .                                                                                                                                                     ",
"            . . . . *.( ( O>w >$( ( ( ( ( ( ( ( ( ( ( ( ( : < a.~'f X$`+e.c+d+x]y]z]A]['B]C]D]E]F]N+H.@@J.A+B+#@$@:#b@:@&@*@c@[@r@d@V+t@^%Q#Y@i@7%y@N@O@4'w 5'3#q#6'. . . .                                                                                                                                                     ",
"            . . . . C>_ S@w :+( ( ( ( ( ( ( ( ( ( ( w.0.x.< a.M+b.c.`+G]H]I]J]w w N w N w w w w w E.K]L]a@B+#@$@:#b@:@&@*@c@[@F@U+j#t@^%J@Y@i@7%y@N@8%#$b'w N c'H%d'. . . .                                                                                                                                                     ",
"          . . . . e'( ( P,=,9.( ( ( ( ( ( ( ( ( ( : : {.< a.e b.c.`+e.t!w N w w w w w w w w w w N w N ;@M]X@$@5+b@:@E@q+c@[@F@U+j#t@^%J@Y@Z@7%+$N@8%+#!#~#j'w k'2$N$l'. . . .                                                                                                                                                   ",
"          . . . . B%( )'w m'( ( ( ( ( ( ( ( ( ( : ( x.< *+e b.c.h e.9@N]w w w w w N w w w w N w N w w w w O]:#b@7+E@q+c@[@q'U+j#H@I@J@Y@Z@>#+$N@m#+#!#~#3#r's't'u'd*v'. . . .                                                                                                                                                   ",
"          . . . w'_ p x'w ( ( ( ( ( ( ( ( ( ( : : x.d a.y'b.c.`+Q.9@E P]w w w Q]R]S]d>T]U]V]W]X]w N N N o&N Y]7+E@q+*#[@/$U+j#H@I@J@Y@H'>#+$N@8%+#!#%%3#I'H%J'w K'w$k%L'. . . .                                                                                                                                                 ",
"        . . . . M': )'w '.( ( ( ( ( ( ( ( ( : ( x.d *+y'b.c.h Q.9@e+T@Z]`] ^.^B@U.2.,+n@n.|+W@k++^v,w w w N @^E@q+*#J+q'U+t$H@I@J@;#Z@>#+$|#m#+#F#%%3#|$r#J#S'w T'&&P$U'. . . .                                                                                                                                                 ",
"        . . . . B%( V'N W'( ( ( ( ( ( ( ( : : b+d *+X'(#[+h Q.D e+T@R.#^B.>+$.h+2.,+)+j+|+W@k+_#l+$^.{N w N N %^*#J+i#[#t$H@I@}#;#Z@>#+)|#m#+#F#%%3#|$r#J#K#S%@)w #)*&$). . . .                                                                                                                                                 ",
"        . . . %)( _ ~@&)( ( ( ( ( ( ( ( ( ( b+d *+=+(#[+h c+D e+T@R.f+B.>+B@h+2.,+=)j+|+W@A+_#l+X@D+&^N N w w *^J+>)[#t$H@I@}#;#Z@>#/%|#m#n#F#%%3#|$r#J#K#W#_%,)w s=[%9&'). . .                                                                                                                                                 ",
"      . . . . ))( ( N !)( ( ( ( ( ( ( : ( b+y.*+~)(#[+d.c+D e+f.w+f+B.>+$.h+2.,+=)j+|+I.A+_#l+B#D+g#Q+w w w N =^>)[#t$C#Q#}#;#D#E#k#@$m#n#F#%%T#$$r#J#k&W#_%&&])v-^)G&H&/). . . .                                                                                                                                               ",
"      . . . + #+_ b w E,( ( ( ( ( ( ( ( b+d M+()]@[+d.c+D e+_)w+f+S..@$.h+2.,+m.j+|+I.A+_##@B#D+O+Q+&@9'w w N -^[#t$C#Q#}#i@D#E#/%@$#$n#F#S#T#q#1$N$k&W#&$&&6$8&#;w [)m%m;. . . .                                                                                                                                               ",
"      . . . 5.})( ;.>.( ( ( ( ( ( 0.( < y.M+} ]@[+d.c+z. @f.w+f+S..@$./@V.+@I=_@@@I.A+_##@B#D+O+Q+&@h#w w w w ;^t@C#Q#}#i@D#E#/%@$#$n#~#S#T#|$1$N$k&2)&$5$6$8&T&3)w 4)&*5)6>. . .                                                                                                                                               ",
"      . . . [,_ ( !'6)( ( ( ( : ( : b+y.M+=+]@`+d.9@z. @-+w+^@S..@T./@V.+@Z$_@@@I.a@`.#@B#D+O+Q+&@h#>^w N N N ,^C#J@_$i@:$E#N@@$#$}$~#S#T#9)1$N$k&w$&$5$=%n$l%G&0)w a)*=b)c). . .                                                 q%                                                                                            ",
"      . . . j>( E,O 7@( ( ( ( ( : < y.e =+]@`+}+9@z. @-+0@f+S..@T./@V.+@d)_@@@I.a@_##@C+p@b@Q+E@p+'^1@w w N )^'@J@_$i@D#,#N@@$#$}$~#S#T#H%1$N$i$w$&$5$6$n$l%G&T$U%w g)5*x%h). . . .     q%q%            q%q%            q%q%      q%                                                                                            ",
"    . . . . i)( W'N ).( ( : ( : < [ e =+]@`+}+9@z. @j)0@k)g+G$T./@i+n@C@_@@@1+a@`.#@C+p@b@P+E@p+!^~^w N N w {^J@_$i@:$,#<$h$+#}$~#S#u$9)1$K#i$w$&$5$n)n$T&S$T$U%&*o)v%p)U&q). . . .     q%q%          q%q%q%            q%q%      q%                                                q%                                          ",
"    . . . . $'( r)w -.( ( ( : d [ e f ]@h }+9@z.F -+0@^@g+G$T./@i+n@Z$_@W@1+a@L=]^^^/^(^_^:^<^[^w w N N }^|^J@_$Z@:$,#l#h$+#}$~#S#u$|$&%K#i$w$O$P$=%n$9&S$T$U%&*:&u)v%v)a&w). . . .     q%q%          q%q%q%q%          q%q%      q%                                                q%                                          ",
"    . . . . x)( J,w y): ( {.d [ e f g h }+9@d+F z)+.^@g+G$1.2.i+n@N+`$W@1+a@B+X@v,v%L@L@L@L@w w w w N m)1^J@4@Z@:$y@l#h$+#$%%%M$u$$$&%K#0%w$O$P$=%<%l%S$T$,%1%:&5*C)o&D)K&E). . . .     q%q%          q%q%q%q%        q%q%        q%                                                q%                                          ",
"    . . . . F)( N.w 0.( {.d [ e f g h }+D d+F -++.B.g+G$1.2.i+n@G)`$W@1+_#B+X@C+2^w w w w w w w w 7-3^^%-#4@Z@7%y@l#h$+#$%%%M$u$I)&%K#(%_%O$P$=%<%9&S$T$,%1%:&5*<&J)N K)x&L). . . .       q%q%        q%  q%q%        q%q%        q%    q%q%q%q%            q%q%q%q%q%q%        q%q%q%q%q%q%q%                                  ",
"    . . . . M)( :+w ( {.d a.} N)g h e.D d+F G +.{%#.$.1.2.i+)+G)`$O)J._#B+X@$@:#4^w w w w w w w N N v% #5^Z@7%y@R)h$+#$%%%3#q#I)&%K#0%_%O$6$S)<%T)a%m%,%1%:&p%U)o*V)N W)L&X). . . .       q%q%        q%    q%        q%q%        q%q%q%      q%q%          q%        q%q%          q%              q%q%                        ",
"    . . . . : p S w {.d [ } f g d.e.D d+T@Y)+.B.#.$.1.2.(@)+N+`$W@J._#B+B#Z):#<#6^7^8^9^9^0^a^Q%w w N w w b^y@.!8%n#$%%%3#q#H%2$k&0%_%O$6$:%<%9&a%m%,%1%d%p%<&y%O%+!w +-C*@!. . . .       q%q%      q%q%    q%q%      q%q%        q%q%          q%q%                    q%q%        q%              q%q%                        ",
"    . . . . : p r%w y.a.} b.c.d.e.D E f.G +.B.#.$.U.V.(@)+N+H.I.J._# +B#$@:#Q+D@h#*@P#[@6%c^j#C#d^v-w N w N e^8%n#$%S#3#q#H%2$k&0%&$k%6$:%<%G&a%m%,%K%d%p%x%y%O%x*%!w &!^**!. . . .       q%q%      q%q%    q%q%    q%q%          q%q%          q%q%                    q%q%        q%                                          ",
"    . . . . =!w.-!w a.} b.c.d.Q.D E f.R.+.S.#.$.U.V.(@)+n.H.I.J._# +B#^+5+Q+D@h#q+P#[@6%f^j#C#^%_$g^m)N N N w h^!#S#3#q#H%2$k&d*_%k%6$*&T%G&a%m%J%K%d%p%<&y%O%x*x&,!N '!q&)!. . . .         q%q%    q%      q%q%    q%q%          q%            q%q%          q%q%q%q%q%q%q%        q%                                          ",
"    . . . . #+x.!!w =+(#c.d.e.z.E f.R.A.S.#.@&U.V.(@)+~!H.I.k+_# +B#$@5+Q+D@p+q+P#[@6%i^j#C#I@_$Y@D#>#N N w N j^S#3#|$^!2$k&S%&$k%6$*&A$G&a%U%J%K%d%;&/!y%O%`%)&W&(!N _!q&:!. . . .         q%q%  q%q%        q%    q%q%          q%            q%q%        q%q%q%q%q%q%q%q%        q%                                          ",
"    . . . . <!y.[!w }!c.}+Q.z.E f.Z,A.S.>+T.U.V.,+'+~!H.I.k+_#l+B#m,5+|!7+p+q+P# '/$q-j#C#I@_$Y@D#4!+$k^w w w w %&|$H%2$k&S%&$k%=%*&T%G&-&U%J%K%V%;&<&Z%m&`%)&W&d&5!o&6!q&7!. . . .         q%q%  q%q%        q%    q%q%          q%            q%q%      q%q%          q%q%        q%                                          ",
"    . . . . 8!*+9!w 0!}+Q.z.E -+R.A.g+>+T.U.i+,+'+j+|+1+k+`.l+C+^+5+P+7+p+q+P#J+/$[#t$'@I@_$;#:$>#+$c!l^m^w w N n^r#J#i$S%&$&&=%8&T%S$-&U%J%*=V%;&0&Z%K&`%)&W&d&q&d!o&8-q&e!. . . .         q%q%  q%q%        q%q%q%q%            q%            q%q%      q%            q%q%        q%                                          ",
"    . . . . f!=+g!w h!Q.d+e+-+R.A.g+>+T.h+i+,+'+j+|+1+k+`.l+C+D+O+Q+7+p+<@K$J+/$[#t$'@Q#_$;#:$E#/%c!m#o^g)w w N p^J#i$S%&$&&=%8&[%G&-&U%_&:&V%;&0&Z%K&`%)&2&d&q&d&;*v%k!q&l!. . . .           q%q%q%q%        q%q%q%q%            q%            q%q%      q%            q%q%        q%                                          ",
"      . . . m!<+f'O n!d+e+-+w+A.g+y+T.h+i+,+N+z+|+1+k+B+l+C+D+O+P+7+p+<@K$J+/$q^t$'@I@4@;#:$E#/%h$m#$%r^_*w w w s^i$W#O$&&=%*&[%S$-&,%_&:&V%x%r!Z%K&`%L&2&d&q&d&d&y&9-`&d&b-. . . .           q%q%q%            q%q%q%            q%            q%q%      q%q%        q%q%q%        q%q%            q%q%                        ",
"      . . . s![+}+P t!e+-+w+f+g+.@1.h+i+,+N+u!|+1+A+B+l+C+D+O+P+7+p+<@K$}@d@V+t$'@Q#4@;#:$E#/%c!#$$%F#t^N w w N u^W#O$&&=%8&[%(&H&,%_&:&V%x%0&Z%K&w&L&2&d&q&d&d&N=w );d&z&w!. . .             q%q%q%            q%q%q%            q%            q%q%        q%q%q%q%q%  q%q%        q%q%q%q%q%      q%q%                        ",
"      . . . x!y!c+z!A!-+B!f+g+.@1.h+i++@N+j+|+1+A+B+#@$@D+O+P+&@*@<@K$}@d@G@t$^%Q#4@i@7%E#/%h$#$$%F#M$v^N w w w W#O$5$:%8&[%S$H&,%_&:&I&x%U&Z%x*w&L&p&^*q&d&d&d&F!w G!d&H!I!. . .                                                                             q%q%                                                              ",
"      . . . ,*J!E n'w w+f+#..@1.h+(@+@N+_@@@J.A+B+#@$@D+O+:@&@*@<@[@}@d@G@t@^%.-4@i@7%E#N@h$#$$%F#3#w^N w w N x^O$5$:%8&l%S$H&,%&*d%I&x%N!J&x*w&L&p&^*/*d&d&d&d&Z;w O;d&_>. . . .                                                                                                                                               ",
"      . . . . O! @_)w P!#..@1./@(@n@N+`$@@J.a@B+#@$@p@b@:@&@*@c@[@a=y^z^t@^%.-4@i@7%,#/%8%#$$%~#3#A^|&N w N N B^5$:%T!T&a%H&,%&*d%I&x%U!J&x***W&p&^*/*d&d&d&d&V!y&W!d&q&X!. . . .                                                                                                                                               ",
"        . . . Y!G w+Z!`!G$1./@(@+@C@_@@@k+a@B+#@$@p@b@:@&@*@c@[@r@U+C^N }^D^E^F^Z@,#N@8%#$G^G^H^I^w o&w N w J^5$:%n$l%a%H&J%&*d%5*<&!~J&x***W&p&^*q&d&d&d&d&d&~~v%E*d&q&{~. . .                                                                                                                                                 ",
"        . . . . +.B.]~@,^~/@(@+@C@/~@@J.a@B+#@$@(~<#:@E@q+c@[@F@U+G@K^w w N w v*L^M^I^N^O^P^H#w N N w N w Q^R^:%:~l%a%T$J%&*d%5*<&o*a&x***W&`&q&/*d&d&d&d&d&d&M;w <~q&[~. . . .                                                                                                                                                 ",
"        . . . . }~#.|~w 1~,+n@C@V@W@k+a@B+X@^+p@b@D@E@q+c@[@F@U+V+H@S^N N w w w w w w w w w w w w o&w w e;T^*&n$l%-&T$J%1%V%5*<&o*a&`%**2&`&q&d&d&d&d&d&d&d&d&w w 4~d&5~. . . .                                                                                                                                                 ",
"          . . . 6~7~U.8~9~n@C@V@W@k+a@%-X@^+:#<#7+E@q+*#J+F@U+V+H@I@U^V^N w w o&w w w w w w w N w w W^X^Y^*&<%9&a%T$J%1%V%5*<&o*a&`%**2&`&/*d&d&d&d&d&d&d&d&b~w L-d&$>c~. . . .                                                                                                                                                 ",
"          . . . d~e~2.2'w f~V@W@k+a@l+X@^+g#<#7+E@<@*#J+6%U+=#H@I@}#;#Z@Z^`^ /./P) #+/@/g-A-#/$/%/&/&&P$*&<%9&-&T$J%1%V%5*0&Z%a&`%x&2&`&q&d&d&d&d&d&d&d&d&4~u~c&v~q&w~. . . .                                                                                                                                                   ",
"          . . . . x~,+3'y~z~W@k+_#l+X@D+:#<#7+h#<@*#J+6%[#=#C#I@}#;#Z@E#y@|#m#/'*/=/2#=/-/;/>/,/_%&&P$8&<%9&-&m%_&1%V%p%0&o*a&w&x&2&`&q&d&d&d&d&d&d&d&d&d&~;w B~d&q&C~. . . .                                                                                                                                                   ",
"            . . . . D~u!E~w F~_#l+B#D+:#<#7+h#<@P#J+i#[#j#C#Q#}#;#D#E#y@l#m#n#F#%%T#q#r#2$k&W#_%&&6$8&<%9&-&m%_&1%V%p%0&y%m&w&x&2&C*q&d&d&d&d&d&d&d&d&d&d&}&w q*d&G~. . . .                                                                                                                                                     ",
"            . . . . H~H.I.I~J~l+B#D+:#Q+O#h#<@*#}@i#[#j#C#Q#}#;#D#E#y@|##$n#F#S#T#q#r#2$k&W#_%5$6$8&<%G&H&m%_&K%I&p%0&y%m&w&x&2&C*q&d&d&d&d&d&d&d&d&d&d&K~w L~d&q&M~. . . .                                                                                                                                                     ",
"              . . . N~1+A+O~w P~D+5+Q+^$p+<@P#}@/$[#($C#Q#_$;#D#E#+$@$#$}$F#S#T#q#r#2$k&Q~&$5$6$8&A$9&H&m%_&*=I&;&0&R~m&w&)&p&C*q&d&d&d&d&d&d&d&d&d&d&,=S~!;T~q&U~R=. . . .                                                                                                                                                     ",
"              . . . . V~_#X@W~g)r,Q+&@p+c@P#}@i#G@t$C#Q#_$i@D#E#+$@$#$n#~#S#T#|$1$X~k&W#&$5$6$n$A$G&H&U%&**=I&p%U&Y~m&**)&p&C*/*d&d&d&d&d&d&d&d&d&d&d&Z~w +>d&d&`~. . . .                                                                                                                                                       ",
"                . . . .  {C+p@.{+{O#p+c@P#}@/$G@t$'@J@_$i@:$,#+$@$#$}$~#S#T#|$1$v$i$W#&$5$=%n$A$G&H&U%&**=I&;&U&Y~K&w&)&p&d&q&d&d&d&d&d&d&d&d&d&d&d&@{w B~d&q&#{. . . .                                                                                                                                                         ",
"                . . . . ++p@O+${Z %{c@K$F@/$G@t$'@J@_$i@:$,#+$@$+#}$~#S#u$|$1$v$i$w$&$P$=%n$[%G&T$U%&*:&5*;&U&Z%K&**)&`&d&d&d&d&d&d&d&d&d&d&d&d&d&&{w *{k!q&d&={. . . .                                                                                                                                                         ",
"                  . . . . -{P+|-5%w ;{F@/$V+t$'@J@4@Z@:$,#/%h$+#}$~#S#u$|$&%v$i$w$O$P$=%n$[%S$T$U%&*:&5*;&U&>{K&**)&`&d&q&d&d&d&d&d&d&d&d&d&d&d&,{,-w '{d&d&){. . . .                                                                                                                                                           ",
"                    . . . };!{p+~{{{w ]{G@H@'@J@4@Z@:$,##%h$+#}$~#M$u$|$&%*%i$w$O$P$=%n$[)S$T$U%1%:&5*x%U&>{K&**L&`&d&d&d&d&d&d&d&d&d&d&d&d&d&^{/{w e*d&q&({. . . . .                                                                                                                                                           ",
"                    . . . . . _{K$F@:{w <{'@-#4@Z@:$,#/%h$[{$%%%S#u$$$&%J#(%_%O$P$=%<%[%S$T$,%1%:&5*x%o*}{x*x&L&`&d&q&d&d&d&d&d&d&d&d&d&d&d&^{|{w 1{d&q&2{. . . . .                                                                                                                                                             ",
"                      . . . . 3{4{5{V+6{w 7{4@Z@7%y@#%h$+#$%%%3#q#$$&%N$0%_%O$P$:%<%[%S$T$,%1%:&5*x%o*8{x*x&L&`&d&q&d&d&d&d&d&d&d&d&d&d&d&#>9{w 0{d&q&a{5>. . . .                                                                                                                                                               ",
"                        . . . . b{s@,@^%c{w d{7%y@#%8%n#$%%%3#q#$$&%N$0%_%k%6$:%<%l%a%m%,%K%d%p%x%o*8{x*x&L&C*^*q&d&d&d&d&d&d&d&d&d&d&d&e{N&w f{d&d&g{4>. . . .                                                                                                                                                                 ",
"                          . . . . h{^%-#Y@i{w j{N@8%V-!#%%3#q#H%&%K#0%_%k%6$:%<%l%a%k{J%1%d%p%<&o*l{x*x&W&C*^*/*d&d&d&d&d&d&d&d&d&d&d&3-y&w m{d&q&n{<=. . . . .                                                                                                                                                                 ",
"                          . . . . . o{p{D#x@q{r{D!s{!#S#3#|$H%2$N$0%&$k%6$:%<%l%a%m%J%K%d%p%<&y%l{x*x&W&C*^*d&d&d&d&d&d&d&d&d&d&d&d&t{w y&F=d&q&[>u{. . . . .                                                                                                                                                                   ",
"                            . . . . . v{w{+$N@x{{*9')#3#|$H%2$K#S%y{k%6$*&T%l%-&m%J%K%d%p%<&y%a&`%)&W&C*^*/*d&d&d&d&d&d&d&d&d&d&';z{w A{'-d&q&B{C{. . . . .                                                                                                                                                                     ",
"                              . . . . . . D{8%n#E{F{w v*G{r#K#S%&$k%6$*&T%9&a%U%J%K%d%;&<&y%a&`%)&W&C*q&d&d&d&d&d&d&d&d&d&d&H{l;w _*I{d&q&d&J{. . . . . .                                                                                                                                                                       ",
"                                . . . . . };K{!#S#%&L{M{w @)N{&$&&=%*&T%l%-&U%J%*=V%;&<&y%O{`%)&2&d&q&d&d&d&d&d&d&d&d&d&e{P{!;w _;Q{d&q&d&R{. . . . . .                                                                                                                                                                         ",
"                                    . . . . . S{T{|$r#J#U{V{w W{X{-%[%(&-&U%J%:&V%;&0&Z%'&`%)&2&d&q&d&d&d&d&d&d&d&-=w-Y{w w ;*Z{d&q&q&`{ ]. . . . . .                                                                                                                                                                           ",
"                                      . . . . . . .]2$i$W#D=+]e;w g)@]#]U%_&:&V%x%0&Z%a&`%L&2&d&q&d&d&d&d&d&d&8-$]*{o&w %]&]p&d&q&z&b-. . . . . .                                                                                                                                                                               ",
"                                        . . . . . . p;*]=]5$=%8&-];]>]w w ,]'])]!]q;~]{]x&2&d&g{]]&]5=^]/]:=M-w w Z~(]&]d&q&q&U~_]:]. . . . . .                                                                                                                                                                                 ",
"                                            . . . . . . . <][][%G&H&,%}]|]1]v%o&w w w w w w w w w w w N v%o&Z-2]P=d&q&q&d&4-3]. . . . . . . .                                                                                                                                                                                   ",
"                                              . . . . . . . :]4]5]m%&*d%I&x%6]7]8]9]0]a]b]:;.>c]/]^-d]e]f]`&d&d&q&q&d&({g]7>. . . . . . .                                                                                                                                                                                       ",
"                                                  . . . . . . . . + '%h]H{i]J&j]w&W&p&^*/*d&d&d&q&q&q&q&q&d&4-<>k]l]. . . . . . . . .                                                                                                                                                                                           ",
"                                                      . . . . . . . . . m]c)n]o]p]q]r]d&q&d&d&q&`&s]q]t]u]F*v]w]. . . . . . . . . .                                                                                                                                                                                             ",
"                                                          . . . . . . . . . . . . . . . . . . . . . . . . . . . . . . . . . .                                                                                                                                                                                                   ",
"                                                              . . . . . . . . . . . . . . . . . . . . . . . . . . . . . .                                                                                                                                                                                                       ",
"                                                                      . . . . . . . . . . . . . . . . . . . . . .                                                                                                                                                                                                               ",
"                                                                              . . . . . . . . . . . . . .                                                                                                                                                                                                                       ",
"                                                                                                                                                                                                                                                                                                                                ",
"                                                                                                                                                                                                                                                                                                                                ",
"                                                                                                                                                                                                                                                                                                                                ",
"                                                                                                                                                                                                                                                                                                                                ",
"                                                                                                                                                                                                                                                                                                                                ",
"                                                                                                                                                                                                                                                                                                                                ",
"                                                                                                                                                                                                                                                                                                                                ",
"                                                                                                                                                                                                                                                                                                                                ",
"                                                                                                                                                                                                                                                                                                                                ",
"                                                                                                                                                                                                                                                                                                                                ",
"                                                                                                                                                                                                                                                                                                                                ",
"                                                                                                                                                                                                                                                                                                                                ",
"                                                                                                                                                                                                                                                                                                                                ",
"                                                                                                                                                                                                                                                                                                                                ",
"                                                                                                                                                                                                                                                                                                                                ",
"                                                                                                                                                                                                                                                                                                                                ",
"                                                                                                                                                                                                                                                                                                                                ",
"                                                                                                                                                                                                                                                                                                                                ",
"                                                                                                                                                                                                                                                                                                                                ",
"                                                                                                                                                                                                                                                                                                                                "};
