/* XPM */
static const char * SidePicture3_xpm[] = {
"160 400 3069 2",
"  	c None",
". 	c #9A9494",
"+ 	c #999494",
"@ 	c #989495",
"# 	c #999496",
"$ 	c #999495",
"% 	c #94979F",
"& 	c #8E9EB0",
"* 	c #89A4C0",
"= 	c #86A9CC",
"- 	c #84ACD3",
"; 	c #84ACD4",
"> 	c #84ADD5",
", 	c #85AACF",
"' 	c #88A5C3",
") 	c #8D9FB5",
"! 	c #9298A3",
"~ 	c #979598",
"{ 	c #939AA4",
"] 	c #8DA0B6",
"^ 	c #85A9CD",
"/ 	c #81B0DF",
"( 	c #82B2E0",
"_ 	c #81B0DE",
": 	c #81B1DF",
"< 	c #7FAFDD",
"[ 	c #7DADDC",
"} 	c #7BABD9",
"| 	c #7DA5CD",
"1 	c #859EB8",
"2 	c #8F98A6",
"3 	c #95959A",
"4 	c #9398A1",
"5 	c #86A8CA",
"6 	c #81AFDC",
"7 	c #8FBAE3",
"8 	c #9DC2E6",
"9 	c #A5C7E8",
"0 	c #AACBEA",
"a 	c #A6C8E9",
"b 	c #9EC3E7",
"c 	c #93BCE4",
"d 	c #7EAEDD",
"e 	c #7BABDA",
"f 	c #7AAAD8",
"g 	c #78A7D6",
"h 	c #76A5D4",
"i 	c #75A3D2",
"j 	c #74A1CF",
"k 	c #769EC6",
"l 	c #8B96A6",
"m 	c #979497",
"n 	c #8EA0B4",
"o 	c #84ABD1",
"p 	c #82B1DF",
"q 	c #86B5E1",
"r 	c #A1C5E7",
"s 	c #B9D4ED",
"t 	c #D1E2F3",
"u 	c #E6F0F9",
"v 	c #F8FBFD",
"w 	c #FFFFFF",
"x 	c #FBFDFE",
"y 	c #E9F1F8",
"z 	c #D3E3F1",
"A 	c #B9D1E9",
"B 	c #9EBFE0",
"C 	c #80ABD6",
"D 	c #72A2D1",
"E 	c #71A0CF",
"F 	c #6F9FCE",
"G 	c #6E9DCC",
"H 	c #6E9AC6",
"I 	c #7F96B0",
"J 	c #91949C",
"K 	c #8CA0B5",
"L 	c #9FC4E7",
"M 	c #DFEBF7",
"N 	c #FEFEFE",
"O 	c #FDFEFE",
"P 	c #FDFDFE",
"Q 	c #FAFBFD",
"R 	c #E5EEF8",
"S 	c #C5DBF0",
"T 	c #BED7EF",
"U 	c #BDD6EE",
"V 	c #BFD7EF",
"W 	c #C7DCF1",
"X 	c #D5E4F3",
"Y 	c #EAF1F9",
"Z 	c #FCFDFE",
"` 	c #E7EFF7",
" .	c #9FBEDE",
"..	c #709ECC",
"+.	c #6C9BCA",
"@.	c #6A98C7",
"#.	c #6897C7",
"$.	c #6695C5",
"%.	c #7593B4",
"&.	c #979395",
"*.	c #8E9FB3",
"=.	c #83ADD7",
"-.	c #9AC0E5",
";.	c #D0E2F3",
">.	c #F2F7FB",
",.	c #E8F1F9",
"'.	c #C4DAF0",
").	c #A9CAE9",
"!.	c #97BFE5",
"~.	c #88B5E1",
"{.	c #80B0DF",
"].	c #7DADDA",
"^.	c #7AA9D8",
"/.	c #83AED9",
"(.	c #92B7DC",
"_.	c #A6C4E2",
":.	c #C7DAEC",
"<.	c #F1F6FA",
"[.	c #F7F9FC",
"}.	c #D0DFED",
"|.	c #94B5D7",
"1.	c #6594C4",
"2.	c #6392C2",
"3.	c #6390BF",
"4.	c #7790AD",
"5.	c #96979C",
"6.	c #83ACD3",
"7.	c #91BBE3",
"8.	c #E1ECF7",
"9.	c #8AB7E2",
"0.	c #82B2DF",
"a.	c #7DADDB",
"b.	c #79A9D8",
"c.	c #77A7D6",
"d.	c #75A5D4",
"e.	c #74A4D3",
"f.	c #6F9ECD",
"g.	c #88AED5",
"h.	c #D0DFEE",
"i.	c #F5F8FB",
"j.	c #E9F0F6",
"k.	c #84A8CE",
"l.	c #6391C0",
"m.	c #608EBD",
"n.	c #5E8CBD",
"o.	c #5D8AB9",
"p.	c #8B919C",
"q.	c #8BA2BA",
"r.	c #81B0DC",
"s.	c #8EB9E3",
"t.	c #D5E5F4",
"u.	c #9BC1E6",
"v.	c #85B4E0",
"w.	c #81B1E0",
"x.	c #80B0DE",
"y.	c #7EAEDC",
"z.	c #72A1D0",
"A.	c #6B9ACA",
"B.	c #6A99C8",
"C.	c #729ECA",
"D.	c #92B3D5",
"E.	c #E5ECF4",
"F.	c #E4ECF4",
"G.	c #85A8CD",
"H.	c #5C8ABB",
"I.	c #5A88B9",
"J.	c #5987B8",
"K.	c #6A89AB",
"L.	c #989598",
"M.	c #87A7C8",
"N.	c #B8D3ED",
"O.	c #92BCE4",
"P.	c #78A8D8",
"Q.	c #74A3D2",
"R.	c #6D9CCC",
"S.	c #6998C8",
"T.	c #6694C4",
"U.	c #6593C3",
"V.	c #6391C1",
"W.	c #93B2D3",
"X.	c #E6EDF5",
"Y.	c #B9CDE1",
"Z.	c #648FBB",
"`.	c #5785B5",
" +	c #5583B5",
".+	c #5782B1",
"++	c #8D9099",
"@+	c #979599",
"#+	c #83AED8",
"$+	c #EFF5FB",
"%+	c #F0F5FB",
"&+	c #95BEE4",
"*+	c #7CACDB",
"=+	c #7AAAD9",
"-+	c #6E9DCD",
";+	c #6998C9",
">+	c #6897C6",
",+	c #6190C0",
"'+	c #5F8EBE",
")+	c #608EBE",
"!+	c #8EAECF",
"~+	c #F4F7FA",
"{+	c #7FA1C7",
"]+	c #5381B1",
"^+	c #5280B1",
"/+	c #507EAE",
"(+	c #7C8B9E",
"_+	c #AFCEEB",
":+	c #C0D8EF",
"<+	c #79A8D7",
"[+	c #77A6D5",
"}+	c #75A4D3",
"|+	c #5C8ABA",
"1+	c #5A88B8",
"2+	c #608CBA",
"3+	c #C7D6E6",
"4+	c #ACC2D9",
"5+	c #507EAF",
"6+	c #4E7CAC",
"7+	c #4C7AAC",
"8+	c #77889E",
"9+	c #9299A4",
"0+	c #CDE0F2",
"a+	c #F5F8FC",
"b+	c #7FAFDE",
"c+	c #73A3D2",
"d+	c #71A1D0",
"e+	c #70A0CF",
"f+	c #6B9AC9",
"g+	c #6998C7",
"h+	c #6493C3",
"i+	c #6291C1",
"j+	c #5E8CBC",
"k+	c #5987B7",
"l+	c #5583B4",
"m+	c #87A7C9",
"n+	c #E0E8F1",
"o+	c #507DAD",
"p+	c #4A78AA",
"q+	c #4977A9",
"r+	c #6B829F",
"s+	c #929AA5",
"t+	c #D9E7F5",
"u+	c #D4E5F4",
"v+	c #79A8D6",
"w+	c #6D9CCB",
"x+	c #6999C7",
"y+	c #6896C6",
"z+	c #5E8BBC",
"A+	c #5886B7",
"B+	c #5684B5",
"C+	c #5381B2",
"D+	c #517FB1",
"E+	c #6B92BC",
"F+	c #E5EBF3",
"G+	c #DEE6EF",
"H+	c #5781AF",
"I+	c #4774A5",
"J+	c #4673A5",
"K+	c #6D829C",
"L+	c #94979E",
"M+	c #7CACDA",
"N+	c #5F8DBD",
"O+	c #4F7DAF",
"P+	c #4D7BAD",
"Q+	c #4E7CAD",
"R+	c #E5EBF2",
"S+	c #F0F4F8",
"T+	c #547DAC",
"U+	c #4370A2",
"V+	c #416EA1",
"W+	c #71839A",
"X+	c #82AED9",
"Y+	c #DEEBF6",
"Z+	c #BCD5EE",
"`+	c #76A6D5",
" @	c #709FCE",
".@	c #6796C6",
"+@	c #618FBF",
"@@	c #5B89BA",
"#@	c #5482B4",
"$@	c #5280B2",
"%@	c #4D7CAD",
"&@	c #4C79AB",
"*@	c #4A77A9",
"=@	c #4B78A9",
"-@	c #CEDAE7",
";@	c #E9EEF4",
">@	c #4F79A8",
",@	c #406D9E",
"'@	c #3E6B9E",
")@	c #7E8897",
"!@	c #82ABD3",
"~@	c #DAE8F5",
"{@	c #C2D9EF",
"]@	c #78A8D7",
"^@	c #6A99C9",
"/@	c #6492C2",
"(@	c #6290C0",
"_@	c #5D8BBC",
":@	c #4D7BAC",
"<@	c #4976A8",
"[@	c #4674A6",
"}@	c #4573A5",
"|@	c #D4DFEA",
"1@	c #DEE6EE",
"2@	c #436F9F",
"3@	c #3D6A9B",
"4@	c #3B679A",
"5@	c #8B8D95",
"6@	c #89A5C1",
"7@	c #BBD5EE",
"8@	c #C9DEF1",
"9@	c #73A2D1",
"0@	c #6C9BCB",
"a@	c #5886B6",
"b@	c #4F7DAE",
"c@	c #4876A8",
"d@	c #4370A3",
"e@	c #4773A3",
"f@	c #E3E9F1",
"g@	c #CFDAE6",
"h@	c #3A6799",
"i@	c #396699",
"j@	c #456B97",
"k@	c #9399A4",
"l@	c #DBE9F6",
"m@	c #6897C8",
"n@	c #608FBF",
"o@	c #5C8ABC",
"p@	c #517FB0",
"q@	c #4E7BAC",
"r@	c #4572A5",
"s@	c #426FA0",
"t@	c #406D9F",
"u@	c #446FA0",
"v@	c #EEF2F6",
"w@	c #9AB1CB",
"x@	c #376496",
"y@	c #356295",
"z@	c #5A7494",
"A@	c #F4F8FC",
"B@	c #6795C5",
"C@	c #5E8DBD",
"D@	c #4D7AAC",
"E@	c #4B79AB",
"F@	c #4572A4",
"G@	c #426FA1",
"H@	c #3F6C9F",
"I@	c #3D6A9D",
"J@	c #3C699C",
"K@	c #5F84AD",
"L@	c #FBFCFD",
"M@	c #5177A3",
"N@	c #346093",
"O@	c #345F92",
"P@	c #868A94",
"Q@	c #8AA3BE",
"R@	c #DAE8F6",
"S@	c #98BFE5",
"T@	c #6F9ECE",
"U@	c #6898C6",
"V@	c #5D8ABB",
"W@	c #5B89B9",
"X@	c #5482B3",
"Y@	c #3A679A",
"Z@	c #396598",
"`@	c #91A9C5",
" #	c #F1F4F7",
".#	c #3A6495",
"+#	c #305C90",
"@#	c #3E638F",
"##	c #969599",
"$#	c #B1CEEB",
"%#	c #B3D0EC",
"&#	c #78A7D5",
"*#	c #4875A7",
"=#	c #406DA1",
"-#	c #3C699B",
";#	c #3A6699",
">#	c #376396",
",#	c #366295",
"'#	c #C6D2E0",
")#	c #96ACC6",
"!#	c #2E5A8E",
"~#	c #2D598D",
"{#	c #627690",
"]#	c #85ABD2",
"^#	c #F0F6FB",
"/#	c #84B3E0",
"(#	c #79A9D7",
"_#	c #5785B6",
":#	c #507EB0",
"<#	c #4E7CAE",
"[#	c #426FA2",
"}#	c #3C689B",
"|#	c #335F93",
"1#	c #4F75A2",
"2#	c #406896",
"3#	c #2B578B",
"4#	c #31598A",
"5#	c #969193",
"6#	c #81B0DD",
"7#	c #77A7D5",
"8#	c #75A1CF",
"9#	c #7CA5CF",
"0#	c #8CB0D4",
"a#	c #B5CCE2",
"b#	c #E0E9F3",
"c#	c #F7F9FB",
"d#	c #F6F9FB",
"e#	c #9BB8D5",
"f#	c #5C8BBA",
"g#	c #4F7DB0",
"h#	c #4B78AA",
"i#	c #4471A4",
"j#	c #416EA0",
"k#	c #346295",
"l#	c #336093",
"m#	c #315D91",
"n#	c #305C8F",
"o#	c #9BB0C8",
"p#	c #D3DCE7",
"q#	c #295589",
"r#	c #275387",
"s#	c #69798F",
"t#	c #88A6C6",
"u#	c #8CB8E2",
"v#	c #D2E3F4",
"w#	c #A4C3E0",
"x#	c #CBDCED",
"y#	c #E4EDF5",
"z#	c #F0F4F9",
"A#	c #9EB9D6",
"B#	c #5381B3",
"C#	c #3F6C9E",
"D#	c #386598",
"E#	c #366396",
"F#	c #2E5A8D",
"G#	c #2E598D",
"H#	c #E6EBF1",
"I#	c #4A6F9A",
"J#	c #255185",
"K#	c #245084",
"L#	c #979394",
"M#	c #9AC1E6",
"N#	c #9CB8D5",
"O#	c #4C7AAB",
"P#	c #4775A7",
"Q#	c #3D6A9C",
"R#	c #356195",
"S#	c #2C588C",
"T#	c #2A568A",
"U#	c #93A9C3",
"V#	c #B3C2D5",
"W#	c #214D82",
"X#	c #62748C",
"Y#	c #88A6C5",
"Z#	c #F1F6FB",
"`#	c #E7F0F9",
" $	c #77A6D6",
".$	c #9BB6D4",
"+$	c #356194",
"@$	c #335F92",
"#$	c #315D90",
"$$	c #285488",
"%$	c #375F8E",
"&$	c #204B80",
"*$	c #385983",
"=$	c #999393",
"-$	c #989597",
";$	c #A2C6E8",
">$	c #97BEE5",
",$	c #76A7D6",
"'$	c #ECF1F7",
")$	c #D9E4F0",
"!$	c #C2D3E6",
"~$	c #9BB8D6",
"{$	c #F3F6FA",
"]$	c #9AB6D2",
"^$	c #4D7AAB",
"/$	c #4471A3",
"($	c #416E9F",
"_$	c #3B689B",
":$	c #386497",
"<$	c #356193",
"[$	c #325E90",
"}$	c #2F5B8F",
"|$	c #285489",
"1$	c #265287",
"2$	c #255186",
"3$	c #91A7C1",
"4$	c #A8B9CD",
"5$	c #1E497E",
"6$	c #1D487D",
"7$	c #8F8E92",
"8$	c #9598A0",
"9$	c #EBF2FA",
"0$	c #E9F1F9",
"a$	c #C0D3E7",
"b$	c #90B1D4",
"c$	c #6B97C4",
"d$	c #6693C2",
"e$	c #628FBF",
"f$	c #EFF3F7",
"g$	c #99B4D2",
"h$	c #325E92",
"i$	c #234F83",
"j$	c #345B8B",
"k$	c #F8FAFB",
"l$	c #E1E7EE",
"m$	c #244F82",
"n$	c #1A467B",
"o$	c #526886",
"p$	c #8AA3BD",
"q$	c #90BAE3",
"r$	c #98B3D1",
"s$	c #4E7BAD",
"t$	c #406DA0",
"u$	c #29558A",
"v$	c #255085",
"w$	c #214C81",
"x$	c #234D81",
"y$	c #D7DEE8",
"z$	c #385E8C",
"A$	c #19447A",
"B$	c #1B4478",
"C$	c #80AFDB",
"D$	c #A6C8E8",
"E$	c #9BC2E6",
"F$	c #77A5D4",
"G$	c #6796C5",
"H$	c #5B8AB9",
"I$	c #EFF4F8",
"J$	c #97B2CF",
"K$	c #4774A6",
"L$	c #3B689A",
"M$	c #2C588B",
"N$	c #245085",
"O$	c #1F4B80",
"P$	c #1D497E",
"Q$	c #90A6BF",
"R$	c #90A5BE",
"S$	c #174277",
"T$	c #154075",
"U$	c #80848E",
"V$	c #95979E",
"W$	c #CCDFF2",
"X$	c #78A8D6",
"Y$	c #77A6D4",
"Z$	c #5F8DBE",
"`$	c #5D8BBB",
" %	c #EFF3F8",
".%	c #96B1CF",
"+%	c #4B7AAC",
"@%	c #3F6CA0",
"#%	c #346094",
"$%	c #2F5B8E",
"%%	c #2D598C",
"&%	c #265286",
"*%	c #245184",
"=%	c #1C487D",
"-%	c #335A89",
";%	c #F1F3F7",
">%	c #164175",
",%	c #133E74",
"'%	c #627187",
")%	c #8E9FB4",
"!%	c #CEE1F3",
"~%	c #77A5D5",
"{%	c #6B9AC8",
"]%	c #94B0CE",
"^%	c #3E6B9D",
"/%	c #346194",
"(%	c #234E83",
"_%	c #204C81",
":%	c #1C477C",
"<%	c #1A457A",
"[%	c #194479",
"}%	c #EDF0F4",
"|%	c #2C5383",
"1%	c #113C72",
"2%	c #445D7F",
"3%	c #87B5E1",
"4%	c #A0C4E7",
"5%	c #93AFCC",
"6%	c #4472A4",
"7%	c #376497",
"8%	c #325E91",
"9%	c #2B578C",
"0%	c #224E83",
"a%	c #164177",
"b%	c #A3B4C8",
"c%	c #6580A3",
"d%	c #103A70",
"e%	c #284976",
"f%	c #86AACE",
"g%	c #A8C9E9",
"h%	c #76A5D5",
"i%	c #93ADCB",
"j%	c #406C9F",
"k%	c #1F4A7F",
"l%	c #184379",
"m%	c #143F75",
"n%	c #627FA2",
"o%	c #96A8C0",
"p%	c #0E386E",
"q%	c #000000",
"r%	c #C6DBF0",
"s%	c #75A5D5",
"t%	c #91ACCA",
"u%	c #3E618D",
"v%	c #FCFCFD",
"w%	c #B5C2D2",
"x%	c #0D376D",
"y%	c #0A356B",
"z%	c #8F8D92",
"A%	c #989596",
"B%	c #82AFDA",
"C%	c #83B3E0",
"D%	c #6696C5",
"E%	c #4F7DAD",
"F%	c #EEF3F7",
"G%	c #90ACC9",
"H%	c #275388",
"I%	c #174279",
"J%	c #133E73",
"K%	c #113C71",
"L%	c #2E5382",
"M%	c #F5F7F9",
"N%	c #CBD4E0",
"O%	c #083369",
"P%	c #737A89",
"Q%	c #EDF1F6",
"R%	c #8FAAC8",
"S%	c #224D82",
"T%	c #19457A",
"U%	c #143F74",
"V%	c #0F3A70",
"W%	c #1F4779",
"X%	c #EFF2F5",
"Y%	c #DDE3EA",
"Z%	c #0A346A",
"`%	c #073167",
" &	c #5A6981",
".&	c #EEF4FA",
"+&	c #D9E8F5",
"@&	c #6695C4",
"#&	c #EEF2F7",
"$&	c #8EA9C7",
"%&	c #2A568B",
"&&	c #1E4A7F",
"*&	c #1B477C",
"=&	c #184278",
"-&	c #164176",
";&	c #0D386E",
">&	c #163F73",
",&	c #EBEFF3",
"'&	c #093368",
")&	c #052F65",
"!&	c #475C7A",
"~&	c #94969D",
"{&	c #86B4E1",
"]&	c #76A4D3",
"^&	c #5B89B8",
"/&	c #8DA8C6",
"(&	c #184377",
"_&	c #123D73",
":&	c #103B71",
"<&	c #0C376D",
"[&	c #0D376C",
"}&	c #E7EBF0",
"|&	c #F4F6F8",
"1&	c #073166",
"2&	c #032D64",
"3&	c #3C5477",
"4&	c #9498A0",
"5&	c #6795C4",
"6&	c #4A79AB",
"7&	c #8BA6C5",
"8&	c #1B467B",
"9&	c #184378",
"0&	c #0C366C",
"a&	c #093369",
"b&	c #E6EAF0",
"c&	c #FBFBFC",
"d&	c #012B62",
"e&	c #314C72",
"f&	c #9598A1",
"g&	c #F3F7FB",
"h&	c #CBDEF1",
"i&	c #79A9D6",
"j&	c #8BA6C3",
"k&	c #234F84",
"l&	c #214E82",
"m&	c #083269",
"n&	c #E6EAEF",
"o&	c #FDFDFD",
"p&	c #032D63",
"q&	c #002A61",
"r&	c #304B71",
"s&	c #93969E",
"t&	c #6595C4",
"u&	c #EDF2F6",
"v&	c #8AA4C2",
"w&	c #063067",
"x&	c #052F66",
"y&	c #F6F7F9",
"z&	c #032C62",
"A&	c #375176",
"B&	c #82B0DE",
"C&	c #D2E3F2",
"D&	c #5987B9",
"E&	c #88A3C2",
"F&	c #224E84",
"G&	c #174278",
"H&	c #154076",
"I&	c #0F396F",
"J&	c #09346A",
"K&	c #083268",
"L&	c #042E65",
"M&	c #083166",
"N&	c #E9ECF1",
"O&	c #EEF0F4",
"P&	c #425978",
"Q&	c #EBF2F9",
"R&	c #D9E7F3",
"S&	c #87A2C1",
"T&	c #184479",
"U&	c #0B366C",
"V&	c #073269",
"W&	c #042E64",
"X&	c #0F376A",
"Y&	c #EDEFF3",
"Z&	c #E1E6EC",
"`&	c #022C63",
" *	c #53647D",
".*	c #7EABD7",
"+*	c #E2EDF6",
"@*	c #E0EBF6",
"#*	c #87A1BF",
"$*	c #255187",
"%*	c #174178",
"&*	c #123D72",
"**	c #063066",
"=*	c #1A3F72",
"-*	c #F2F4F6",
";*	c #CFD7E1",
">*	c #6B7485",
",*	c #989496",
"'*	c #7DA7D1",
")*	c #CADDEF",
"!*	c #ECF2F9",
"~*	c #78A6D4",
"{*	c #ECF0F4",
"]*	c #85A0BE",
"^*	c #012B61",
"/*	c #002A62",
"(*	c #284C7A",
"_*	c #F8F9FA",
":*	c #B9C4D3",
"<*	c #87888F",
"[*	c #7FA4CA",
"}*	c #ABC8E5",
"|*	c #78A5D2",
"1*	c #6594C3",
"2*	c #EDF1F5",
"3*	c #859FBE",
"4*	c #123C72",
"5*	c #0E396F",
"6*	c #083168",
"7*	c #3A5B85",
"8*	c #9DADC2",
"9*	c #81A1C2",
"0*	c #85AED7",
"a*	c #7DA8D3",
"b*	c #3D6A9E",
"c*	c #839DBC",
"d*	c #224E82",
"e*	c #7289A8",
"f*	c #6C84A4",
"g*	c #163A69",
"h*	c #879BB3",
"i*	c #A9C5E1",
"j*	c #5A88B7",
"k*	c #ECF0F5",
"l*	c #829CBB",
"m*	c #234E82",
"n*	c #143F73",
"o*	c #0B356B",
"p*	c #BCC7D5",
"q*	c #315380",
"r*	c #344E73",
"s*	c #9096A1",
"t*	c #D4E2F0",
"u*	c #E1EAF4",
"v*	c #EBEFF4",
"w*	c #819CBA",
"x*	c #073168",
"y*	c #54647D",
"z*	c #A2C0DE",
"A*	c #719DCA",
"B*	c #7F9AB9",
"C*	c #022C62",
"D*	c #4A688F",
"E*	c #A8B6C9",
"F*	c #747A88",
"G*	c #7C99B9",
"H*	c #84ABD2",
"I*	c #9BBADA",
"J*	c #5886B8",
"K*	c #416D9E",
"L*	c #5C81AB",
"M*	c #597EA9",
"N*	c #577DA8",
"O*	c #567BA6",
"P*	c #557BA5",
"Q*	c #5379A4",
"R*	c #4D729F",
"S*	c #EFF2F6",
"T*	c #94AAC4",
"U*	c #486D99",
"V*	c #476B97",
"W*	c #446996",
"X*	c #436895",
"Y*	c #426693",
"Z*	c #395E8D",
"`*	c #123D74",
" =	c #AEBBCD",
".=	c #979293",
"+=	c #8E95A0",
"@=	c #F4F8FB",
"#=	c #C9DAEA",
"$=	c #3E6B9C",
"%=	c #587EA9",
"&=	c #D1DAE4",
"*=	c #113B71",
"==	c #063068",
"-=	c #0B3468",
";=	c #E2E6ED",
">=	c #EAEDF2",
",=	c #0F376B",
"'=	c #324E73",
")=	c #969498",
"!=	c #6C97C4",
"~=	c #6795C6",
"{=	c #AEC6E0",
"]=	c #557BA7",
"^=	c #CAD4E0",
"/=	c #123E73",
"(=	c #073068",
"_=	c #345682",
":=	c #BBC6D5",
"<=	c #82848D",
"[=	c #7395BA",
"}=	c #A7C0DB",
"|=	c #5D8CBC",
"1=	c #547BA6",
"2=	c #CCD5E1",
"3=	c #073067",
"4=	c #C5CEDB",
"5=	c #42618A",
"6=	c #173A69",
"7=	c #8E949D",
"8=	c #BFD1E5",
"9=	c #F8FAFC",
"0=	c #628FBE",
"a=	c #4573A4",
"b=	c #466E9D",
"c=	c #AEC0D4",
"d=	c #A8BBD0",
"e=	c #A8BAD0",
"f=	c #A6B9CF",
"g=	c #A6B8CE",
"h=	c #A5B8CE",
"i=	c #A4B7CD",
"j=	c #A3B6CD",
"k=	c #A3B5CC",
"l=	c #A2B5CB",
"m=	c #A1B4CA",
"n=	c #A1B3CA",
"o=	c #A0B2C9",
"p=	c #9FB1C8",
"q=	c #9FB1C7",
"r=	c #9EB0C7",
"s=	c #9DAFC6",
"t=	c #9CAEC5",
"u=	c #7D95B2",
"v=	c #365783",
"w=	c #D5DCE5",
"x=	c #455A78",
"y=	c #6C91B8",
"z=	c #7EA4CA",
"A=	c #97B4D3",
"B=	c #5987B6",
"C=	c #3C699D",
"D=	c #224D81",
"E=	c #B1BECE",
"F=	c #47668D",
"G=	c #8A898F",
"H=	c #8892A0",
"I=	c #5F8EBD",
"J=	c #D0DDEB",
"K=	c #F2F6F9",
"L=	c #5684B6",
"M=	c #3C6A9D",
"N=	c #173E70",
"O=	c #EBEEF2",
"P=	c #062F65",
"Q=	c #3F5677",
"R=	c #989394",
"S=	c #628BB7",
"T=	c #628EBB",
"U=	c #B1C6DD",
"V=	c #D6DCE5",
"W=	c #4C6A90",
"X=	c #062E63",
"Y=	c #8F8C90",
"Z=	c #8A919D",
"`=	c #B6CADF",
" -	c #6991BB",
".-	c #3D699C",
"+-	c #627C9E",
"@-	c #B2BECF",
"#-	c #354F74",
"$-	c #6A89AC",
"%-	c #5684B4",
"&-	c #5784B4",
"*-	c #D5E0EC",
"=-	c #2E5A8C",
"--	c #204C82",
";-	c #052F67",
">-	c #0C3469",
",-	c #F1F3F6",
"'-	c #254978",
")-	c #052E64",
"!-	c #8E919A",
"~-	c #6A91BC",
"{-	c #ABC1D8",
"]-	c #D9DFE7",
"^-	c #7088A6",
"/-	c #7C8CA1",
"(-	c #B0C5DA",
"_-	c #6D91B9",
":-	c #8095B0",
"<-	c #B6C2D2",
"[-	c #1F406D",
"}-	c #6182A7",
"|-	c #4B79AA",
"1-	c #D5E0EB",
"2-	c #5882AF",
"3-	c #526F94",
"4-	c #052E63",
"5-	c #949296",
"6-	c #517DAC",
"7-	c #F3F6F9",
"8-	c #335581",
"9-	c #FAFAFB",
"0-	c #F5F6F8",
"a-	c #1E4374",
"b-	c #6E7686",
"c-	c #8B8E98",
"d-	c #4775A6",
"e-	c #4673A4",
"f-	c #547DAB",
"g-	c #F4F7F9",
"h-	c #E7ECF3",
"i-	c #4A74A4",
"j-	c #2F5B90",
"k-	c #214B80",
"l-	c #063065",
"m-	c #355782",
"n-	c #4F6C92",
"o-	c #495D7A",
"p-	c #79889C",
"q-	c #4370A1",
"r-	c #5C83AD",
"s-	c #E8EDF3",
"t-	c #214B81",
"u-	c #2E517E",
"v-	c #F9FAFB",
"w-	c #3D5D87",
"x-	c #3A5275",
"y-	c #72849B",
"z-	c #597FAB",
"A-	c #F0F3F7",
"B-	c #597EA8",
"C-	c #204B81",
"D-	c #5E799B",
"E-	c #547095",
"F-	c #2D4A71",
"G-	c #687F9B",
"H-	c #4871A0",
"I-	c #F3F5F8",
"J-	c #6E8EB3",
"K-	c #042E66",
"L-	c #93A5BC",
"M-	c #F7F8FA",
"N-	c #30527F",
"O-	c #25446F",
"P-	c #989393",
"Q-	c #718197",
"R-	c #396496",
"S-	c #3D6899",
"T-	c #C0CEDE",
"U-	c #B0C1D5",
"V-	c #315D8F",
"W-	c #1F4B81",
"X-	c #103C72",
"Y-	c #224776",
"Z-	c #C8D1DD",
"`-	c #002B61",
" ;	c #385174",
".;	c #798496",
"+;	c #366395",
"@;	c #91A9C4",
"#;	c #F0F3F6",
"$;	c #4E739E",
"%;	c #5A7599",
"&;	c #375074",
"*;	c #898B94",
"=;	c #376193",
"-;	c #4B719D",
";;	c #D8E0E9",
">;	c #C3CFDD",
",;	c #386190",
"';	c #44638B",
");	c #D4DBE4",
"!;	c #F4F5F8",
"~;	c #41618A",
"{;	c #646F83",
"];	c #4D6B91",
"^;	c #9BAFC7",
"/;	c #3E6492",
"(;	c #103B70",
"_;	c #BFC9D7",
":;	c #A1B0C5",
"<;	c #143969",
"[;	c #81838D",
"};	c #999394",
"|;	c #7B8392",
"1;	c #2E588A",
"2;	c #90A6C0",
"3;	c #D2DAE5",
"4;	c #54759C",
"5;	c #113A70",
"6;	c #6A83A3",
"7;	c #E3E7ED",
"8;	c #A6B5C8",
"9;	c #193F71",
"0;	c #4B5E7B",
"a;	c #929094",
"b;	c #4F6A8C",
"c;	c #2E5687",
"d;	c #96AAC3",
"e;	c #E0E6ED",
"f;	c #EBEEF3",
"g;	c #94A8C1",
"h;	c #57759C",
"i;	c #2A5180",
"j;	c #567296",
"k;	c #A3B2C6",
"l;	c #9EAEC3",
"m;	c #234877",
"n;	c #23436D",
"o;	c #787D89",
"p;	c #918F93",
"q;	c #395B86",
"r;	c #3F6390",
"s;	c #C2CDDB",
"t;	c #EFF1F5",
"u;	c #A4B4C8",
"v;	c #5E7B9E",
"w;	c #234A7A",
"x;	c #2A4D7B",
"y;	c #B5C1D1",
"z;	c #D7DDE6",
"A;	c #49678E",
"B;	c #093065",
"C;	c #737A88",
"D;	c #7C828F",
"E;	c #496385",
"F;	c #1F487B",
"G;	c #57769C",
"H;	c #8CA0BA",
"I;	c #C2CDDA",
"J;	c #DFE4EB",
"K;	c #DEE3EA",
"L;	c #E0E5EB",
"M;	c #90A2BA",
"N;	c #577397",
"O;	c #1B4172",
"P;	c #26446E",
"Q;	c #657083",
"R;	c #566A86",
"S;	c #1B4377",
"T;	c #153F74",
"U;	c #0F386D",
"V;	c #47678F",
"W;	c #778EAB",
"X;	c #98A9C0",
"Y;	c #B4C0D1",
"Z;	c #D0D7E2",
"`;	c #C9D2DD",
" >	c #B7C3D2",
".>	c #A0B0C4",
"+>	c #7B91AD",
"@>	c #4E6B92",
"#>	c #143B6E",
"$>	c #022B62",
"%>	c #072F63",
"&>	c #304C72",
"*>	c #8B8A90",
"=>	c #80838E",
"->	c #616F86",
";>	c #325179",
">>	c #0B346B",
",>	c #032D65",
"'>	c #1B3D6B",
")>	c #4D607C",
"!>	c #767C88",
"~>	c #918E91",
"{>	c #7D818C",
"]>	c #546580",
"^>	c #304D74",
"/>	c #1A3D6C",
"(>	c #133968",
"_>	c #0E3466",
":>	c #0D3365",
"<>	c #0C3265",
"[>	c #0D3366",
"}>	c #113667",
"|>	c #163969",
"1>	c #24446E",
"2>	c #475B7A",
"3>	c #6E7687",
"4>	c #949092",
"5>	c #8E8C90",
"6>	c #908D91",
"7>	c #938F92",
"8>	c #97969A",
"9>	c #939AA6",
"0>	c #8AA4BF",
"a>	c #86A7C8",
"b>	c #85AACE",
"c>	c #82ABD2",
"d>	c #84ABD0",
"e>	c #88A5C2",
"f>	c #8CA1B7",
"g>	c #919BAA",
"h>	c #9498A1",
"i>	c #96969B",
"j>	c #9398A2",
"k>	c #89A4C1",
"l>	c #83AED7",
"m>	c #7DACDA",
"n>	c #7CA9D5",
"o>	c #7BA7D2",
"p>	c #7FA1C3",
"q>	c #8D99A8",
"r>	c #8AA4BE",
"s>	c #81AEDA",
"t>	c #9CC2E6",
"u>	c #A3C6E8",
"v>	c #A7C8E9",
"w>	c #AACAE9",
"x>	c #A6C7E8",
"y>	c #A1C5E8",
"z>	c #99C0E5",
"A>	c #8FB9E1",
"B>	c #74A5D4",
"C>	c #7D9CBC",
"D>	c #8A97A7",
"E>	c #969497",
"F>	c #8D9EB2",
"G>	c #83B2E0",
"H>	c #ACCCEA",
"I>	c #D6E6F5",
"J>	c #F9FBFD",
"K>	c #CCDEEF",
"L>	c #9CBEE0",
"M>	c #73A1D0",
"N>	c #6E9CCB",
"O>	c #6B99C9",
"P>	c #7B96B4",
"Q>	c #8CA2B9",
"R>	c #E6EFF8",
"S>	c #CADEF1",
"T>	c #BAD4ED",
"U>	c #C5DAEF",
"V>	c #D0E1F2",
"W>	c #DEEAF5",
"X>	c #E0EAF4",
"Y>	c #BBD1E7",
"Z>	c #8AB0D6",
"`>	c #6B9ACB",
" ,	c #6898C8",
".,	c #7893B1",
"+,	c #90939B",
"@,	c #909BAA",
"#,	c #B2CFEB",
"$,	c #FBFCFE",
"%,	c #FAFCFD",
"&,	c #E5EFF8",
"*,	c #B4D1EC",
"=,	c #8BB7E2",
"-,	c #9ABCDE",
";,	c #CEDEEE",
">,	c #F2F6FA",
",,	c #93B4D7",
"',	c #6A97C6",
"),	c #6593C2",
"!,	c #7A91AB",
"~,	c #86AACF",
"{,	c #CFE2F3",
"],	c #F6F9FC",
"^,	c #88B6E1",
"/,	c #84ABD4",
"(,	c #A6C2DE",
"_,	c #E7EEF6",
":,	c #EEF3F8",
"<,	c #B7CCE3",
"[,	c #618AB6",
"},	c #828FA2",
"|,	c #82B1E0",
"1,	c #B7D3ED",
"2,	c #B6D2ED",
"3,	c #85AAD0",
"4,	c #DAE5F0",
"5,	c #91B0D1",
"6,	c #5F8CBB",
"7,	c #6F8BA9",
"8,	c #969395",
"9,	c #81B1DE",
"0,	c #82B0DF",
"a,	c #A7C9E9",
"b,	c #F3F7FC",
"c,	c #EEF5FA",
"d,	c #9DC3E6",
"e,	c #749DC7",
"f,	c #C6D7E8",
"g,	c #E7EDF4",
"h,	c #7298C2",
"i,	c #5B83AF",
"j,	c #8E9099",
"k,	c #95979F",
"l,	c #83ADD6",
"m,	c #F5F9FC",
"n,	c #BCD6EE",
"o,	c #7BABD8",
"p,	c #76A7D5",
"q,	c #7DA1C8",
"r,	c #DCE6F0",
"s,	c #A5BDD7",
"t,	c #5481B3",
"u,	c #828C9C",
"v,	c #DCE9F6",
"w,	c #98B4D2",
"x,	c #E5ECF3",
"y,	c #5884B1",
"z,	c #78889E",
"A,	c #919BA9",
"B,	c #6E95BF",
"C,	c #E1E9F1",
"D,	c #7295BD",
"E,	c #6E849E",
"F,	c #9399A3",
"G,	c #8DB8E2",
"H,	c #CAD8E6",
"I,	c #6C91B9",
"J,	c #71849C",
"K,	c #8BB8E2",
"L,	c #79A9D9",
"M,	c #6A99CA",
"N,	c #4F7EAE",
"O,	c #A4BBD4",
"P,	c #83A2C3",
"Q,	c #4470A1",
"R,	c #72839A",
"S,	c #AFCDEB",
"T,	c #688CB4",
"U,	c #858B97",
"V,	c #83ACD4",
"W,	c #ADCCEA",
"X,	c #DDEAF6",
"Y,	c #698CB3",
"Z,	c #8A8C95",
"`,	c #89A4C2",
" '	c #94BDE4",
".'	c #9EB5CE",
"+'	c #446E9F",
"@'	c #4A6D97",
"#'	c #4E7CAF",
"$'	c #C4D2E1",
"%'	c #E4EAF1",
"&'	c #3A6697",
"*'	c #557294",
"='	c #7AAAD7",
"-'	c #5F8CBC",
";'	c #436FA3",
">'	c #DCE4ED",
",'	c #99B0C9",
"''	c #335E92",
")'	c #848894",
"!'	c #8BA4BE",
"~'	c #B5D2EC",
"{'	c #567CA7",
"]'	c #597CA6",
"^'	c #3A618F",
"/'	c #95969C",
"('	c #89B6E1",
"_'	c #F8FAFD",
":'	c #436FA2",
"<'	c #829DBC",
"['	c #E5EAF0",
"}'	c #345F91",
"|'	c #82AAD3",
"1'	c #9FBDDC",
"2'	c #B2CAE3",
"3'	c #BDD1E6",
"4'	c #BED1E6",
"5'	c #B4CAE2",
"6'	c #9FBBD9",
"7'	c #7EA4CB",
"8'	c #D3DDE7",
"9'	c #7793B5",
"0'	c #345B8A",
"a'	c #939093",
"b'	c #9499A3",
"c'	c #75A6D5",
"d'	c #7CA8D3",
"e'	c #93B7DA",
"f'	c #CBDCEC",
"g'	c #FAFBFC",
"h'	c #AFC5DD",
"i'	c #6A94C0",
"j'	c #4E7DAE",
"k'	c #567AA4",
"l'	c #2F5A8D",
"m'	c #265288",
"n'	c #67778F",
"o'	c #87AFD8",
"p'	c #DDE8F3",
"q'	c #F4F7FB",
"r'	c #B2C7DD",
"s'	c #4F7CAE",
"t'	c #B1C1D4",
"u'	c #A5B7CD",
"v'	c #C8DDF1",
"w'	c #A3C1E0",
"x'	c #C0D0E2",
"y'	c #5380B1",
"z'	c #426897",
"A'	c #F6F8FA",
"B'	c #ECEFF4",
"C'	c #285385",
"D'	c #62738C",
"E'	c #89A5C4",
"F'	c #CFE1F3",
"G'	c #A0C0DF",
"H'	c #B0C8E0",
"I'	c #8BAED1",
"J'	c #779FC8",
"K'	c #739CC6",
"L'	c #88AACD",
"M'	c #BBCEE2",
"N'	c #BACCDF",
"O'	c #4D7BAE",
"P'	c #325F93",
"Q'	c #275386",
"R'	c #CAD5E1",
"S'	c #708BAE",
"T'	c #375984",
"U'	c #9FBEDD",
"V'	c #DDE7F2",
"W'	c #AAC5DF",
"X'	c #6E99C7",
"Y'	c #5986B7",
"Z'	c #BFD0E3",
"`'	c #678EB8",
" )	c #4C709A",
".)	c #F6F7FA",
"+)	c #929093",
"@)	c #B5D1EC",
"#)	c #9FBEDC",
"$)	c #E7EFF6",
"%)	c #7AA4CD",
"&)	c #9FB9D4",
"*)	c #DDE5EF",
"=)	c #D9E0E9",
"-)	c #55769E",
";)	c #F7FAFD",
">)	c #74A0CC",
",)	c #5380B2",
"')	c #557FAD",
"))	c #748FB0",
"!)	c #C4DBF0",
"~)	c #A3BBD4",
"{)	c #7496BB",
"])	c #D7DEE7",
"^)	c #77A7D7",
"/)	c #5C8BBC",
"()	c #7295BC",
"_)	c #809FC1",
":)	c #335F91",
"<)	c #194378",
"[)	c #6593C4",
"})	c #668CB6",
"|)	c #7F9EBF",
"1)	c #ABBACE",
"2)	c #6B86A7",
"3)	c #445C7E",
"4)	c #89A6C6",
"5)	c #D3E4F4",
"6)	c #80A0C2",
"7)	c #6F91B7",
"8)	c #54739B",
"9)	c #BECAD8",
"0)	c #BFCFE0",
"a)	c #4D76A5",
"b)	c #174276",
"c)	c #F8F9FB",
"d)	c #6998C6",
"e)	c #6693C3",
"f)	c #4C7AAD",
"g)	c #507BAA",
"h)	c #DAE2EC",
"i)	c #315E92",
"j)	c #E5EAEF",
"k)	c #204779",
"l)	c #918E92",
"m)	c #A5C8E8",
"n)	c #4C7BAD",
"o)	c #9EB6CF",
"p)	c #6286AE",
"q)	c #C3CDDB",
"r)	c #365885",
"s)	c #727A89",
"t)	c #8DB9E2",
"u)	c #6997C7",
"v)	c #7596BC",
"w)	c #CCD7E5",
"x)	c #325D92",
"y)	c #A7B6C9",
"z)	c #46668E",
"A)	c #5A6A82",
"B)	c #4F79A9",
"C)	c #325D91",
"D)	c #90A3BC",
"E)	c #537096",
"F)	c #E9EEF3",
"G)	c #6F8FB4",
"H)	c #8095B1",
"I)	c #5B769A",
"J)	c #76A6D6",
"K)	c #6797C7",
"L)	c #5B89BB",
"M)	c #C9D6E4",
"N)	c #A9BDD2",
"O)	c #245086",
"P)	c #788EAC",
"Q)	c #617C9D",
"R)	c #CDD9E6",
"S)	c #B4C5D8",
"T)	c #627C9D",
"U)	c #C0D7EE",
"V)	c #BACADC",
"W)	c #C1CFDF",
"X)	c #214D81",
"Y)	c #0A346B",
"Z)	c #788FAB",
"`)	c #5A7598",
" !	c #385276",
".!	c #BAD3EC",
"+!	c #BCCCDD",
"@!	c #C9D5E3",
"#!	c #8498B3",
"$!	c #537095",
"%!	c #425878",
"&!	c #ADCAE8",
"*!	c #7EACD8",
"=!	c #74A2D1",
"-!	c #4B79AC",
";!	c #B2C4D8",
">!	c #D2DCE7",
",!	c #3B6799",
"'!	c #356094",
")!	c #325F92",
"!!	c #305C91",
"~!	c #0A3369",
"{!	c #94A5BC",
"]!	c #45648C",
"^!	c #54647E",
"/!	c #A3C4E4",
"(!	c #89B1DA",
"_!	c #B1C3D8",
":!	c #D4DDE8",
"<!	c #AFBCCD",
"[!	c #6A7385",
"}!	c #7EA8D2",
"|!	c #96BBDF",
"1!	c #95B9DD",
"2!	c #ADC1D6",
"3!	c #E2E8F0",
"4!	c #1D4373",
"5!	c #88888F",
"6!	c #87B0D9",
"7!	c #A9BDD4",
"8!	c #DBE3EC",
"9!	c #0A336A",
"0!	c #073268",
"a!	c #81A0C2",
"b!	c #BDD3E9",
"c!	c #6695C6",
"d!	c #A6BBD2",
"e!	c #3C6899",
"f!	c #204D82",
"g!	c #143F76",
"h!	c #869BB3",
"i!	c #DAE6F2",
"j!	c #DCE7F3",
"k!	c #5A88BA",
"l!	c #4C78AA",
"m!	c #A1B7D0",
"n!	c #E1E7EF",
"o!	c #3D689A",
"p!	c #09336A",
"q!	c #6D85A5",
"r!	c #7E93AF",
"s!	c #324D72",
"t!	c #A4C1DF",
"u!	c #4B78AB",
"v!	c #9AB2CC",
"w!	c #F4F6F9",
"x!	c #90B3D6",
"y!	c #4A78AB",
"z!	c #97B0CB",
"A!	c #E9EDF3",
"B!	c #456D9D",
"C!	c #11396C",
"D!	c #E8EBF0",
"E!	c #7C9ABA",
"F!	c #E1EBF4",
"G!	c #D8E4F0",
"H!	c #87A4C3",
"I!	c #6083AB",
"J!	c #5479A4",
"K!	c #5277A2",
"L!	c #5075A1",
"M!	c #4F74A0",
"N!	c #4D729E",
"O!	c #4C719D",
"P!	c #4A6F9B",
"Q!	c #496E9A",
"R!	c #476C99",
"S!	c #476B98",
"T!	c #456995",
"U!	c #436794",
"V!	c #3C5C86",
"W!	c #8E95A1",
"X!	c #B4CCE3",
"Y!	c #709BC7",
"Z!	c #4A79AA",
"`!	c #CAD6E4",
" ~	c #8FA5BE",
".~	c #093268",
"+~	c #5D789B",
"@~	c #314C73",
"#~	c #6C97C3",
"$~	c #6896C5",
"%~	c #81A7CF",
"&~	c #90B1D3",
"*~	c #C7D4E2",
"=~	c #8A9FBB",
"-~	c #073066",
";~	c #7395B9",
">~	c #E1EAF3",
",~	c #DBE5F0",
"'~	c #C8D4E2",
")~	c #8BA0BB",
"!~	c #768DAA",
"~~	c #8E949E",
"{~	c #7BA0C8",
"]~	c #ACBED3",
"^~	c #A9BCD2",
"/~	c #A9BCD1",
"(~	c #A8BBD1",
"_~	c #A7BAD0",
":~	c #A6B9CE",
"<~	c #A5B8CD",
"[~	c #A3B6CC",
"}~	c #9FB2C8",
"|~	c #9EB1C7",
"1~	c #9DAFC5",
"2~	c #E5E9EE",
"3~	c #0E356A",
"4~	c #445978",
"5~	c #E3EBF3",
"6~	c #DDE7F0",
"7~	c #305C8E",
"8~	c #133E75",
"9~	c #BAC5D4",
"0~	c #8D8B90",
"a~	c #5F8DBC",
"b~	c #5E8CBB",
"c~	c #98B5D3",
"d~	c #769CC4",
"e~	c #4B77AA",
"f~	c #3F6C9D",
"g~	c #3E5677",
"h~	c #608BB9",
"i~	c #E2EAF2",
"j~	c #E9EFF5",
"k~	c #4A77AA",
"l~	c #143E74",
"m~	c #9AABC0",
"n~	c #072F64",
"o~	c #89919E",
"p~	c #7198C1",
"q~	c #A2BBD5",
"r~	c #4978AA",
"s~	c #F0F2F5",
"t~	c #143A6D",
"u~	c #6B8AAC",
"v~	c #C8D7E6",
"w~	c #5783B2",
"x~	c #4978A9",
"y~	c #2E5A8F",
"z~	c #CAD2DE",
"A~	c #8F9199",
"B~	c #5280B0",
"C~	c #ECF1F6",
"D~	c #204A7F",
"E~	c #083167",
"F~	c #052F64",
"G~	c #738AA8",
"H~	c #687284",
"I~	c #798BA1",
"J~	c #7095BD",
"K~	c #B0C4DA",
"L~	c #214676",
"M~	c #F3F5F7",
"N~	c #1E4373",
"O~	c #1C3E6B",
"P~	c #6082A7",
"Q~	c #93AECC",
"R~	c #91ACC9",
"S~	c #1C4273",
"T~	c #3B5C86",
"U~	c #083065",
"V~	c #929196",
"W~	c #4D78A9",
"X~	c #B5C7DB",
"Y~	c #7697BB",
"Z~	c #093267",
"`~	c #D3DAE3",
" {	c #6F7787",
".{	c #8C8F97",
"+{	c #4975A6",
"@{	c #D2DDE9",
"#{	c #6C8EB5",
"${	c #1E4B80",
"%{	c #DBE1E8",
"&{	c #899CB6",
"*{	c #77869B",
"={	c #CED9E6",
"-{	c #7393B7",
";{	c #CBD3DE",
">{	c #9CACC2",
",{	c #385175",
"'{	c #77859A",
"){	c #D1DCE7",
"!{	c #8DA7C4",
"~{	c #12396D",
"{{	c #8FA1BA",
"]{	c #6E819A",
"^{	c #B1C3D7",
"/{	c #ABBDD2",
"({	c #7A90AD",
"_{	c #2A4770",
":{	c #3A6698",
"<{	c #8BA4C1",
"[{	c #FCFDFD",
"}{	c #3C6696",
"|{	c #2D598E",
"1{	c #123E72",
"2{	c #8C9FB8",
"3{	c #48668D",
"4{	c #7C8696",
"5{	c #5C7FA8",
"6{	c #133D73",
"7{	c #042E63",
"8{	c #DAE0E8",
"9{	c #CCD4DF",
"0{	c #475B79",
"a{	c #3A6293",
"b{	c #2F5A8E",
"c{	c #C2CFDE",
"d{	c #5376A0",
"e{	c #163D6F",
"f{	c #98A9BF",
"g{	c #052D63",
"h{	c #5E6B81",
"i{	c #939094",
"j{	c #4E6C91",
"k{	c #50749E",
"l{	c #E3E9EF",
"m{	c #5A7AA1",
"n{	c #ABB9CB",
"o{	c #1F4475",
"p{	c #133868",
"q{	c #86878E",
"r{	c #6D7C91",
"s{	c #315A8B",
"t{	c #8099B7",
"u{	c #DEE5EC",
"v{	c #DAE1EA",
"w{	c #6986A9",
"x{	c #325988",
"y{	c #A2B1C5",
"z{	c #516E93",
"A{	c #3B5375",
"B{	c #516B8C",
"C{	c #54759D",
"D{	c #D7DFE8",
"E{	c #6884A6",
"F{	c #113C73",
"G{	c #AAB8CA",
"H{	c #C7D0DC",
"I{	c #294D7B",
"J{	c #173A6A",
"K{	c #88888E",
"L{	c #7E8490",
"M{	c #456288",
"N{	c #4B6D96",
"O{	c #98ABC2",
"P{	c #D9E0E8",
"Q{	c #D3DBE5",
"R{	c #9FB0C5",
"S{	c #758DAB",
"T{	c #537197",
"U{	c #385B86",
"V{	c #224778",
"W{	c #123A6D",
"X{	c #153C6E",
"Y{	c #617B9D",
"Z{	c #889CB5",
"`{	c #8196B1",
" ]	c #1D3E6B",
".]	c #636E83",
"+]	c #8F8E93",
"@]	c #385982",
"#]	c #1B457A",
"$]	c #20487A",
"%]	c #7D94B1",
"&]	c #DBE1E9",
"*]	c #647E9F",
"=]	c #103667",
"-]	c #707887",
";]	c #878890",
">]	c #607088",
",]	c #2B4E7B",
"']	c #113B6F",
")]	c #305481",
"!]	c #4A6890",
"~]	c #5E799C",
"{]	c #97A8BE",
"]]	c #95A6BD",
"^]	c #587498",
"/]	c #406089",
"(]	c #244878",
"_]	c #8C8B91",
":]	c #4F6482",
"<]	c #1D4272",
"[]	c #133C6F",
"}]	c #0C366B",
"|]	c #354F73",
"1]	c #797E8A",
"2]	c #7F828C",
"3]	c #6A7487",
"4]	c #495E7C",
"5]	c #2C4A72",
"6]	c #133869",
"7]	c #0E3467",
"8]	c #23436E",
"9]	c #3E5576",
"0]	c #5F6C81",
"a]	c #7A7E8A",
"b]	c #9C9191",
"c]	c #A28D8D",
"d]	c #A68989",
"e]	c #AA8686",
"f]	c #B57C7D",
"g]	c #BF7474",
"h]	c #C56D6D",
"i]	c #C86A6A",
"j]	c #C86969",
"k]	c #C56C6C",
"l]	c #BE7171",
"m]	c #B57A7A",
"n]	c #AA8383",
"o]	c #A58888",
"p]	c #A18C8C",
"q]	c #9D9090",
"r]	c #A38C8C",
"s]	c #C77070",
"t]	c #E65757",
"u]	c #F24D4D",
"v]	c #F64949",
"w]	c #FA4646",
"x]	c #FC4343",
"y]	c #FB4343",
"z]	c #F94241",
"A]	c #F94242",
"B]	c #F74141",
"C]	c #F6403F",
"D]	c #F53F40",
"E]	c #F43F3F",
"F]	c #F33E3E",
"G]	c #F23D3E",
"H]	c #EF3E3E",
"I]	c #EA4141",
"J]	c #E44646",
"K]	c #DC4D4C",
"L]	c #C36566",
"M]	c #A58686",
"N]	c #9B9292",
"O]	c #AE8383",
"P]	c #CC6C6C",
"Q]	c #F24E4E",
"R]	c #FF4545",
"S]	c #FE4545",
"T]	c #FD4444",
"U]	c #FD4343",
"V]	c #FB4242",
"W]	c #FA4141",
"X]	c #F94141",
"Y]	c #F74040",
"Z]	c #F64040",
"`]	c #F54040",
" ^	c #F23E3E",
".^	c #F13C3D",
"+^	c #F03D3C",
"@^	c #EF3B3C",
"#^	c #ED3B3A",
"$^	c #ED3A3A",
"%^	c #EB3939",
"&^	c #EA3939",
"*^	c #E43D3D",
"=^	c #C56060",
"-^	c #AC7D7D",
";^	c #9D8F8F",
">^	c #C86F6F",
",^	c #F74A4A",
"'^	c #FD4646",
")^	c #FF4445",
"!^	c #FE4444",
"~^	c #FB4C4C",
"{^	c #FA5B5C",
"]^	c #FA6A6A",
"^^	c #F97474",
"/^	c #F97878",
"(^	c #F87D7E",
"_^	c #F77C7C",
":^	c #F67676",
"<^	c #F56F6F",
"[^	c #F36464",
"}^	c #F15555",
"|^	c #EF4241",
"1^	c #EE3B3B",
"2^	c #EC3A3A",
"3^	c #EC3939",
"4^	c #E93838",
"5^	c #E83838",
"6^	c #E53838",
"7^	c #E23A3A",
"8^	c #C45D5E",
"9^	c #A48B8B",
"0^	c #CF6A6A",
"a^	c #FA4848",
"b^	c #FE4646",
"c^	c #FD8383",
"d^	c #FEC2C2",
"e^	c #FEF6F6",
"f^	c #FEFCFC",
"g^	c #FEFDFD",
"h^	c #FDEFEF",
"i^	c #F7B5B5",
"j^	c #F07070",
"k^	c #EA3838",
"l^	c #E83737",
"m^	c #E63636",
"n^	c #E53636",
"o^	c #E43636",
"p^	c #E33535",
"q^	c #E23434",
"r^	c #C45A5A",
"s^	c #A68282",
"t^	c #9A9393",
"u^	c #CE6A6A",
"v^	c #FF7575",
"w^	c #FEAFAF",
"x^	c #FEDDDD",
"y^	c #FDD9D9",
"z^	c #FCC1C1",
"A^	c #FBAEAF",
"B^	c #FAA2A1",
"C^	c #F99797",
"D^	c #F99696",
"E^	c #F79696",
"F^	c #F79B9B",
"G^	c #F8A7A7",
"H^	c #F9B9B9",
"I^	c #FACECE",
"J^	c #FDEBEB",
"K^	c #FAD4D4",
"L^	c #F3A0A0",
"M^	c #EB5F5F",
"N^	c #E43535",
"O^	c #E33434",
"P^	c #E23534",
"Q^	c #E03334",
"R^	c #DF3333",
"S^	c #DF3233",
"T^	c #C55555",
"U^	c #C07575",
"V^	c #F34E4E",
"W^	c #FF4949",
"X^	c #FF8C8C",
"Y^	c #FFF9F9",
"Z^	c #FEF8F8",
"`^	c #FED8D8",
" /	c #FC8F8F",
"./	c #FA5050",
"+/	c #F84141",
"@/	c #F13D3D",
"#/	c #F03D3D",
"$/	c #EF3C3C",
"%/	c #ED3B3B",
"&/	c #EB393A",
"*/	c #EF6F6F",
"=/	c #F7B9B9",
"-/	c #FDF2F2",
";/	c #FEFAFA",
">/	c #FCEEEE",
",/	c #EA6E6E",
"'/	c #E13838",
")/	c #E03233",
"!/	c #DD3132",
"~/	c #DD3131",
"{/	c #D73636",
"]/	c #B96363",
"^/	c #9D9191",
"//	c #DF5D5D",
"(/	c #FF5252",
"_/	c #FFB8B8",
":/	c #FFF1F1",
"</	c #FFFCFC",
"[/	c #FEA8A8",
"}/	c #FD6E6D",
"|/	c #FC4D4D",
"1/	c #FA4242",
"2/	c #F94142",
"3/	c #F84040",
"4/	c #F53E3E",
"5/	c #F33F3F",
"6/	c #F23D3D",
"7/	c #F03C3D",
"8/	c #EA3A39",
"9/	c #E73636",
"0/	c #EA5656",
"a/	c #EE8585",
"b/	c #FADEDE",
"c/	c #FBE8E8",
"d/	c #F0A1A0",
"e/	c #DE3333",
"f/	c #DD3232",
"g/	c #DC3131",
"h/	c #DA3030",
"i/	c #D93030",
"j/	c #CD4141",
"k/	c #9E8B8B",
"l/	c #B38080",
"m/	c #F74B4B",
"n/	c #FF4C4C",
"o/	c #FF9595",
"p/	c #FFE9E9",
"q/	c #FE9393",
"r/	c #FC4242",
"s/	c #EE3B3C",
"t/	c #EB3A39",
"u/	c #EA3938",
"v/	c #E73737",
"w/	c #E33435",
"x/	c #E75C5C",
"y/	c #F7CFCF",
"z/	c #FDF7F7",
"A/	c #E77272",
"B/	c #DB3434",
"C/	c #D82F2F",
"D/	c #D72E2E",
"E/	c #D43131",
"F/	c #B06B6C",
"G/	c #FF7D7D",
"H/	c #FFEDED",
"I/	c #FFE6E6",
"J/	c #FF6E6E",
"K/	c #FF4747",
"L/	c #F84140",
"M/	c #F63F3F",
"N/	c #F53F3F",
"O/	c #F43E3E",
"P/	c #F03C3C",
"Q/	c #E13433",
"R/	c #E03333",
"S/	c #DF3232",
"T/	c #E24B4B",
"U/	c #F3B6B6",
"V/	c #F9E0E0",
"W/	c #DE4F4F",
"X/	c #D72D2D",
"Y/	c #D52D2D",
"Z/	c #D52D2C",
"`/	c #BB5556",
" (	c #9A9292",
".(	c #E25A5A",
"+(	c #FF4E4E",
"@(	c #FFB3B3",
"#(	c #FF9C9C",
"$(	c #FC4443",
"%(	c #FC4342",
"&(	c #F23E3D",
"*(	c #EE3A3B",
"=(	c #EB3A3A",
"-(	c #E93839",
";(	c #E83738",
">(	c #E63637",
",(	c #E53536",
"'(	c #E13434",
")(	c #F7D3D3",
"!(	c #E98F90",
"~(	c #D62E2E",
"{(	c #D52C2C",
"](	c #D32C2B",
"^(	c #D22B2B",
"/(	c #C73D3D",
"((	c #E05D5D",
"_(	c #FF5959",
":(	c #FFEFEF",
"<(	c #FFCBCB",
"[(	c #F74041",
"}(	c #EE3C3C",
"|(	c #E53635",
"1(	c #DD3231",
"2(	c #DB3031",
"3(	c #D93131",
"4(	c #E77F7F",
"5(	c #F8E0E0",
"6(	c #D53534",
"7(	c #D02A2A",
"8(	c #C63A3A",
"9(	c #9D8D8D",
"0(	c #ED5252",
"a(	c #FF8080",
"b(	c #FFFDFD",
"c(	c #FF8E8E",
"d(	c #FE4445",
"e(	c #F63F40",
"f(	c #F43F3E",
"g(	c #F33D3E",
"h(	c #ED3A3B",
"i(	c #E93939",
"j(	c #E63736",
"k(	c #E33534",
"l(	c #DF3332",
"m(	c #DB3131",
"n(	c #DA2F2F",
"o(	c #D92F2F",
"p(	c #DC4E4F",
"q(	c #F7DBDB",
"r(	c #FAEBEB",
"s(	c #DB5758",
"t(	c #CF2929",
"u(	c #CE2929",
"v(	c #CB2E2E",
"w(	c #9C8F8F",
"x(	c #E15C5C",
"y(	c #FF8484",
"z(	c #FFF0F0",
"A(	c #FF5555",
"B(	c #FD4443",
"C(	c #EF3C3B",
"D(	c #EC3B3A",
"E(	c #E13333",
"F(	c #D62D2D",
"G(	c #D42C2C",
"H(	c #F2C0C0",
"I(	c #D85353",
"J(	c #CC2828",
"K(	c #CC2827",
"L(	c #C23939",
"M(	c #DE5E5E",
"N(	c #FF9B9B",
"O(	c #FFD3D3",
"P(	c #FF5353",
"Q(	c #FF4444",
"R(	c #FA4241",
"S(	c #F5403F",
"T(	c #F13C3C",
"U(	c #E93938",
"V(	c #DB3130",
"W(	c #D9302F",
"X(	c #D82E2E",
"Y(	c #D22C2C",
"Z(	c #D22A2B",
"`(	c #E79494",
" _	c #DD7170",
"._	c #CC2727",
"+_	c #CB2727",
"@_	c #CA2726",
"#_	c #C13535",
"$_	c #C67070",
"%_	c #FF8888",
"&_	c #FFDDDD",
"*_	c #FC4344",
"=_	c #FA4142",
"-_	c #E13334",
";_	c #DE3232",
">_	c #D32B2C",
",_	c #D12A2A",
"'_	c #D02929",
")_	c #E17F7F",
"!_	c #D65353",
"~_	c #CA2727",
"{_	c #C82626",
"]_	c #B55050",
"^_	c #FF8585",
"/_	c #FFCCCC",
"(_	c #FA4342",
"__	c #EF3B3B",
":_	c #E73837",
"<_	c #E63737",
"[_	c #E03332",
"}_	c #DE3131",
"|_	c #DB3030",
"1_	c #DA302F",
"2_	c #D32C2C",
"3_	c #D02B2A",
"4_	c #D0292A",
"5_	c #CE2828",
"6_	c #E07E7E",
"7_	c #FEFBFB",
"8_	c #D55655",
"9_	c #C82525",
"0_	c #C62424",
"a_	c #AA6868",
"b_	c #F54C4C",
"c_	c #FF6060",
"d_	c #FFE7E7",
"e_	c #FF4D4D",
"f_	c #FC4444",
"g_	c #F33F3E",
"h_	c #F33D3D",
"i_	c #E73736",
"j_	c #DE3231",
"k_	c #D42D2D",
"l_	c #D32B2B",
"m_	c #D12A2B",
"n_	c #D02A29",
"o_	c #CE2829",
"p_	c #CD2828",
"q_	c #E49292",
"r_	c #FAEDED",
"s_	c #C93030",
"t_	c #C72525",
"u_	c #C42424",
"v_	c #C22626",
"w_	c #9F8484",
"x_	c #FFF2F2",
"y_	c #FB4342",
"z_	c #E73838",
"A_	c #E23535",
"B_	c #DC3030",
"C_	c #DA2F30",
"D_	c #D82E2F",
"E_	c #D12B2B",
"F_	c #CD2827",
"G_	c #CA2626",
"H_	c #C92626",
"I_	c #EEBEBE",
"J_	c #F7E1E1",
"K_	c #C52626",
"L_	c #C42323",
"M_	c #C32323",
"N_	c #B93737",
"O_	c #BA7A7A",
"P_	c #FFC1C1",
"Q_	c #FF7373",
"R_	c #FF4544",
"S_	c #FD4344",
"T_	c #FB4243",
"U_	c #FA4243",
"V_	c #F74140",
"W_	c #F33E3D",
"X_	c #DC3031",
"Y_	c #DB302F",
"Z_	c #CB2626",
"`_	c #C72424",
" :	c #F5D9D9",
".:	c #E19190",
"+:	c #C12222",
"@:	c #C12122",
"#:	c #AE5454",
"$:	c #F14F4F",
"%:	c #FF9292",
"&:	c #FF9393",
"*:	c #E03434",
"=:	c #CF2A2A",
"-:	c #CC2728",
";:	c #CE4646",
">:	c #CD4C4C",
",:	c #C12121",
"':	c #BF2120",
"):	c #BD2525",
"!:	c #9C8B8B",
"~:	c #CD6B6B",
"{:	c #FF5050",
"]:	c #FFF4F4",
"^:	c #FFD9D9",
"/:	c #FA4343",
"(:	c #EC3A39",
"_:	c #E03232",
"::	c #CB2726",
"<:	c #C92525",
"[:	c #C52323",
"}:	c #DA7777",
"|:	c #F7E3E3",
"1:	c #C12626",
"2:	c #BF2020",
"3:	c #BE1F1F",
"4:	c #B04848",
"5:	c #FC4747",
"6:	c #FFB0B0",
"7:	c #FF6464",
"8:	c #EE3A3A",
"9:	c #E93A3A",
"0:	c #EC6161",
"a:	c #EF8080",
"b:	c #F19898",
"c:	c #F3A7A7",
"d:	c #F3ABAB",
"e:	c #F2A4A4",
"f:	c #EF9393",
"g:	c #EA7272",
"h:	c #E03E3E",
"i:	c #C52424",
"j:	c #C22424",
"k:	c #F2D1D1",
"l:	c #D56F6F",
"m:	c #BE201F",
"n:	c #BC1E1F",
"o:	c #BC1E1E",
"p:	c #A07C7C",
"q:	c #C67171",
"r:	c #FF6666",
"s:	c #FFA1A1",
"t:	c #ED4444",
"u:	c #EF6464",
"v:	c #F5A9A9",
"w:	c #FCE7E7",
"x:	c #F9DEDE",
"y:	c #E66D6C",
"z:	c #DC3838",
"A:	c #D82F2E",
"B:	c #CF292A",
"C:	c #C52324",
"D:	c #C32222",
"E:	c #C22221",
"F:	c #CC4B4B",
"G:	c #BF2625",
"H:	c #BC1F1E",
"I:	c #BA1E1E",
"J:	c #B04141",
"K:	c #FF5151",
"L:	c #F43E3F",
"M:	c #F5A2A2",
"N:	c #F9E4E4",
"O:	c #E05A5A",
"P:	c #C42223",
"Q:	c #C22222",
"R:	c #C02121",
"S:	c #BF2121",
"T:	c #E7ADAD",
"U:	c #E3A1A1",
"V:	c #BB1E1D",
"W:	c #B91D1D",
"X:	c #B81C1C",
"Y:	c #9A9090",
"Z:	c #FF4F4F",
"`:	c #FFADAD",
" <	c #F5A5A5",
".<	c #E37271",
"+<	c #D22A2A",
"@<	c #CD2928",
"#<	c #C52423",
"$<	c #C22121",
"%<	c #C02020",
"&<	c #C53A3A",
"*<	c #FCF6F6",
"=<	c #F9EBEB",
"-<	c #BB2222",
";<	c #AA4D4D",
"><	c #F05050",
",<	c #F84041",
"'<	c #FCEAEA",
")<	c #F4AFAF",
"!<	c #ED8181",
"~<	c #E86060",
"{<	c #E44D4D",
"]<	c #E34C4D",
"^<	c #E55F5E",
"/<	c #EC8B8B",
"(<	c #F8D9D9",
"_<	c #D94343",
":<	c #CD2929",
"<<	c #CB2827",
"[<	c #CA2627",
"}<	c #BE1F20",
"|<	c #BE2020",
"1<	c #BC1F1F",
"2<	c #EEC9C9",
"3<	c #D16C6C",
"4<	c #B71B1B",
"5<	c #B51A1A",
"6<	c #9B8E8E",
"7<	c #A68A8A",
"8<	c #FFA7A7",
"9<	c #FE4544",
"0<	c #EC393A",
"a<	c #EA3839",
"b<	c #F29392",
"c<	c #F7BCBC",
"d<	c #EF7F7F",
"e<	c #E64343",
"f<	c #DE3132",
"g<	c #E25C5B",
"h<	c #F8DADA",
"i<	c #F9E2E2",
"j<	c #CB2728",
"k<	c #C82526",
"l<	c #BD1F1F",
"m<	c #BB1E1E",
"n<	c #C64847",
"o<	c #B71C1B",
"p<	c #B61A1B",
"q<	c #A26B6B",
"r<	c #C57171",
"s<	c #FF9191",
"t<	c #FF6767",
"u<	c #EC3B3B",
"v<	c #E93737",
"w<	c #E83939",
"x<	c #E73637",
"y<	c #DB3939",
"z<	c #FAE8E8",
"A<	c #DB5859",
"B<	c #C72425",
"C<	c #BA1E1D",
"D<	c #B91C1D",
"E<	c #F3D8D8",
"F<	c #C85555",
"G<	c #B41919",
"H<	c #A94545",
"I<	c #FFC8C8",
"J<	c #FFF3F3",
"K<	c #E47979",
"L<	c #E48383",
"M<	c #CB2828",
"N<	c #D27373",
"O<	c #DF9D9D",
"P<	c #B31919",
"Q<	c #B02020",
"R<	c #F13E3E",
"S<	c #E83837",
"T<	c #E89999",
"U<	c #C22122",
"V<	c #BA1D1D",
"W<	c #B91C1C",
"X<	c #B81C1D",
"Y<	c #C13E3E",
"Z<	c #FDF9F9",
"`<	c #F2D7D7",
" [	c #B11919",
".[	c #B11818",
"+[	c #9D7F7F",
"@[	c #C17575",
"#[	c #FF7070",
"$[	c #FE5353",
"%[	c #F33E3F",
"&[	c #EE3C3B",
"*[	c #E53535",
"=[	c #D92F2E",
"-[	c #E89C9C",
";[	c #C62525",
">[	c #BD1F1E",
",[	c #B71C1C",
"'[	c #B61B1B",
")[	c #B51B1A",
"![	c #FAF0F0",
"~[	c #B31D1C",
"{[	c #B01717",
"][	c #A54D4D",
"^[	c #DC6060",
"/[	c #FFB9B9",
"([	c #FEECEC",
"_[	c #E53637",
":[	c #D72F2E",
"<[	c #D72E2D",
"[[	c #D42C2D",
"}[	c #E38989",
"|[	c #C62524",
"1[	c #BD1E1E",
"2[	c #B51B1B",
"3[	c #B41A1A",
"4[	c #E3ACAC",
"5[	c #CE6E6E",
"6[	c #AF1718",
"7[	c #AF1717",
"8[	c #AA2324",
"9[	c #9B9393",
"0[	c #E95555",
"a[	c #FEF4F4",
"b[	c #FEBEBE",
"c[	c #FC4243",
"d[	c #D62E2D",
"e[	c #D42B2C",
"f[	c #DC5F5F",
"g[	c #DA6060",
"h[	c #C02021",
"i[	c #C65757",
"j[	c #E9C0C0",
"k[	c #AF1617",
"l[	c #AD1616",
"m[	c #AC1A1A",
"n[	c #9A8D8C",
"o[	c #FD9999",
"p[	c #D22E2E",
"q[	c #F6D9D9",
"r[	c #FBF0F0",
"s[	c #C12221",
"t[	c #BB1D1D",
"u[	c #B81B1B",
"v[	c #B3191A",
"w[	c #B21919",
"x[	c #FCF8F8",
"y[	c #AD1515",
"z[	c #AA1818",
"A[	c #9C8080",
"B[	c #9E9090",
"C[	c #FB4747",
"D[	c #FE6768",
"E[	c #FC7D7D",
"F[	c #E93738",
"G[	c #D33232",
"H[	c #F3CCCC",
"I[	c #D34747",
"J[	c #C62423",
"K[	c #C32322",
"L[	c #C02120",
"M[	c #BD1E1F",
"N[	c #B91D1C",
"O[	c #B81B1C",
"P[	c #B31A1A",
"Q[	c #B01818",
"R[	c #F6E6E6",
"S[	c #B32829",
"T[	c #AC1515",
"U[	c #AA1515",
"V[	c #9D7575",
"W[	c #A18E8E",
"X[	c #FD7979",
"Y[	c #FB6767",
"Z[	c #DF5151",
"`[	c #E05757",
" }	c #DF5656",
".}	c #DE5656",
"+}	c #DE5A5B",
"@}	c #E16D6D",
"#}	c #EDACAC",
"$}	c #DF7A7A",
"%}	c #EAC5C5",
"&}	c #BA3E3E",
"*}	c #A91313",
"=}	c #9E6C6C",
"-}	c #AD8484",
";}	c #FD8786",
">}	c #FA5253",
",}	c #F7DCDC",
"'}	c #FDFBFB",
")}	c #F5D5D5",
"!}	c #D13F3F",
"~}	c #C82625",
"{}	c #BF2021",
"]}	c #B21818",
"^}	c #AE1717",
"/}	c #E1AAAA",
"(}	c #C04F4F",
"_}	c #A91414",
":}	c #A81313",
"<}	c #9F5E5E",
"[}	c #B87B7B",
"}}	c #FC9595",
"|}	c #F94443",
"1}	c #E43536",
"2}	c #F8DFDF",
"3}	c #FCF2F2",
"4}	c #E38787",
"5}	c #C32223",
"6}	c #BF1F20",
"7}	c #BB1D1E",
"8}	c #D99595",
"9}	c #C45C5C",
"0}	c #A81312",
"a}	c #A05252",
"b}	c #BF7575",
"c}	c #FC9FA0",
"d}	c #F9DFDF",
"e}	c #FDFCFC",
"f}	c #D96465",
"g}	c #C92625",
"h}	c #C42222",
"i}	c #BF201F",
"j}	c #B61A1A",
"k}	c #B31818",
"l}	c #B21918",
"m}	c #AE1617",
"n}	c #AD1516",
"o}	c #D38686",
"p}	c #C66464",
"q}	c #A81212",
"r}	c #A61212",
"s}	c #A04A4A",
"t}	c #C27172",
"u}	c #FCA7A7",
"v}	c #E78686",
"w}	c #EA9695",
"x}	c #E99595",
"y}	c #E89494",
"z}	c #E89595",
"A}	c #EAA1A0",
"B}	c #F0BCBD",
"C}	c #FAEAEA",
"D}	c #EAAEAF",
"E}	c #B41A19",
"F}	c #AB1515",
"G}	c #D17F7F",
"H}	c #C86B6B",
"I}	c #A71212",
"J}	c #A61111",
"K}	c #A04646",
"L}	c #C27171",
"M}	c #FBA9A9",
"N}	c #E23435",
"O}	c #D02B2B",
"P}	c #DB6B6B",
"Q}	c #EDBABA",
"R}	c #BA1D1E",
"S}	c #B71B1C",
"T}	c #B61B1A",
"U}	c #B11717",
"V}	c #AE1616",
"W}	c #AB1415",
"X}	c #AA1414",
"Y}	c #D07F7F",
"Z}	c #C86C6C",
"`}	c #A41111",
" |	c #9F4646",
".|	c #BE7474",
"+|	c #FBA1A1",
"@|	c #E23334",
"#|	c #D92E2F",
"$|	c #D12B2A",
"%|	c #CD3231",
"&|	c #F5D7D7",
"*|	c #D66A6A",
"=|	c #AC1615",
"-|	c #AB1514",
";|	c #D08181",
">|	c #C56565",
",|	c #A51111",
"'|	c #A41010",
")|	c #9F4949",
"!|	c #B77A7A",
"~|	c #FA9999",
"{|	c #D62D2E",
"]|	c #F0C9C9",
"^|	c #AC1516",
"/|	c #AC1415",
"(|	c #A81213",
"_|	c #D48D8C",
":|	c #C25E5E",
"<|	c #A20F10",
"[|	c #9E5151",
"}|	c #AC8383",
"||	c #F88888",
"1|	c #F34747",
"2|	c #F13D3C",
"3|	c #E43635",
"4|	c #DF8585",
"5|	c #AB1414",
"6|	c #A71313",
"7|	c #DA9B9B",
"8|	c #BC5151",
"9|	c #A30F0F",
"0|	c #A10F0F",
"a|	c #9C5C5C",
"b|	c #A08E8E",
"c|	c #F77A7A",
"d|	c #F25756",
"e|	c #CB2627",
"f|	c #D14F50",
"g|	c #CD5050",
"h|	c #B81D1C",
"i|	c #B4191A",
"j|	c #E2B4B4",
"k|	c #B53F3F",
"l|	c #A20F0F",
"m|	c #A10E0E",
"n|	c #9B6B6B",
"o|	c #F14242",
"p|	c #F56969",
"q|	c #F46A6A",
"r|	c #E03433",
"s|	c #D52C2D",
"t|	c #CF2A29",
"u|	c #CD4545",
"v|	c #FDF8F8",
"w|	c #D4696A",
"x|	c #B01817",
"y|	c #AF1616",
"z|	c #EDD2D2",
"A|	c #AC2A2B",
"B|	c #A10F0E",
"C|	c #9E0F0F",
"D|	c #9B7474",
"E|	c #E94949",
"F|	c #F35354",
"G|	c #F58484",
"H|	c #D72D2E",
"I|	c #D22B2C",
"J|	c #C92526",
"K|	c #C72524",
"L|	c #CD4747",
"M|	c #FCF7F7",
"N|	c #D16464",
"O|	c #FBF6F6",
"P|	c #FDFAFA",
"Q|	c #A10F10",
"R|	c #A00E0E",
"S|	c #9E1010",
"T|	c #9A7F7F",
"U|	c #E05050",
"V|	c #F13E3D",
"W|	c #F7A4A4",
"X|	c #D05757",
"Y|	c #C74343",
"Z|	c #AA1413",
"`|	c #A51112",
" 1	c #AB2525",
".1	c #EFD6D6",
"+1	c #9E0D0D",
"@1	c #9E1313",
"#1	c #9A8C8C",
"$1	c #D35B5B",
"%1	c #FACDCD",
"&1	c #FAD0D0",
"*1	c #CE2928",
"=1	c #E7A9A9",
"-1	c #B31819",
";1	c #B11817",
">1	c #AD1615",
",1	c #A91314",
"'1	c #A61112",
")1	c #A41011",
"!1	c #A31010",
"~1	c #C97676",
"{1	c #CE8585",
"]1	c #9F0D0D",
"^1	c #9E0E0E",
"/1	c #9E1D1D",
"(1	c #BB7171",
"_1	c #F48383",
":1	c #CC4C4C",
"<1	c #EEC6C6",
"[1	c #AE1716",
"}1	c #A51212",
"|1	c #A51011",
"11	c #A92626",
"21	c #9F0E0D",
"31	c #9F0E0E",
"41	c #9C4848",
"51	c #ED3D3D",
"61	c #F06C6C",
"71	c #E48283",
"81	c #E07272",
"91	c #C82524",
"01	c #D15A5A",
"a1	c #FBF3F3",
"b1	c #D37070",
"c1	c #B11819",
"d1	c #B11718",
"e1	c #AA1313",
"f1	c #A2100F",
"g1	c #A71F1F",
"h1	c #F6E9E9",
"i1	c #9E0D0E",
"j1	c #9A7D7D",
"k1	c #E34646",
"l1	c #FBD8D8",
"m1	c #F9CCCC",
"n1	c #E73738",
"o1	c #ECA7A7",
"p1	c #E48E8E",
"q1	c #CF3737",
"r1	c #CC2C2C",
"s1	c #CA2929",
"t1	c #C52627",
"u1	c #C83837",
"v1	c #EDBEBE",
"w1	c #F6E2E2",
"x1	c #B51A1B",
"y1	c #B21819",
"z1	c #A31111",
"A1	c #A21010",
"B1	c #B64647",
"C1	c #DDACAC",
"D1	c #9E1616",
"E1	c #BD6D6D",
"F1	c #F49D9D",
"G1	c #FEF9F9",
"H1	c #E84645",
"I1	c #D92F30",
"J1	c #EBA6A6",
"K1	c #F9E9E9",
"L1	c #F4D4D4",
"M1	c #F0C4C5",
"N1	c #EDBCBC",
"O1	c #ECBABA",
"P1	c #EEC1C1",
"Q1	c #F2CECE",
"R1	c #F7E5E5",
"S1	c #F6E3E3",
"T1	c #BF2C2C",
"U1	c #A00F0F",
"V1	c #D59696",
"W1	c #C26565",
"X1	c #9D3E3E",
"Y1	c #A38988",
"Z1	c #E83B3C",
"`1	c #EC5A5A",
" 2	c #EE7271",
".2	c #EBA7A7",
"+2	c #F5E0E0",
"@2	c #BE2A2B",
"#2	c #AC1414",
"$2	c #A1100F",
"%2	c #A11414",
"&2	c #9B6767",
"*2	c #DD4645",
"=2	c #FAD9D9",
"-2	c #F9D1D1",
";2	c #DD6B6B",
">2	c #F9E9E8",
",2	c #F8EAEA",
"'2	c #D26B6A",
")2	c #BB201F",
"!2	c #AF1716",
"~2	c #A30F10",
"{2	c #CA7D7D",
"]2	c #D69898",
"^2	c #9A8E8E",
"/2	c #BC6B6B",
"(2	c #EA5C5B",
"_2	c #E85959",
":2	c #D42B2B",
"<2	c #D14040",
"[2	c #E28A8A",
"}2	c #F0C7C7",
"|2	c #F6DDDD",
"12	c #F9E8E8",
"22	c #FBF1F1",
"32	c #FCF5F5",
"42	c #FCF4F4",
"52	c #F8E7E7",
"62	c #F3D9D9",
"72	c #E8B3B4",
"82	c #CE5B5C",
"92	c #AC1514",
"02	c #A71213",
"a2	c #A11413",
"b2	c #F5E6E6",
"c2	c #A31A1A",
"d2	c #9F0D0E",
"e2	c #9C4646",
"f2	c #E43939",
"g2	c #FADCDC",
"h2	c #F9D5D5",
"i2	c #D72E2F",
"j2	c #C72A2A",
"k2	c #C93535",
"l2	c #C93939",
"m2	c #C83939",
"n2	c #C63737",
"o2	c #C53332",
"p2	c #C22C2C",
"q2	c #BF2322",
"r2	c #B01718",
"s2	c #A71312",
"t2	c #B74B4B",
"u2	c #E5BDBD",
"v2	c #9A8F8F",
"w2	c #BB6B6A",
"x2	c #ED8080",
"y2	c #E55858",
"z2	c #B61C1B",
"A2	c #F5E8E8",
"B2	c #B13C3C",
"C2	c #9D3637",
"D2	c #A08B8B",
"E2	c #E13737",
"F2	c #F9DBDB",
"G2	c #FAE4E4",
"H2	c #CD2829",
"I2	c #C62425",
"J2	c #AA1314",
"K2	c #A61211",
"L2	c #A10E0F",
"M2	c #D08A8A",
"N2	c #D89F9F",
"O2	c #9A7979",
"P2	c #BF6262",
"Q2	c #E55353",
"R2	c #ED9191",
"S2	c #D42D2C",
"T2	c #CF2829",
"U2	c #CD2727",
"V2	c #A81314",
"W2	c #A41C1C",
"X2	c #F9F0F0",
"Y2	c #FAF4F4",
"Z2	c #A61F1F",
"`2	c #9D3D3D",
" 3	c #D74040",
".3	c #F4BEBE",
"+3	c #FDF6F6",
"@3	c #DC3A3A",
"#3	c #A51010",
"$3	c #EBCCCC",
"%3	c #CD8282",
"&3	c #9E1414",
"*3	c #9A8A8A",
"=3	c #B07474",
"-3	c #FBE9E9",
";3	c #F8DBDB",
">3	c #D22C2B",
",3	c #BF1F1F",
"'3	c #B81C1B",
")3	c #B11918",
"!3	c #A00E0F",
"~3	c #CA7A7A",
"{3	c #9C4A4A",
"]3	c #C84F4F",
"^3	c #E15959",
"/3	c #EEA5A5",
"(3	c #AC1616",
"_3	c #AB2D2D",
":3	c #FAF3F3",
"<3	c #A92929",
"[3	c #9E2727",
"}3	c #D53939",
"|3	c #E78383",
"13	c #E68282",
"23	c #C42322",
"33	c #A3100F",
"43	c #A92828",
"53	c #F9F1F1",
"63	c #B54545",
"73	c #9E1212",
"83	c #9A8282",
"93	c #AA7A7A",
"03	c #EFABAB",
"a3	c #E06767",
"b3	c #BA1C1C",
"c3	c #A21616",
"d3	c #EED5D5",
"e3	c #C97979",
"f3	c #9B6060",
"g3	c #B56666",
"h3	c #F4CDCD",
"i3	c #DC5C5C",
"j3	c #BD201F",
"k3	c #F1DCDC",
"l3	c #D28F8F",
"m3	c #9D4141",
"n3	c #C34E4E",
"o3	c #F3C8C8",
"p3	c #DD6666",
"q3	c #C62323",
"r3	c #A71211",
"s3	c #A00E0D",
"t3	c #A62020",
"u3	c #EBCDCD",
"v3	c #D9A1A1",
"w3	c #9E2121",
"x3	c #C24A4A",
"y3	c #E38585",
"z3	c #A51211",
"A3	c #A51F1F",
"B3	c #F6EAEA",
"C3	c #D49595",
"D3	c #9E2424",
"E3	c #C93D3D",
"F3	c #EBABAB",
"G3	c #E9A5A5",
"H3	c #B81D1D",
"I3	c #A91413",
"J3	c #A00D0E",
"K3	c #BD5B5B",
"L3	c #CC8181",
"M3	c #BF4A4A",
"N3	c #E18383",
"O3	c #F7DFDF",
"P3	c #CB3333",
"Q3	c #B51A19",
"R3	c #D39292",
"S3	c #B95151",
"T3	c #9E2323",
"U3	c #9A8B8B",
"V3	c #C04646",
"W3	c #D55454",
"X3	c #E39393",
"Y3	c #B84E4E",
"Z3	c #EBCECE",
"`3	c #AC3030",
" 4	c #9E2626",
".4	c #B06363",
"+4	c #C92727",
"@4	c #C82727",
"#4	c #EEC0C0",
"$4	c #D05050",
"%4	c #C32424",
"&4	c #A72121",
"*4	c #DAA3A3",
"=4	c #D89D9D",
"-4	c #9C4344",
";4	c #A67878",
">4	c #C52E2E",
",4	c #CF4D4D",
"'4	c #F4D8D8",
")4	c #D05858",
"!4	c #DFAFAF",
"~4	c #E6C2C2",
"{4	c #AA2B2B",
"]4	c #9B5F5F",
"^4	c #9B9090",
"/4	c #B84747",
"(4	c #DB7F7F",
"_4	c #F6DEDE",
":4	c #F4DBDA",
"<4	c #D36B6B",
"[4	c #C33636",
"}4	c #A6191A",
"|4	c #B84848",
"14	c #DCA7A7",
"24	c #ECD1D1",
"34	c #BD5A5A",
"44	c #9A8989",
"54	c #AA6969",
"64	c #BF3030",
"74	c #C02323",
"84	c #CE5656",
"94	c #F6E1E1",
"04	c #D16D6D",
"a4	c #E0AFAF",
"b4	c #E9CACA",
"c4	c #AE3434",
"d4	c #A01010",
"e4	c #9E1515",
"f4	c #9C5353",
"g4	c #AE5858",
"h4	c #C94E4F",
"i4	c #E09B9B",
"j4	c #F3DADA",
"k4	c #F1D5D5",
"l4	c #E1A4A4",
"m4	c #D37C7C",
"n4	c #C95D5D",
"o4	c #BF4545",
"p4	c #B93131",
"q4	c #B42222",
"r4	c #AF1818",
"s4	c #AE1B1B",
"t4	c #B12727",
"u4	c #B63939",
"v4	c #BE4F4F",
"w4	c #D59090",
"x4	c #E6BFBF",
"y4	c #EBCDCC",
"z4	c #D08787",
"A4	c #AD3333",
"B4	c #9A9191",
"C4	c #9D8787",
"D4	c #AD5656",
"E4	c #BC2424",
"F4	c #BB2A2A",
"G4	c #D78383",
"H4	c #F3DDDD",
"I4	c #EACBCB",
"J4	c #A31414",
"K4	c #9D4343",
"L4	c #9A7C7C",
"M4	c #A95C5D",
"N4	c #B82626",
"O4	c #B52120",
"P4	c #BD3D3D",
"Q4	c #C65656",
"R4	c #CC6969",
"S4	c #D38080",
"T4	c #DA9595",
"U4	c #DD9F9F",
"V4	c #E0A8A8",
"W4	c #DFA7A7",
"X4	c #DB9D9D",
"Y4	c #D69090",
"Z4	c #CD7A7A",
"`4	c #C46363",
" 5	c #BB4B4C",
".5	c #B03231",
"+5	c #9C4747",
"@5	c #A07B7B",
"#5	c #A85757",
"$5	c #B22929",
"%5	c #A11010",
"&5	c #9B7373",
"*5	c #9C8888",
"=5	c #A55C5C",
"-5	c #AB3434",
";5	c #AE2727",
">5	c #AE1F1F",
",5	c #AE191A",
"'5	c #A11111",
")5	c #A11717",
"!5	c #9F1D1D",
"~5	c #9E292A",
"{5	c #9C504F",
"]5	c #9A8080",
"^5	c #9B8989",
"/5	c #9C8484",
"(5	c #9D7E7E",
"_5	c #9F7070",
":5	c #A06262",
"<5	c #A05858",
"[5	c #A15353",
"}5	c #A05656",
"|5	c #9E5F5F",
"15	c #9D6C6C",
"25	c #9B7B7B",
"35	c #9B8282",
"45	c #9A8787",
"                                                                                                                                                                                                                                                                                                                                ",
"                                                                                                                                                                                                                                                                                                                                ",
"                                                                                                                                                                                                                                                                                                                                ",
"                                                                                                                                                                                                                                                                                                                                ",
"                                                                                                                                                                                                                                                                                                                                ",
"                                                                                                                                                                                                                                                                                                                                ",
"                                                                                                                                                                                                                                                                                                                                ",
"                                                                                                                                                                                                                                                                                                                                ",
"                                                                                                                                                                                                                                                                                                                                ",
"                                                                                                                                                                                                                                                                                                                                ",
"                                                                                                                                                                                                                                                                                                                                ",
"                                                                                                                                                                                                                                                                                                                                ",
"                                                                                                                                                                                                                                                                                                                                ",
"                                                                                                                                                                                                                                                                                                                                ",
"                                                                                                                                                                                                                                                                                                                                ",
"                                                                                                                                                                                                                                                                                                                                ",
"                                                                                                                                                                                                                                                                                                                                ",
"                                                                                                                                                                                                                                                                                                                                ",
"                                                                                                                                                                                                                                                                                                                                ",
"                                                                                                                                                                                                                                                                                                                                ",
"                                                                              . . . . . . . . . . . . . .                                                                                                                                                                                                                       ",
"                                                                      . . . . . . . . . . . . . . . . . . . . . .                                                                                                                                                                                                               ",
"                                                              . . . . . . . . . . . . . . . . . . . . . . . . . . . . . .                                                                                                                                                                                                       ",
"                                                          . . . . . . . . . . . . . . + @ # $ + . . . . . . . . . . . . . . .                                                                                                                                                                                                   ",
"                                                      . . . . . . . . . . . % & * = - ; > > > > - , ' ) ! . . . . . . . . . . . . .                                                                                                                                                                                             ",
"                                                  . . . . . . . . ~ { ] ^ / ( ( ( ( ( ( ( ( ( ( _ ( : < [ } | 1 2 3 . . . . . . . . .                                                                                                                                                                                           ",
"                                              . . . . . . . . 4 5 6 _ ( ( ( _ ( ( ( 7 8 9 0 a b c : d [ e f g h i j k l . . . . . . . . .                                                                                                                                                                                       ",
"                                            . . . . . . m n o : ( p ( q r s t u v w w w w w w w w w x y z A B C D E F G H I J . . . . . . . .                                                                                                                                                                                   ",
"                                        . . . . . . . K ( ( p ( ( L M w w N O P Q R t S T U V W X Y Z O O N w w `  ...+.@.#.$.%.&.. . . . . . .                                                                                                                                                                                 ",
"                                      . . . . . . *.=.( _ ( -.;.>.w w ,.'.).!.~.( ( ( ( : ( {.d ].} ^./.(._.:.<.w w [.}.|.$.1.2.3.4.&.. . . . . .                                                                                                                                                                               ",
"                                    . . . . . 5.6.( _ ( 7.8.w O >.S 9.( ( ( ( ( ( ( ( 0.( {.d a.} b.c.d.e.D E f.g.h.i.w w j.k.l.m.n.o.p.. . . . . . .                                                                                                                                                                           ",
"                                . . . . . . q.r.( _ s.M N w t.u.v.( ( ( ( ( ( ( ( ( : w.x.y.a.} b.c.d.e.z.E f.G A.B.C.D.E.w w F.G.H.I.J.K.. . . . . . .                                                                                                                                                                         ",
"                              . . . . . L.M.( _ v.N.w N M O.( ( ( ( ( ( ( ( ( ( ( ( : x.y.a.} P.c.d.Q.z.E f.R.A.S.#.T.U.V.W.X.w w Y.Z.`. +.+++. . . . . .                                                                                                                                                                       ",
"                            . . . . . @+#+( _ s.$+w %+&+( ( ( ( ( ( ( ( ( ( ( ( : : x.y.*+=+P.c.d.Q.z.E -+R.A.;+>+T.U.V.,+'+)+!+w w ~+{+]+^+/+(+. . . . . .                                                                                                                                                                     ",
"                          . . . . . { : ( ( _+w Z :+( ( ( ( ( ( ( ( ( ( ( ( ( ( : x.y.*+=+<+[+}+Q.z.E -+R.A.S.>+T.U.V.,+'+n.|+1+2+3+w w 4+5+6+7+8+. . . . . .                                                                                                                                                                   ",
"                          . . . . 9+: ( _ 0+w a+s.( ( ( ( ( ( ( ( ( ( ( ( ( : : b+[ *+=+<+[+}+c+d+e+-+R.f+g+>+T.h+i+,+'+j+|+1+k+`.l+m+w w n+o+p+q+r+. . . . . .                                                                                                                                                                 ",
"                        . . . . s+: p _ t+w u+v.( ( ( ( ( ( ( ( ( ( ( ( ( ( : b+[ *+=+v+[+}+c+d+e+-+w+f+x+y+T.h+i+,+'+z+|+1+A+B+l+C+D+E+F+w G+H+I+J+K+. . . . .                                                                                                                                                                 ",
"                      . . . . L+( ( ( ,.w ;.( ( ( ( ( ( ( ( ( ( ( ( ( ( ( : b+[ M+f v+[+}+c+d+e+-+w+f+g+y+1.h+i+,+N+j+|+1+A+B+l+C+D+O+P+Q+R+w S+T+U+V+W+. . . . .                                                                                                                                                               ",
"                    . . . . L.X+( p Y+w Z+( ( ( ( ( ( ( ( ( ( ( ( ( ( : : b+[ M+f <+`+}+c+d+ @G w+f+g+.@1.h+i++@N+j+@@1+A+B+#@$@D+O+%@&@*@=@-@w ;@>@,@'@)@. . . . .                                                                                                                                                             ",
"                    . . . . !@( ( ~@w {@( ( ( ( ( ( ( ( ( ( ( ( ( w.( : b+a.M+f ]@`+e.c+d+ @G w+^@#..@1./@(@+@N+_@@@J.A+B+#@$@D+O+:@&@*@<@[@}@|@w 1@2@3@4@5@. . . . .                                                                                                                                                           ",
"                  . . . . 6@( _ 7@w 8@( ( ( ( ( ( ( ( ( ( ( ( ( w.0.{.< a.M+f ]@`+e.9@E  @G 0@^@#..@1./@(@+@N+_@@@J.a@B+#@$@D+b@:@&@*@c@[@}@d@e@f@w g@h@i@j@. . . . .                                                                                                                                                           ",
"                . . . . k@: p 9 w l@( ( ( ( ( ( ( ( ( ( ( ( ( : : {.< a.M+b.c.`+e.9@E  @G 0@^@m@.@U./@(@n@N+o@@@J.a@B+#@$@p@b@q@&@*@c@[@r@U+s@t@u@v@w w@x@y@z@. . . . .                                                                                                                                                         ",
"                . . . ~ _ ( ~.A@$+q ( ( ( ( ( ( ( ( ( ( ( ( : ( x.< a.e b.]@`+Q.9@E  @R.0@^@>+B@U./@(@+@C@o@@@J.a@B+#@^+p@b@D@E@q+c@[@F@U+G@H@I@J@K@L@w M@N@O@P@. . . .                                                                                                                                                         ",
"              . . . . Q@( ( R@w S@( ( ( ( ( ( ( ( ( ( ( ( : ( x.d a.e b.g h Q.9@E T@G 0@^@U@B@U./@(@n@C@V@W@k+a@B+X@^+p@b@7+E@q+c@[@F@U+V+H@I@J@Y@Z@`@w  #.#+#@#. . . . .                                                                                                                                                       ",
"              . . . ##: ( $#w %#( ( ( ( ( ( ( ( ( ( ( ( ( ( x.d *+e b.&#h Q.9@e+T@R.0@^@>+B@U.2.,+n@C@V@W@k+a@ +X@^+p@b@7+E@q+*#J+F@U+=#H@I@-#;#Z@>#,#'#w )#!#~#{#. . . . .                                                                                                                                                     ",
"            . . . . ]#( ( ^#%+/#( ( ( ( ( ( ( ( ( ( ( : ( x.d *+e (#&#h Q.D e+T@R.+.B.U@B@U.2.,+n@n.V@W@k+_#l+X@^+:#<#7+E@q+*#J+F@[#=#H@I@}#;#Z@>#y@|#1#w w 2#3#4#5#. . . .                                                                                                                                                     ",
"            . . . k@6#p 7@w u.( ( ( ( ( ( ( ( ( ( ( : ( b+d *+} (#7#h Q.D e+T@8#9#0#a#b#c#c#d#c#e#f#W@k+_#l+X@^+g#<#7+h#<@*#J+i#[#j#H@I@}#;#Z@>#k#l#m#n#o#w p#q#r#s#. . . .                                                                                                                                                     ",
"          . . . . t#( u#N v#( ( ( ( ( ( ( ( ( ( ( : ( b+d *+} (#g h c+D w#x#y#z#Q w w w w N N w A#W@A+_#l+B#D+:#<#7+h#<@*#J+i#[#j#C#I@}#;#D#E#y@|#m#n#F#G#H#L@I#J#K#L#. . . .                                                                                                                                                   ",
"          . . . @+: p Z+w M#( ( ( ( ( ( ( ( ( w.0.: b+d M+} (#c.h c+z.E w w N w w w w w w w w w N#A+_#l+B#D+:#Q+O#h#<@P#}@i#[#j#C#Q#}#i@D#E#R#|#m#n#F#S#T#U#w V#K#W#X#. . . .                                                                                                                                                   ",
"          . . . Y#( _ Z#`#( ( ( ( ( ( ( ( ( ( ( w.b+y.M+} (# $d.c+D  @f.N w w w w N w w w w w N .$_##@B#D+5+Q+&@h#<@P#}@i#[#j#C#Q#}#i@D#E#+$@$#$n#~#S#T#q#$$w w %$&$*$=$. . . .                                                                                                                                                 ",
"        . . . -$#+_ ;$w >$( ( ( ( ( ( ( ( : ( : < y.M+=+]@,$d.c+z. @f.w+w w w w '$)$!$~${$w w w ]$#@B#D+/+Q+^$p+c@P#}@/$G@($C#Q#_$i@:$,#<$@$[$}$~#S#T#|$1$2$3$w 4$5$6$7$. . . .                                                                                                                                                 ",
"        . . . 8$: ( 9$0$( ( ( ( ( ( ( ( ( ( : < y.M+=+]@[+}+9@z. @-+0@+.z#a$b$c$d$e$'+_@f$w w N g$B#p@5+Q+&@p+c@P#}@/$G@j#'@J@_$i@:$,#+$h$#$}$~#S#T#|$1$2$i$j$k$l$m$n$o$. . . .                                                                                                                                                 ",
"        . . . p$( q$Z {@( ( ( ( ( ( ( ( ( : < y.e =+]@[+}+9@z. @-+0@A.g+.@T./@V.+@'+_@|+S+w w w r$p@5+s$&@p+c@P#F@/$G@t$'@J@_$i@:$,#+$@$#$}$~#S#u$|$1$v$i$w$x$y$w z$A$B$. . . .                                                                                                                                                 ",
"      . . . . C$( D$w E$( ( ( ( ( ( : ( : < [ e =+]@F$}+9@d+F -+0@A.g+G$T./@i+n@'+_@H$1+I$w w w J$5+P+E@p+c@K$F@/$G@H@'@J@L$Z@:$,#+$h$+#}$~#M$u$|$1$N$i$w$O$P$Q$w R$S$T$U$. . . .                                                                                                                                               ",
"      . . . V$( _ W$Z ( ( ( ( ( ( ( ( {.< [ e f X$Y$}+9@d+F -+0@f+g+G$T./@i+n@Z$`$H$1+a@ %w w w .%P++%*@c@K$F@/$G@@%'@J@4@Z@:$,##%h$+#$%%%M$u$$$&%*%i$w$O$P$=%-%w ;%>%,%'%. . . .                                                                                                                                               ",
"      . . . )%( ( A@!%( ( ( ( ( : ( {.d [ e f X$~%}+9@d+F -+0@{%g+B@1.2.i+n@N+`$@@1+_#B+ %w w w ]%E@*@*#K$F@d@V+@%^%-#4@Z@:$y@/%h$+#$%%%M$u$$$&%J#(%_%O$P$:%<%[%}%w |%1%2%. . . .                                                                                                                                               ",
"      . . . t#( 3%w 4%( ( ( ( ( ( {.d a.} f X$~%e.D d+F G +.f+g+B@1.2.i+n@N+`$@@J._#B+X@ %w w w 5%*@*#K$6%d@V+t@^%-#4@Z@7%y@/%8%+#$%%%9%q#$$&%N$0%_%O$P$:%<%[%a%b%w c%d%e%. . . .                                                                                                                                               ",
"      . . + f%_ g%w 3%( ( ( : ( {.d a.} ^.X$h%e.D d+T@G +.^@g+$.1.2.(@)+N+`$@@J._#B+B#$@f$w w w i%*#[@6%d@V+j%^%-#Y@Z@7%y@#%h$n#$%%%3#q#$$&%K#0%_%k%6$:%<%l%S$m%n%w o%p%p%. . . . .       q%q%q%q%q%q%q%q%                                                                                                                      ",
"    . . . $ > ( r%A@v.( ( ( ( {.y.a.} f c.s%e.D d+f.G +.f+#.$.1.2.(@)+N+H.@@J._#B+B#$@:#v@w w N t%[@6%d@V+C#^%}#4@D#7%y@N@8%n#$%%%3#q#$$2$K#0%&$k%6$:%<%l%a%m%,%u%v%w%x%y%z%. . . .       q%q%q%q%q%q%q%q%                                                                                                                      ",
"    . . . A%B%( Y+,.C%( ( : x.y.a.} b.c.`+e.D E f.G +.;+#.D%1.V.(@)+n.H.@@k+_# +B#$@5+E%F%w w w G%6%U+j#,@^%}#Y@D#7%+$N@8%n#!#S#3#q#H%2$N$0%&$k%6$:%<%I%a%m%J%K%L%M%N%y%O%P%. . . .       q%q%                                                                                                                                  ",
"    . . . -$_ ( 9$M ( ( : x.y.a.} b.c.h Q.z.E f.G A.^@#.$.U.V.(@'+n.H.W@k+`. +B#^+5+b@:@Q%w w N R%U+j#H@I@_$Y@D#7%+$N@8%}$!#S#3#|$H%2$K#S%&$k%=%:%T%l%a%U%J%K%V%W%X%Y%Z%`% &. . . .       q%q%                          q%            q%                        q%            q%                                                ",
"    . . . L.: /#.&+&: : x.y.*+=+b.c.h Q.z.E f.R.A.^@#.@&U.V.(@'+n.H.W@k+_# +B#^+5+<#7+h##&w w w $&j#H@I@_$Y@D#>#+$N@m#n#!#S#%&|$H%2$K#S%&$&&6$*&T%=&-&m%J%K%d%;&>&,&,&'&)&!&. . . .       q%q%                q%q%q%q%q%q%q%    q%q%q%q%q%q%          q%q%  q%q%q%q%q%    q%q%q%q%q%          q%q%                              ",
"    . . . ~&( {&^#;.: x.y.*+=+b.c.]&Q.z.e+-+R.A.B.#.T.U.i+,+'+n.H.^&k+`. +C+^+5+b@7+p+q+Q%w w N /&H@I@_$;#:$>#+$N@m#}$!#M$%&|$H%2$K#S%&$&&=%*&T%(&-&U%_&:&V%;&<&[&}&|&1&2&3&. . . .       q%q%                q%q%q%          q%q%q%      q%q%        q%q%q%q%    q%q%q%q%q%      q%q%        q%q%                              ",
"    . . . 4&( 3%>.W$x.[ *+=+(#[+}+Q.z.e+-+R.A.B.>+5&h+i+,+'+j+|+^&k+`.l+C+^+5+<#7+6&q+K$v@w w w 7&I@_$;#:$>#/%|#m#}$F#S#%&|$r#J#i$S%&$&&=%8&T%9&-&U%J%:&V%;&0&Z%a&b&c&)&d&e&. . . .       q%q%q%q%q%q%q%q%    q%q%            q%q%          q%q%      q%q%          q%q%q%        q%q%        q%q%                              ",
"    . . . f&( ~.g&h&[ *+=+i&[+d.Q.d+e+-+w+f+B.>+T.h+i+,+'+j+|+W@A+`.l+C+D+O+<#7+p+<@K$}@v@w w w j&_$;#:$E#/%|#m#$%F#S#%&$$r#J#k&l&&$&&=%8&[%9&-&,%_&:&V%;&0&Z%m&`%n&o&p&q&r&. . . .       q%q%q%q%q%q%q%q%    q%q%          q%q%            q%q%      q%q%          q%q%          q%q%                                          ",
"    . . . s&( v.Z#h&*+=+(#[+d.c+d+e+-+w+f+B.y+t&h+i+,+N+j+|+I.A+B+l+C+D+O+<#&@p+<@K$}@d@u&w w w v&;#:$E#/%|#m#$%F#S#T#$$r#J#k&W#O$&&=%8&[%9&-&,%_&:&V%x%0&Z%m&w&x&n&y&z&q&A&. . . .       q%q%                q%q%          q%q%            q%q%      q%q%          q%q%          q%q%                                          ",
"    . . . @+: B&.&C&f (#[+d.c+d+ @G w+f+S..@1.h+i++@N+_@|+D&A+B+l+$@D+O+s$7+*@<@K$}@d@[#Q%w w w E&7%E#/%@$#$$%F#M$T#$$r#J#F&W#O$5$=%8&[%G&H&,%_&:&I&x%0&J&K&w&L&M&N&O&p&q&P&. . . .       q%q%                q%q%          q%q%            q%q%      q%q%          q%q%          q%q%                                          ",
"    . . . -$b+a.Q&R&(#`+d.c+d+ @G w+f+S..@1.h+(@+@N+j+@@D&A+B+#@$@D+O+Q+&@*@<@[@}@d@[#t@Q%w w w S&E#/%@$#$$%F#3#T#$$1$N$F&W#O$5$:%8&T&G&H&,%_&d%I&x%U&J&V&w&W&p&X&Y&Z&`&q& *. . . .       q%q%                q%q%          q%q%            q%q%      q%q%          q%q%          q%q%                                          ",
"    . . . -$.*M++*@*[+}+c+d+ @G w+f+m@.@1./@(@+@N+_@@@I.a@B+#@$@p@O+q@&@*@c@[@}@U+G@t@C#Q%w w w #*N@@$#$$%~#3#T#$$$*N$k&w$O$5$:%n$T&%*H&,%&*d%I&<&U&J&m&**W&p&d&=*-*;*d&q&>*. . . .       q%q%                q%q%          q%q%            q%q%      q%q%          q%q%          q%q%                                          ",
"    . . . ,*'*f )*!*~*9@E  @G w+^@S..@U./@(@+@C@_@@@1+a@B+#@$@p@b@s$&@q+c@[@r@d@G@t@'@J@{*w w N ]*@$#$!#~#3#T#H%1$N$(%w$k%5$:%n$l%G&H&J%&*d%I&<&U&J&K&**W&p&^*/*(*_*:*d&q&<*. . . .       q%q%                q%q%            q%q%        q%q%q%      q%q%          q%q%          q%q%        q%q%                              ",
"      . . $ [*]@}*L@|*E T@G 0@^@S.B@1*/@(@n@C@_@@@1+a@B+#@^+p@b@s$E@q+c@[@F@U+G@t@'@J@Y@2*w w w 3*+#!#~#3#u$H%1$N$(%w$k%5$*&n$l%S$T$J%4*d%5*<&U&a&6***W&p&d&/*d&7*w 8*d&`&. . . . .       q%q%                q%q%              q%q%q%q%q%q%q%        q%q%          q%q%          q%q%        q%q%                              ",
"      . . . 9*`+0*w a*F R.0@^@g+G$U.2.(@n@C@_@@@k+a@B+X@^+p@b@P+E@q+c@[@F@U+G@t@b*J@Y@i@{*w w N c*!#~#3#u$H%1$K#d*w$k%P$*&n$l%S$T$J%&*V%5*<&U&a&K&**W&`&q&d&d&d&e*w f*d&g*. . . .         q%q%                q%q%                q%q%q%q%q%          q%q%          q%q%            q%        q%q%                              ",
"      . . . h*}+9@w i*R.0@^@g+B@U.2.,+n@C@`$W@j*a@l+X@^+p@<#P+E@q+*#J+F@U+V+H@b*J@Y@Z@>#k*w w w l*%%3#u$H%&%K#m*w$&&P$*&<%9&S$T$n*1%V%5*<&o*a&K&x&2&`&/*d&d&d&d&p*w q*d&r*. . . .                                                                                                                                               ",
"      . . . s*9@ @t*u*+.B.g+G$U.2.,+n@n.`$W@J._#l+X@^+:#<#P+E@q+*#J+F@U+V+H@^%}#;#Z@>#y@v*w w N w*3#u$H%&%K#0%_%&&P$*&<%9&S$T$J%1%V%5*0&o*a&x*x&2&`&q&d&d&d&d&d&w w d&q&y*. . . .                                                                                                                                               ",
"      . . . . e+T@z*w A*g+$.h+2.,+n@j+`$W@J._#l+X@^+:#<#P+h#<@*#J+F@[#V+H@^%}#;#Z@>#y@l#k*w w w B*q#r#&%K#0%_%&&P$*&<%9&S$m%_&1%V%p%0&o*a&x*x&2&C*/*q&d&d&d&d&D*w E*d&q&F*. . . .                                                                                                                                               ",
"        . . . G*w+H*P I*B@h+2.,+)+j+`$W@J*_#l+B#D+:#<#D@h#<@*#J+i#[#V+H@K*L*M*N*O*P*Q*R*S*w w N T*U*U*V*W*X*Y*Z*8&<%9&a%m%`*K%V%p%0&o*a&x*x&2&C*^*d&d&d&d&d&d& =w 7*q&d&.=. . .                                                                                                                                                 ",
"        . . . +=+.B.@=#=h+2.+@)+j+`$W@J*_#l+B#D+:#<#D@h#<@*#}@i#[#j#C#$=%=w N N N N N w w w w o&w w N N N N N &=<%9&a%m%_&*=I&p%0&o*O%==x&2&C*/*d&d&d&d&d&d&-=;=>=,=q&'=. . . .                                                                                                                                                 ",
"        . . . )=!=~={=N V.+@)+j+H.I.J*_##@B#D+5+<#^$h#<@P#}@i#[#j#C#I@_$]=w w w w w w w w w w w w w w w w w w ^=G&a%m%/=*=I&p%0&y%O%(=)&p&C*^*d&d&d&d&d&d&d&_=w :=d&d&<=. . . .                                                                                                                                                 ",
"          . . . [=$.h+w }=)+|=H.I.A+_##@B#D+5+Q+7+h#c@P#}@/$G@j#C#I@_$i@1=w w w w w w w w w w w w w w w w w w 2=a%m%&**=I&p%U&y%O%3=)&p&C*/*d&d&d&d&d&d&d&d&4=w 5=d&6==$. . . .                                                                                                                                                 ",
"          . . . 7=U.l.8=9=0=H.1+A+_##@B#p@5+Q+7+p+c@P#a=/$G@j#'@I@_$i@:$b=c=d=e=f=g=h=i=j=k=l=m=n=o=p=q=r=s=t=u=U%&**=I&;&U&y%m&3=)&p&d&^*d&d&d&d&d&d&d&d&v=w w=d&q&x=. . . .                                                                                                                                                   ",
"          . . . . y=+@z=w A=1+B=`.#@C+p@5+Q+7+p+c@P#F@/$G@t$C#C=_$i@:$,#+$@$m#}$~#S#T#|$1$J#i$D=&$5$=%n$A$G&>%U%&**=5*;&U&y%K&1&)&p&d&q&d&d&d&d&d&d&d&d&d&E=w F=q&d&G=. . . .                                                                                                                                                   ",
"            . . . H=I=_@J=K=B=L=X@C+p@O+P+7+p+c@K$F@/$G@t$'@M=4@Z@:$,#+$@$m#}$~#S#u$|$1$J#i$S%O$P$=%n$A$S$-&U%&*:&5*;&o*Z%K&`%)&p&d&q&d&d&d&d&d&d&d&d&d&N=w O=P=q&Q=. . . .                                                                                                                                                     ",
"            . . . R=S=|+T=w U=X@C+p@O+P+7+p+c@K$F@d@V+t$'@Q#4@Z@:$,#/%h$m#}$~#M$u$$$&%J#i$W#O$P$=%n$[%S$-&U%&*:&5*x%o*Z%K&w&L&`&d&q&d&d&d&d&d&d&d&d&d&d&V=w W=d&X=Y=. . . .                                                                                                                                                     ",
"              . . . Z=1+A+`=9= -:#O+P+7+*@*#K$F@d@V+t$'@.-4@Z@:$,#/%h$#$}$%%S#u$|$&%J#i$W#O$P$:%n$[%S$-&,%1%:&5*x%o*Z%K&w&L&`&d&q&d&d&d&d&d&d&d&d&d&d&+-w @-d&q&#-. . . . .                                                                                                                                                     ",
"              . . . . $-%-&-K=*-O+P+&@*@*#K$F@d@V+t$^%J@4@Z@7%y@/%h$#$}$=-3#u$$$&%J#i$--O$P$:%<%[%S$H&,%1%:&p%x%o*J&K&;-L&`&d&q&d&d&d&d&d&d&d&d&d&d&>-,-w '-q&)-5#. . . .                                                                                                                                                       ",
"                . . . !-B#$@~-w {-&@*@*#[@6%d@V+t$^%J@4@D#7%y@/%h$#$$%%%3#q#$$&%J#0%W#k%6$:%<%[%a%H&,%1%d%p%x%o*J&x*;-L&`&^*d&d&d&d&d&d&d&d&d&d&d&d&]-w ^-d&d&>*. . . .                                                                                                                                                         ",
"                . . . . /-:#b@(-w _-*#[@6%d@j#t@^%J@Y@D#7%y@N@8%#$$%%%3#q#$$2$N$0%w$k%P$:%<%l%a%H&,%1%d%p%x%y%J&x***W&C*^*/*d&d&d&d&d&d&d&d&d&d&d&:-w <-d&q&[-=$. . . .                                                                                                                                                         ",
"                  . . . . }-:@|-1-w 2-6%d@j#t@^%J@Y@D#7%y@N@8%+#$%S#3#q#$$2$N$0%w$O$6$:%T%l%a%T$,%K%d%p%x%y%J&x***W&C*^*d&d&d&d&d&d&d&d&d&d&d&d&3-w ,-,=q&4-.=. . . .                                                                                                                                                           ",
"                    . . . 5-h#q+6-7-;@U+j#t@^%J@Y@D#7%+$N@8%#$!#S#3#q#H%2$N$0%w$k%6$:%T%l%a%T$J%K%d%p%<&y%J&x***W&C*^*/*d&d&d&d&d&d&d&d&d&d&d&8-9-0-a-d&q&b-. . . . .                                                                                                                                                           ",
"                    . . . . c-d-e-f-g-h-i-I@_$Y@D#>#+$N@8%j-!#S#%&|$H%2$K#d*k-k%6$*&T%l%a%T$J%K%V%;&<&y%a&`%l-W&C*q&/*d&d&d&d&d&d&d&d&d&d&d&m-w w n-d&d&o-. . . . .                                                                                                                                                             ",
"                      . . . . p-/$q-r-w s-J@Y@:$>#+$N@m#+#!#S#%&|$H%J#K#d*t-k%=%*&A$9&-&T$J%*=V%;&<&y%a&`%**W&d&q&d&d&d&d&d&d&d&d&d&d&d&d&u-v-o&w-d&q&x-. . . . .                                                                                                                                                               ",
"                        . . . . y-j#C#z-f$A-B-E#+$|#m#+#!#%%%&|$r#J#K#d*C-&&=%*&T%9&-&m%J%K%V%;&<&Z%a&`%x&2&d&q&d&d&d&d&d&d&d&d&d&d&d&d&D-w v%E-d&q&F-. . . . .                                                                                                                                                                 ",
"                          . . . . G-I@L$H-I-w J-|#m#n#F#M$%&$$r#J#K#d*&$&&=%*&[%9&-&T$_&:&V%;&0&Z%a&`%K-2&d&q&d&d&d&d&d&d&d&d&d&d&d&d&L-w M-N-q&q&O-P-. . . . .                                                                                                                                                                 ",
"                          . . . . . Q-;#R-S-T-w U-V-F#%%T#$$r#J#k&W#W-&&=%8&[%9&-&m%_&X-V%;&0&Z%a&w&L&2&d&q&d&d&d&d&d&d&d&d&d&d&d&Y-Z-w ;*Y-d&`- ;P-. . . . .                                                                                                                                                                   ",
"                            . . . . . .;+;/%|#@;L@#;$;T#$$r#J#k&W#_%5$:%8&[%G&H&U%_&:&I&x%0&Z%m&w&)&2&^*q&d&d&d&d&d&d&d&d&d&d&)&%;w N @-d&q&d&&;. . . . . .                                                                                                                                                                     ",
"                              . . . . . *;=;#$n#-;;;w >;,;N$k&W#&$5$:%8&[%G&H&m%&*:&I&x%0&Z%m&w&x&p&d&q&d&d&d&d&d&d&d&d&d&d&';);w !;~;d&q&q&{;. . . . . .                                                                                                                                                                       ",
"                                . . . . . . ];F#3#T#T*A-w ^;/;&$5$:%8&[%G&H&U%&*(;I&x%U&J&m&**)&p&^*/*d&d&d&d&d&d&d&d&p&8-_;w !;:;d&q&q&<;[;. . . . . .                                                                                                                                                                         ",
"                                    . . . . };|;T#$$1$1;2;w v-3;4;n$l%G&H&U%&*5;5*<&U&J&m&w&W&p&^*q&d&d&d&d&d&d&d&d&6;7;v%w 8;9;d&d&d&0;.=. . . . . .                                                                                                                                                                           ",
"                                      . . . . . a;b;J#(%w$c;d;e;w f;g;h;i;&*(;5*<&U&J&K&**W&p&d&/*d&d&d&d&d&'-j;k;o&w >=l;m;d&q&d&n;o;. . . . . .                                                                                                                                                                               ",
"                                        . . . . . . p;q;k%P$*&n$r;s;w w v%t;u;v;w;a&K&**)&p&q&q&d&d&x;6;y;9-v%w w z;A;d&d&d&q&B;C;. . . . . . .                                                                                                                                                                                 ",
"                                            . . . . . . D;E;8&9&S$T$F;G;H;I;y&w w w y&}&J;K;L;O=c&w w w N Z-M;N;O;d&d&q&q&P;Q;. . . . . . . .                                                                                                                                                                                   ",
"                                              . . . . . . . + R;S;T;1%V%5*0&o*U;V;W;X;Y;4=Z;`; >.>+>@>#>d&d&q&q&q&$>%>&>*>. . . . . . . .                                                                                                                                                                                       ",
"                                                  . . . . . . . R==>->;>;&>>a&`%x&,>`&d&d&d&d&d&d&d&d&q&q&q&d&'>)>!>~>. . . . . . . .                                                                                                                                                                                           ",
"                                                      . . . . . . . . . . {>]>^>/>(>_>:>:>:>:><>[>}>|>1>2>3>. . . . . . . . . . . .                                                                                                                                                                                             ",
"                                                          . . . . . . . . . . . . 4>~>5>5>5>5>5>6>7>=$. . . . . . . . . . . .                                                                                                                                                                                                   ",
"                                                              . . . . . . . . . . . . . . . . . . . . . . . . . . . . . .                                                                                                                                                                                                       ",
"                                                                      . . . . . . . . . . . . . . . . . . . . . .                                                                                                                                                                                                               ",
"                                                                              . . . . . . . . . . . . . .                                                                                                                                                                                                                       ",
"                                                                                  . . . . . . . . . .                                                                                                                                                                                                                           ",
"                                                                                  . . . . . . . . . .                                                                                                                                                                                                                           ",
"                                                                                  . . . . . . . . . .                                                                                                                                                                                                                           ",
"                                                                                  . . . . . . . . . .                                                                                                                                                                                                                           ",
"                                                                                  . . . . . . . . . .                                                                                                                                                                                                                           ",
"                                                                                  . . . . . . . . . .                                                                                                                                                                                                                           ",
"                                                                                  . . . . . . . . . .                                                                                                                                                                                                                           ",
"                                                                                  . . . . . . . . . .                                                                                                                                                                                                                           ",
"                                                                                  . . . . . . . . . .                                                                                                                                                                                                                           ",
"                                                                                  . . . . . . . . . .                                                                                                                                                                                                                           ",
"                                                                                  . . . . . . . . . .                                                                                                                                                                                                                           ",
"                                                                                  . . . . . . . . . .                                                                                                                                                                                                                           ",
"                                                                                  . . . . . . . . . .                                                                                                                                                                                                                           ",
"                                                                                  . . . . . . . . . .                                                                                                                                                                                                                           ",
"                                                                                  . . . . . . . . . .                                                                                                                                                                                                                           ",
"                                                                                  . . . . . . . . . .                                                                                                                                                                                                                           ",
"                                                                                  . . . . . . . . . .                                                                                                                                                                                                                           ",
"                                                                                  . . . . . . . . . .                                                                                                                                                                                                                           ",
"                                                                                  . . . . . . . . . .                                                                                                                                                                                                                           ",
"                                                                                  . . . . . . . . . .                                                                                                                                                                                                                           ",
"                                                                                  . . . . . . . . . .                                                                                                                                                                                                                           ",
"                                                                                  . . . . . . . . . .                                                                                                                                                                                                                           ",
"                                                                                  . . . . . . . . . .                                                                                                                                                                                                                           ",
"                                                                                  . . . . . . . . . .                                                                                                                                                                                                                           ",
"                                                                                  . . . . . . . . . .                                                                                                                                                                                                                           ",
"                                                                                  . . . . . . . . . .                                                                                                                                                                                                                           ",
"                                                                                  . . . . . . . . . .                                                                                                                                                                                                                           ",
"                                                                                  . . . . . . . . . .                                                                                                                                                                                                                           ",
"                                                                                  . . . . . . . . . .                                                                                                                                                                                                                           ",
"                                                                                  . . . . . . . . . .                                                                                                                                                                                                                           ",
"                                                                                  . . . . . . . . . .                                                                                                                                                                                                                           ",
"                                                                                  . . . . . . . . . .                                                                                                                                                                                                                           ",
"                                                                                  . . . . . . . . . .                                                                                                                                                                                                                           ",
"                                                                                  . . . . . . . . . .                                                                                                                                                                                                                           ",
"                                                                                  . . . . . . . . . .                                                                                                                                                                                                                           ",
"                                                                                  . . . . . . . . . .                                                                                                                                                                                                                           ",
"                                                                                  . . . . . . . . . .                                                                                                                                                                                                                           ",
"                                                                                  . . . . . . . . . .                                                                                                                                                                                                                           ",
"                                                                                  . . . . . . . . . .                                                                                                                                                                                                                           ",
"                                                                                  . . . . . . . . . .                                                                                                                                                                                                                           ",
"                                                                                  . . . . . . . . . .                                                                                                                                                                                                                           ",
"                                                                                  . . . . . . . . . .                                                                                                                                                                                                                           ",
"                                                                                  . . . . . . . . . .                                                                                                                                                                                                                           ",
"                                                                                  . . . . . . . . . .                                                                                                                                                                                                                           ",
"                                                                                  . . . . . . . . . .                                                                                                                                                                                                                           ",
"                                                                                  . . . . . . . . . .                                                                                                                                                                                                                           ",
"                                                                                  . . . . . . . . . .                                                                                                                                                                                                                           ",
"                                                                                  . . . . . . . . . .                                                                                                                                                                                                                           ",
"                                                                                . . . . . . . . . . . . .                                                                                                                                                                                                                       ",
"                                                                      . . . . . . . . . . . . . . . . . . . . . . .                                                                                                                                                                                                             ",
"                                                                . . . . . . . . . . . . . . . . . . . . . . . . . . . . .                                                                                                                                                                                                       ",
"                                                          . . . . . . . . . . . . . . . . . . . . . . . . . . . . . . . . . .                                                                                                                                                                                                   ",
"                                                      . . . . . . . . . . 8>8$9>)%0>a>b>c>> ; d>5 e>f>g>h>i>$ . . . . . . . . . .                                                                                                                                                                                               ",
"                                                  . . . . . . . . . j>k>l>B%6#: ( ( ( ( ( ( ( ( ( ( : b+m>n>o>p>q>. . . . . . . . . .                                                                                                                                                                                           ",
"                                              . . . . . . . . 9>r>s>( ( ( ( ( ( ~.c t>u>v>0 w>x>y>z>A>6 e f &#`+B>9@C>D>E>. . . . . . . .                                                                                                                                                                                       ",
"                                            . . . . . . . F>6#_ ( ( _ ( G>H>I>J>P O N N N N N N N O O O @=K>L>e.M>E  @N>O>P>R=. . . . . . . .                                                                                                                                                                                   ",
"                                        . . . . . . @ Q>#+( ( _ ( ;$8@,.w w w J>R>I>S>{@7@T>7@U U>V>W>Z#w w w w X>Y>Z>`>^@ ,B@.,+,. . . . . . .                                                                                                                                                                                 ",
"                                      . . . . . + @,: ( ( ( /##,$,w O %,&,*,=,( ( ( ( ( ( ( x.< *+e b.c.h -,;,d#L@w w >,,,',),/@,+!,};. . . . . .                                                                                                                                                                               ",
"                                    . . . . . V$~,: ( p =,{,],w P S b ^,( ( ( ( ( ( ( : ( x.d *+e b.c.h Q.9@e+T@/,(,_,w w :,<,(@n@n.[,},. . . . . . .                                                                                                                                                                           ",
"                                  . . . . + *.|,( ( q 1,w w %+2,( ( ( ( ( ( ( ( ( ( : w.x.d *+} b.[+h Q.9@e+f.R.+.B.>+3,4,9=w L@5,6,^&k+7,8,. . . . . .                                                                                                                                                                         ",
"                              . . . . . @ , : 9,0,a,b,w c,d,/#( ( ( ( ( ( ( ( ( ( : ( b+d *+} (#[+h Q.D e+T@w++.B.>+$.h+2.e,f,w w g,h,`.l+i,j,. . . . . .                                                                                                                                                                       ",
"                            . . . . . k,l,( _ ~.W$w m,n,( ( ( ( ( ( ( ( ( ( ( ( : : b+d *+o,(#p,h c+D e+f.w+A.B.>+$.h+2.+@)+j+q,r,w w s,t,D+5+u,. . . . . .                                                                                                                                                                     ",
"                          . . . . . { r.( p 7 A@w v,q ( ( ( ( ( ( ( ( ( ( ( ( : ( b+y.M+} <+[+d.c+D  @f.w++.B..@$.h+V.+@)+j+|+I.k+w,w w x,y,Q+O#z,. . . . . .                                                                                                                                                                   ",
"                          . . . . A,_ ( ( w>N N %#( ( ( ( ( ( ( ( ( ( ( ( ( : : b+y.M+} (#`+d.c+z. @f.w+A.S..@$.h+V.+@'+j+|+I.A+_##@B,C,w #&D,=@<@E,. . . . . .                                                                                                                                                                 ",
"                        . . . . F,6#_ ( H>w a+G,( ( ( ( ( ( ( ( ( ( ( ( : : ( < y.M+=+(#`+d.9@z. @f.0@^@S..@$./@V.+@'+_@@@I.a@_##@B#p@b@H,w L@I,P#}@J,. . . . .                                                                                                                                                                 ",
"                      . . . . k@6#( ( Z+w 8.K,( ( ( ( ( ( ( ( ( ( ( ( ( ( : < y.M+L,]@`+}+9@z. @-+0@M,S..@T./@V.+@Z$_@@@1+a@`.#@C+p@N,Q+&@O,w w P,Q,G@R,. . . . .                                                                                                                                                               ",
"                    . . . . 8>X+_ ( S,w ,.C%( ( ( ( ( ( ( ( ( ( ( ( : ( : < [ e =+]@`+}+9@z. @-+0@A.g+G$T./@V.n@'+_@@@1+a@`.#@C+p@5+s$E@p+c@t%N w T,,@'@U,. . . . .                                                                                                                                                             ",
"                    . . . . V,( ( W,w X,C%( ( ( ( ( ( ( ( ( ( ( ( ( ( : < [ e =+g `+}+9@d+F -+0@f+g+G$T./@i+n@'+`$@@1+a@B+X@C+:#O+P+E@*@c@K$F@R%w v%Y,J@S-Z,. . . . .                                                                                                                                                           ",
"                  . . . . `,( _  'w $+3%( ( ( ( ( ( ( ( ( ( ( ( : ( : d [ e =+]@h }+9@z.F -+0@O>g+G$T./@i+n@N+`$W@1+a@B+X@$@p@O+P+E@p+*#K$F@d@G@.'w v@+'Z@@'. . . . .                                                                                                                                                           ",
"                . . . . 9+: _ K,],A@q ( ( ( ( ( ( ( ( ( ( ( ( ( ( {.d [ e f g h }+D d+F -++.{%g+B@1.2.i+n@N+`$W@1+_#B+X@C+:##'P+E@*@*#K$6%/$V+H@^%$'w %'&'y@*'. . . . .                                                                                                                                                         ",
"                . . . ~ _ ( ( t.w r ( ( ( ( ( ( ( ( ( ( ( ( : ( {.d a.e ='X$h e.D d+F G +.f+#.$.1.2.(@n@-'`$W@J._#B+X@$@:#O+P+E@*@*#K$6%;'V+H@^%-#4@>'w ,'#%'')'. . . .                                                                                                                                                         ",
"              . . . . !'( _ ~'w 2,( ( ( ( ( ( ( ( ( ( ( ( ( ( {.d a.} f g d.e.D d+f.G +.f+#.$.1.2.(@)+N+`$I.J._#B+X@$@:#O+D@h#*@*#[@6%d@V+C#^%-#Y@D#{'w w ]'n#^'. . . . .                                                                                                                                                       ",
"              . . . /': p ('_'R>( ( ( ( ( ( ( ( ( ( ( ( : ( x.y.a.} b.c.h e.D E f.G +.^@#.$.1.V.(@)+N+H.I.J._# +B#$@:#b@D@h#*@*#[@6%:'j#C#^%-#Y@D#7%y@<'w ['}'S#{#. . . . .                                                                                                                                                     ",
"            . . . . - ( ( S>w >$( ( ( ( ( ( ( ( ( ( ( ( : x.y.a.} f c.d.Q.z.E f.|'1'2'3'4'5'6'7')+n.H.I.J.`. +B#$@5+E%D@h#q+P#[@6%U+j#C#^%_$Y@D#7%+$l#O@8'w 9'3#0'a'. . . .                                                                                                                                                     ",
"            . . . b'_ _ S@w :+( ( ( ( ( ( ( ( ( ( ( : : x.y.*+=+P.c.c'Q.d'e'f'w N N w N w w w w g'h'i'k+_# +B#^+5+j'D@h#q+P#[@/$U+j#,@I@_$Y@D#>#+$N@8%}$k'w N l'm'n'. . . .                                                                                                                                                     ",
"          . . . . t#( ( X,],9.( ( ( ( ( ( ( ( ( ( ( : x.y.*+=+b.c.d.o'p'q'w w w o&w w w w w w N w w c#r' +B#^+5+s'D@p+q+P#J+/$U+j#C#I@_$Y@D#>#+$|#m#}$!#S#t'w u'2$K#};. . . .                                                                                                                                                   ",
"          . . . i>: ( ('w v'( ( ( ( ( ( ( ( ( ( : : x.[ *+=+b.[+}+Q.w'w w w o&N w w w w w w w w N w N N x'y'5+<#7+p+q+K$J+/$U+t$'@I@_$;#:$>#+$|#m#}$!#S#%&z'A'B'C'S%D'. . . .                                                                                                                                                   ",
"          . . . E'( ( F'w ( ( ( ( ( ( ( ( ( ( ( : x.[ *+=+<+c.}+Q.z.G'N w N N w F.H'I'J'K'L'M'w N N w N w N'O'7+p+<@K$J+/$[#t$'@Q#_$;#:$E#+$P'm#}$!#M$%&|$Q'R'w S'&$T'=$. . . .                                                                                                                                                 ",
"        . . . -$l>_ ('w '.( ( ( ( ( ( ( ( ( : : b+[ *+=+(#[+}+Q.d+e+U'N w V'W'X'h+i+,+N+j+|+1+Y'Z'w N w N w `'p+<@K$J+/$[#t$'@Q#4@;#:$E#/%P'm#}$F#S#%&|$r#J# )w .)&&6$+). . . .                                                                                                                                                 ",
"        . . . h>: ( @)N z>( ( ( ( ( ( ( ( ( : b+[ *+f <+[+}+c+d+e+-+#)$)%).@T.h+i++@'+j+|+1+A+B+#@&)N w w N *)<@K$}@d@[#t$'@Q#4@;#:$E#/%|##$$%F#S#T#$$r#J#i$W#=)w -)n$o$. . . .                                                                                                                                                 ",
"        . . . p$( ( ~@;)( ( ( ( ( ( ( ( ( : b+[ M+f (#[+e.c+d+e+-+w+>)S..@1.h+i++@N+j+|+J.A+B+l+$@,)x,w w N w ')}@d@[#t$^%Q#4@i@7%E#/%''#$$%F#M$T#$$r#J#0%W#O$))w s=[%G&. . . .                                                                                                                                                 ",
"      . . . . C$( ( N !)( ( ( ( ( ( w.0.: b+[ M+f ]@`+e.c+d+ @G w+f+S..@1.h+i++@N+_@@@J.A+B+#@$@D+O+~)w w w N {)d@[#t@^%Q#4@i@7%E#/%''#$$%~#M$T#$$1$N$0%W#k%5$r;v-])G&H&U$. . . .                                                                                                                                               ",
"      . . . L+( _ b w K,( ( ( ( ( : 0.{.< a.M+f ^)`+e.c+d+ @G w+^@m@.@1./@(@+@N+/)@@J.A+B+#@$@D+O+q@()w w w w _)G@t@^%.-4@i@7%,#N@:)#$$%~#3#T#$$$*N$0%W#k%5$:%8&#;w <),%'%. . . .                                                                                                                                               ",
"      . . . )%( ( ;.>.( ( ( ( ( : ( x.< a.e b.]@`+e.9@E  @G 0@^@S.G$[)/@(@n@N+_@@@J.a@B+#@$@p@b@q@E@})N w w N |)t@^%J@Y@i@>#,#N@@$+#$%~#3#T#H%1$N$0%w$k%5$:%n$l%1)w 2)&*3). . . .                                                                                                                                               ",
"      . . . 4)( ( _'5)( ( ( ( : ( x.< *+e b.]@`+Q.9@E F G 0@^@g+~=U./@(@n@C@_@@@J.a@B+#@^+p@b@P+E@q+6)w w w N 7)^%J@Y@i@7%,#N@h$+#!#~#3#u$H%1$N$d*w$k%5$*&n$l%S$8)w 9)V%e%. . . .                                                                                                                                               ",
"      . . + ~,_ K,O 7@( ( ( : ( x.< a.e b.X$h e.9@E T@R.0@^@g+B@U./@(@n@C@_@W@k+a@ +X@^+p@b@P+E@q+c@0)w w N w a)J@Y@Z@>#,#N@h$+#!#~#3#u$H%1$K#d*w$k%P$*&n$l%b)T$J%w c)5*p%. . . . .                                               q%                                                                                            ",
"    . . . # > ( z>N ).( ( : ( x.d *+e b.g h Q.9@e+T@R.+.B.d)B@e)2.,+n@C@V@W@k+a@l+X@^+:#b@f)E@q+*#g)f$o&w w h)J@;#Z@>#y@N@i)+#!#%%3#q#H%&%K#d*w$&&P$*&<%l%b)T$J%1%j)v%k)y%l). . . .     q%q%            q%q%            q%q%      q%q%                                                                                          ",
"    . . . A%B%( m)w -.( : ( x.d *+} b.g h Q.D e+T@w++.B.d)B@U.2.,+n@j+`$W@k+_#l+X@^+:#<#n)h#<@*#J+o)w w N w p);#Z@>#y@l#m#+#!#%%3#u$r#&%K#d*_%&&P$*&<%9&b)m%_&1%V%q)v%r)a&s). . . .     q%q%          q%q%q%q%          q%q%      q%q%                                                                                          ",
"    . . . -$_ ( S,w t): ( x.d *+} (#g h Q.D e+T@R.+.B.u)$.h+2.,+n@j+`$W@k+_#l+X@^+:#<#D@h#q+*#J+v)w N w o&w);#Z@E#y@l#x)n#!#%%3#q#r#&%k&d*_%&&P$*&<%9&a%m%J%1%V%p%y)o&z)`%A). . . .     q%q%          q%q%q%q%          q%q%      q%q%                                                                                          ",
"    . . . L.: ( N.w 0.( b+d *+} (#g h c+D e+f.w++.B.#.$.h+2.+@)+j+`$W@A+_#l+B#D+:#<#D@h#<@*#J+B)Q%N w N w N*Z@E#y@l#C)n#F#%%%&q#r#&%k&W#_%&&6$8&<%9&-&m%_&1%I&p%0&D)N E)x&!&. . . .     q%q%          q%q%q%q%        q%q%q%      q%q%                                                                                          ",
"    . . . ~&( ( :+w ( {.y.M+} (#c.d.c+D e+f.w++.B.>+$.h+V.+@)+j+H.I.A+_#l+B#D+:#<#^$h#<@P#}@i#F)w o&N w G)D#E#y@|#C)n#F#S#T#q#r#2$k&W#_%&&6$8&<%G&a%m%_&*=I&p%0&y%H)N I)2&3&. . . .       q%q%        q%    q%        q%q%        q%q%  q%q%q%q%q%            q%q%q%q%q%q%          q%q%  q%q%q%q%      q%q%q%q%q%q%          q%",
"    . . . 4&( : S w b+y.M+} (#J)d.c+D  @f.w++.S.K)$./@V.+@)+j+L)I.A+_##@B#D+5+Q+O#h#<@P#}@i#M)N N o&w N)D#E#+$@$[$n#F#S#T#q#r#O)k&W#&$5$6$8&T%G&-&m%_&*=I&p%0&y%O%P)w Q)C*e&. . . .       q%q%        q%    q%        q%q%        q%q%q%      q%q%q%        q%q%q%      q%q%        q%q%q%q%          q%q%      q%q%q%        q%",
"    . . . f&( ( r%w y.M+} ]@c.d.c+z. @f.w+A.S.#.T./@V.+@)+_@H.I.A+_##@B#D+5+Q+D@h#c@P#}@/$R)N w N w S)D#E#+$@$8%}$~#S#T#q#1$2$k&W#&$5$6$8&A$G&a%U%_&*=I&;&U&y%m&w&W;w T)q&r&. . . .       q%q%      q%q%    q%q%      q%q%        q%q%          q%q%        q%q%          q%q%      q%q%q%          q%q%          q%q%        q%",
"    . . . s&( : U)w M+=+]@c.d.c+z. @f.w+A.S.y+T./@V.+@'+_@H.I.a@`.#@B#p@5+Q+7+p+c@P#}@/$V)w N N N W):$,#+$@$m#}$~#S#T#|$1$2$i$X)&$5$=%n$A$G&H&U%&**=I&;&U&Y)O%**)&Z)N `)q& !. . . .         q%q%    q%q%    q%q%      q%q%        q%q%          q%q%      q%q%            q%q%      q%q%            q%q%            q%q%        ",
"    . . . @+: < .!w =+]@c.}+9@z. @-+0@A.S.y+T./@V.n@'+_@H.1+a@_##@C+p@5+Q+7+p+c@K$F@/$+!N w N w @!:$,#+$@$m#}$~#S#u$|$1$2$i$w$&$5$=%n$A$G&-&U%4**=5*;&U&Z%K&**)&p&#!N $!q&%!. . . .         q%q%    q%        q%    q%q%          q%q%          q%q%      q%q%q%q%q%q%q%q%q%q%      q%q%          q%q%q%q%q%q%q%q%q%q%q%        ",
"    . . . -$d [ &!w *![+}+=!d+ @-+0@A.g+G$T./@i+n@'+_@|+1+B=B+X@C+p@O+Q+-!p+c@K$F@/$;!w N w N >!,!,#'!)!!!}$~#S#u$|$1$J#i$D=O$P$=%n$A$S$>%,%&*:&5*;&U&~!K&**)&p&d&{!o&]!q&^!. . . .         q%q%    q%        q%q%  q%q%          q%q%          q%q%      q%q%q%q%q%q%q%q%q%q%      q%q%          q%q%q%q%q%q%q%q%q%q%q%        ",
"    . . . -$.*e /!w (!}+9@d+F -+0@f+g+.@T.2.i+n@'+`$|+1+a@B+X@C+p@5+P+&@*@*#K$F@/$_!w N N w :!:$,#/%h$m#$%%%S#u$|$&%J#i$w$O$P$=%<%[%S$-&U%1%:&5*x%o*Z%K&**L&`&d&d&<!o&8-q&[!. . . .         q%q%  q%q%        q%q%  q%q%          q%q%          q%q%      q%q%                      q%q%          q%q%                          ",
"    . . . ,*}!f |!w 1!9@d+F -+0@f+g+.@1.2.i+n@N+`$|+1+a@B+X@C+p@O+P+7+*@*#K$F@d@2!N o&w N 3!S-y@/%h$m#$%%%M$u$$$&%J#0%X)O$P$:%n$[%S$H&,%1%:&5*x%o*Z%x***L&`&d&q&d&;*v%4!q&5!. . . .         q%q%  q%q%        q%q%q%q%q%          q%q%          q%q%      q%q%                      q%q%            q%q%                        ",
"      . . $ [*&#6!O _.d+f.G +.f+g+G$1.2.i+)+N+`$@@1+_#B+X@$@:#O+P+&@*@*#K$F@d@7!w o&N N 8!7%y@/%h$V-$%%%M$u$$$&%J#0%_%O$P$:%<%[%S$m%,%1%:&p%x%o*9!0!x&L&C*^*d&d&d&y&9-`&`&. . . . .           q%q%q%q%        q%q%q%q%            q%q%          q%q%        q%q%                    q%q%            q%q%                      q%",
"      . . . a!F$e.P b!f.G +.f+#.c!1.2.(@)+N+`$@@J._#B+X@$@:#O+P+&@*@*#[@6%d@d!w o&w N 2*e!y@/%8%#$$%%%3#q#$$&%N$0%f!k%6$:%<%[%a%g!,%1%d%p%x%o*J&x*x&L&`&^*/*d&d&N=w );d&g*. . . .             q%q%q%            q%q%q%            q%q%          q%q%        q%q%q%        q%q%      q%q%              q%q%q%        q%        q%",
"      . . . h!e.D i!j!G +.^@#..@1.2.(@)+N+`$k!J._#B+B#$@:#b@:@l!*@*#[@6%d@m!w o&N N n!o!y@N@8%V-$%%%3#q#$$2$N$0%_%k%6$:%<%l%a%H&J%K%d%p%<&o*p!x*x&W&C*^*d&d&d&d&q!w r!d&s!. . . .             q%q%q%            q%q%q%            q%q%          q%q%            q%q%q%q%q%q%        q%q%                q%q%q%q%q%q%q%        q%",
"      . . . s*9@E t!w +.^@#..@U.V.(@)+n.H.@@J._# +B#$@:#b@:@u!q+P#[@6%d@v!w o&w w w!e!+$N@8%#$!#S#3#q#H%2$N$0%_%k%6$:%T%l%a%H&J%K%d%p%<&y%J&x*)&W&C*^*/*d&d&d&d&Z;w O;q&y*. . . .                                                                                                                                               ",
"      . . . . E f.G w x!#.B@U.V.(@)+n.H.@@J.a@ +B#^+5+b@:@y!q+P#[@6%U+z!N N N N A!B!+$N@8%+#!#S#3#|$H%2$N$0%_%k%6$*&T%l%a%T$J%K%d%p%<&y%a&x*)&W&C*^*/*d&d&d&d&C!y&D!d&q&F*. . . .                                                                                                                                               ",
"        . . . E!R.A.F!G!B@U.V.,+'+n.H.W@k+`. +C+^+5+b@D@u!q+P#J+/$U+H!N w w w w I!J!J!K!L!M!N!O!P!Q!R!S!T!U!Y*c;*&T%l%a%T;J%K%V%;&<&y%a&`%)&W&C*q&/*d&d&d&d&d&V!v%E*d&q&.=. . .                                                                                                                                                 ",
"        . . . W!A.B.X!%,Y!V.,+'+n.H.W@k+_#l+C+^+5+<#7+Z!q+P#J+/$U+j#`!w w w o&o&w N N N N N N N N N N N N N N  ~T%9&-&U%J%*=V%;&<&y%.~`%l-2&d&q&d&d&d&d&d&d&d&M;w +~q&@~. . . .                                                                                                                                                 ",
"        . . . )=#~$~%~w &~,+'+n.|+W@k+`.l+C+^+5+<#7+E@q+K$J+/$U+t$H@*~w w w w w w w w w w w w w w w w w w w w =~9&-&T$J%:&V%;&0&Z%a&`%)&2&d&q&d&d&d&d&d&d&d&d&w w -~q&<=. . . .                                                                                                                                                 ",
"          . . . ;~$.h+>~,~'+j+|+W@A+`.l+C+D+5+<#&@h#<@K$J+/$[#t$H@Q#'~w w w w w w w w w w w w w w w w w w w w )~-&m%_&:&V%;&0&Z%a&w&)&2&d&q&d&d&d&d&d&d&d&d&!~w L-d&g*. . . . .                                                                                                                                                 ",
"          . . . ~~h+i+7'w {~|+I.A+B+l+C+D+O+<#7+h#<@K$J+d@[#t$C#Q#4@v&]~^~/~(~_~f=:~<~i=j=[~l=m=n=o=}~|~r=s=1~G;U%_&:&I&x%0&Z%O%w&L&2&^*q&d&d&d&d&d&d&d&d&-~2~c&3~q&4~. . . .                                                                                                                                                   ",
"          . . . . y=+@m.5~6~I.A+B+#@$@D+O+Q+&@*@<@K$}@d@[#t$C#Q#4@i@:$E#/%|##$7~F#3#T#$$r#J#k&W#O$5$:%8&[%9&H&8~_&:&I&x%0&Z%m&w&K-p&d&/*d&d&d&d&d&d&d&d&d&~;w 9~$>q&0~. . . .                                                                                                                                                   ",
"            . . . H=a~b~c~w d~B+l+$@D+O+s$O#e~<@[@}@d@[#t$f~Q#L$i@7%E#/%@$#$n#~#3#T#$$r#J#F&W#O$5$:%8&[%G&H&U%&*d%I&x%0&Z%V&w&L&p&^*/*d&d&d&d&d&d&d&d&d&d&}&w q*q&g~. . . .                                                                                                                                                     ",
"            . . . };h~@@I.i~j~#@$@p@O+Q+&@k~c@[@}@d@G@t@C#Q#Y@i@7%E#/%@$#$}$~#3#T#$$1$N$k&W#k%5$:%8&T&G&H&l~&*d%I&x%U&J&m&w&W&p&^*q&d&d&d&d&d&d&d&d&d&d&#!w m~d&n~0~. . . .                                                                                                                                                     ",
"              . . . o~I.a@p~w q~p@b@Q+&@r~c@[@r@d@G@t@'@Q#Y@i@7%,#N@@$#$}$~#3#T#$$1$N$k&W#k%5$:%n$l%G&H&l~&*d%5*<&U&J&K&w&W&p&d&/*d&d&d&d&d&d&d&d&d&d&,=s~!;t~q&&;. . . . .                                                                                                                                                     ",
"              . . . . u~B+X@v~c)w~s$&@x~c@[@F@U+G@t@'@J@Y@i@7%,#N@@$+#y~~#3#u$H%1$N$i$w$k%5$:%n$l%G&T$n*&*d%5*<&U&J&K&**W&p&^*/*d&d&d&d&d&d&d&d&d&d&d&z~w +>q&d&. . . . .                                                                                                                                                       ",
"                . . . A~X@B~p@C~n+E@r~c@[@F@U+G@H@'@J@Y@Z@>#,#N@h$+#}$~#3#u$H%1$N$m*w$D~P$*&n$l%S$T$U%4*(;5*<&U&J&E~**F~`&/*/*d&d&d&d&d&d&d&d&d&d&d&G~w 9~d&d&H~. . . .                                                                                                                                                         ",
"                . . . . I~p@E%J~Z K~*#J+F@U+G@H@'@J@;#Z@>#,#N@h$+#}$%%3#u$H%1$K#i$w$&&P$*&n$9&S$T$U%1%V%5*<&U&a&x***W&`&q&d&d&d&d&d&d&d&d&d&d&d&d&L~w M~N~q&O~};. . . .                                                                                                                                                         ",
"                  . . . . P~:@E@Q~w R~6%U+V+H@'@-#Y@Z@>#,#l#h$+#$%%%3#u$H%&%K#(%_%&&P$*&<%9&S$T$,%1%V%5*0&o*a&K&x&2&`&d&d&d&d&d&d&d&d&d&d&d&d&d&S~,-w T~q&U~4>. . . .                                                                                                                                                           ",
"                    . . . V~W~<@*#X~w Y~V+H@$=J@;#Z@>#y@l#8%+#!#%%3#q#r#&%K#0%_%&&P$8&<%9&S$T$_&1%V%p%0&o*a&x*x&2&`&q&d&d&d&d&d&d&d&d&d&d&d&d&Z~`~w e*q&d& {. . . . .                                                                                                                                                           ",
"                    . . . . .{+{e-i#@{w #{^%}#;#Z@E#y@l#h$n#F#%%%&q#r#&%K#0%_%${6$8&<%9&S$m%`*1%I&p%0&o*a&x*x&,>C*q&q&d&d&d&d&d&d&d&d&d&d&d&Z~%{w &{d&q&^!. . . . .                                                                                                                                                             ",
"                      . . . . *{i#[#j#={w -{;#D#E#y@l#8%n#!#%%T#q#r#&%k&0%_%&&6$8&A$9&a%m%J%K%I&p%0&y%a&==x&2&C*^*d&d&d&d&d&d&d&d&d&d&d&d&#>;{w >{d&q&,{. . . . .                                                                                                                                                               ",
"                        . . . . '{j#f~^%){w !{E#+$@$8%n#!#S#T#q#r#2$k&0%_%5$6$8&<%G&a%m%J%*=I&p%0&y%O%x*x&p&C*q&/*d&d&d&d&d&d&d&d&d&d&d&~{N&w {{d&q&1>. . . . .                                                                                                                                                                 ",
"                          . . . . ]{Q#_$i@^{w /{@$8%n#!#S#T#q#1$2$k&S%&$5$6$8&A$G&a%m%J%*=I&p%U&y%O%3=)&p&C*^*d&d&d&d&d&d&d&d&d&d&d&d&3-y&w ({d&q&_{. . . . . .                                                                                                                                                                 ",
"                          . . . . . Q-:{D#,#<{[{n!}{|{S#T#|$1$2$k&S%&$5$6$n$A$G&a%U%1{*=I&;&U&y%O%`%)&p&d&/*d&d&d&d&d&d&d&d&d&d&d&d&2{w y&3{d&q&_{. . . . . .                                                                                                                                                                   ",
"                            . . . . . 4{E#+$@$5{{*g')#T#|$1$J#i$S%&$5$=%n$A$G&-&U%6{*=I&;&U&Z%K&`%)&7{d&q&d&d&d&d&d&d&d&d&d&d&d&';8{w 9{'-q&q&0{. . . . . .                                                                                                                                                                     ",
"                              . . . . . P@a{m#}$b{c{w v*d{r#i$S%&$P$=%n$A$S$-&U%_&:&5*;&U&y%K&`%)&`&d&q&d&d&d&d&d&d&d&d&d&d&e{l;w _*f{d&q&g{h{. . . . . .                                                                                                                                                                       ",
"                                  . . . . i{j{%%S#u$k{l{w =)m{O$P$=%n$[%S$-&U%_&:&5*;&o*Z%K&`%L&`&d&q&d&d&d&d&d&d&d&d&d&~{n{!;w _;o{d&q&p{q{. . . . . .                                                                                                                                                                         ",
"                                    . . . . . r{s{$$&%J#t{u{w v{w{x{[%S$H&U%1%:&5*x%o*Z%K&w&L&`&d&q&d&d&d&d&d&d&d&-=w-y{w w ;*z{d&q&C*A{+ . . . . . .                                                                                                                                                                           ",
"                                      . . . . . R=B{J#i$W#D=C{e;w c)D{E{,%F{:&p%x%o*Z%K&w&L&`&d&q&d&d&d&d&d&d&8-G{M~o&w H{I{p&d&q&J{K{. . . . . .                                                                                                                                                                               ",
"                                        . . . . . . L{M{O$6$:%<%N{O{P{w w Q{R{S{T{U{V{W{x&`&^*U~X{I{5=Y{Z{:=M-w w z~`{I{d&q&q& ].]. . . . . . .                                                                                                                                                                                 ",
"                                            . . . . . . +]@]#]l%a%H&,%$]%]&]v%o&w w w w w w w w w w w N v%o&Z-*]P=d&q&d&$>=]-]. . . . . . . .                                                                                                                                                                                   ",
"                                              . . . . . . . ;]>],]J%1%d%p%x%'])]!]~]!~2{{]:;.>]]Z{^-^]/](]`&d&q&q&q&[>0{o;. . . . . . . .                                                                                                                                                                                       ",
"                                                  . . . . . . . . _]:]<][]}]J&x*l-W&C*q&d&d&d&d&q&q&q&q&q&d&n~_>|]1]. . . . . . . . .                                                                                                                                                                                           ",
"                                                      . . . . . . . . . 0~2]3]4]5]6]2&d&d&d&d&q&`&7]8]9]0]a]K{.=. . . . . . . . .                                                                                                                                                                                               ",
"                                                          . . . . . . . . . . . . . . . . . . . . . . . . . . . . . . . . . .                                                                                                                                                                                                   ",
"                                                                . . . . . . . . . . . . . . . . . . . . . . . . . . . . .                                                                                                                                                                                                       ",
"                                                                      . . . . . . . . . . . . . . . . . . . . . . .                                                                                                                                                                                                             ",
"                                                                                . . . . . . . . . . . . .                                                                                                                                                                                                                       ",
"                                                                                  . . . . . . . . . .                                                                                                                                                                                                                           ",
"                                                                                  . . . . . . . . . .                                                                                                                                                                                                                           ",
"                                                                                  . . . . . . . . . .                                                                                                                                                                                                                           ",
"                                                                                  . . . . . . . . . .                                                                                                                                                                                                                           ",
"                                                                                  . . . . . . . . . .                                                                                                                                                                                                                           ",
"                                                                                  . . . . . . . . . .                                                                                                                                                                                                                           ",
"                                                                                  . . . . . . . . . .                                                                                                                                                                                                                           ",
"                                                                                  . . . . . . . . . .                                                                                                                                                                                                                           ",
"                                                                                  . . . . . . . . . .                                                                                                                                                                                                                           ",
"                                                                                  . . . . . . . . . .                                                                                                                                                                                                                           ",
"                                                                                  . . . . . . . . . .                                                                                                                                                                                                                           ",
"                                                                                  . . . . . . . . . .                                                                                                                                                                                                                           ",
"                                                                                  . . . . . . . . . .                                                                                                                                                                                                                           ",
"                                                                                  . . . . . . . . . .                                                                                                                                                                                                                           ",
"                                                                                  . . . . . . . . . .                                                                                                                                                                                                                           ",
"                                                                                  . . . . . . . . . .                                                                                                                                                                                                                           ",
"                                                                                  . . . . . . . . . .                                                                                                                                                                                                                           ",
"                                                                                  . . . . . . . . . .                                                                                                                                                                                                                           ",
"                                                                                  . . . . . . . . . .                                                                                                                                                                                                                           ",
"                                                                                  . . . . . . . . . .                                                                                                                                                                                                                           ",
"                                                                                  . . . . . . . . . .                                                                                                                                                                                                                           ",
"                                                                                  . . . . . . . . . .                                                                                                                                                                                                                           ",
"                                                                                  . . . . . . . . . .                                                                                                                                                                                                                           ",
"                                                                                  . . . . . . . . . .                                                                                                                                                                                                                           ",
"                                                                                  . . . . . . . . . .                                                                                                                                                                                                                           ",
"                                                                                  . . . . . . . . . .                                                                                                                                                                                                                           ",
"                                                                                  . . . . . . . . . .                                                                                                                                                                                                                           ",
"                                                                                  . . . . . . . . . .                                                                                                                                                                                                                           ",
"                                                                                  . . . . . . . . . .                                                                                                                                                                                                                           ",
"                                                                                  . . . . . . . . . .                                                                                                                                                                                                                           ",
"                                                                                  . . . . . . . . . .                                                                                                                                                                                                                           ",
"                                                                                  . . . . . . . . . .                                                                                                                                                                                                                           ",
"                                                                                  . . . . . . . . . .                                                                                                                                                                                                                           ",
"                                                                                  . . . . . . . . . .                                                                                                                                                                                                                           ",
"                                                                                  . . . . . . . . . .                                                                                                                                                                                                                           ",
"                                                                                  . . . . . . . . . .                                                                                                                                                                                                                           ",
"                                                                                  . . . . . . . . . .                                                                                                                                                                                                                           ",
"                                                                                  . . . . . . . . . .                                                                                                                                                                                                                           ",
"                                                                                  . . . . . . . . . .                                                                                                                                                                                                                           ",
"                                                                                  . . . . . . . . . .                                                                                                                                                                                                                           ",
"                                                                                  . . . . . . . . . .                                                                                                                                                                                                                           ",
"                                                                                  . . . . . . . . . .                                                                                                                                                                                                                           ",
"                                                                                  . . . . . . . . . .                                                                                                                                                                                                                           ",
"                                                                                  . . . . . . . . . .                                                                                                                                                                                                                           ",
"                                                                                  . . . . . . . . . .                                                                                                                                                                                                                           ",
"                                                                                  . . . . . . . . . .                                                                                                                                                                                                                           ",
"                                                                                  . . . . . . . . . .                                                                                                                                                                                                                           ",
"                                                                                  . . . . . . . . . .                                                                                                                                                                                                                           ",
"                                                                              . . . . . . . . . . . . . .                                                                                                                                                                                                                       ",
"                                                                      . . . . . . . . . . . . . . . . . . . . . .                                                                                                                                                                                                               ",
"                                                              . . . . . . . . . . . . . . . . . . . . . . . . . . . . . .                                                                                                                                                                                                       ",
"                                                          . . . . . . . . . b]c]d]e]f]g]h]i]j]k]l]m]n]o]p]q]. . . . . . . . .                                                                                                                                                                                                   ",
"                                                      . . . . . . . . r]s]t]u]v]w]x]y]z]A]B]C]D]E]F]G]H]I]J]K]L]M]. . . . . . . . .                                                                                                                                                                                             ",
"                                                  . . . . . . N]O]P]Q]R]S]R]T]U]x]V]W]X]Y]Z]`]E]F] ^.^+^@^#^$^%^&^*^=^-^;^. . . . . .                                                                                                                                                                                           ",
"                                              . . . . . . . >^,^'^R]R]R])^!^U]y]~^{^]^^^/^(^_^:^<^[^}^|^1^2^3^&^4^5^5^6^7^8^. . . . . . .                                                                                                                                                                                       ",
"                                            . . . . . 9^0^a^R]R]R]R]R])^b^c^d^e^f^f^g^g^N N N N g^g^f^f^h^i^j^k^4^l^m^n^o^p^q^r^s^. . . . . .                                                                                                                                                                                   ",
"                                        . . . . . t^u^R]R]S]R]R]R]v^w^x^w w w e^y^z^A^B^C^D^E^F^G^H^I^J^w w w w K^L^M^N^O^P^Q^R^S^T^N]. . . . .                                                                                                                                                                                 ",
"                                      . . . . . U^V^R]S]R]R]W^X^Y^w f^Z^`^ /./X]+/Z]Z]E]E] ^@/#/$/1^%/2^&/*/=/-/;/w w >/,/'/)/R^!/~/{/]/. . . . .                                                                                                                                                                               ",
"                                    . . . . ^///R]S]R]R](/_/:/w </[/}/|/V]1/2/3/Z]C]4/5/6/@/7/@^1^$^2^8/k^5^5^9/0/a/b/w w c/d/e/f/g/h/i/j/k/. . . . .                                                                                                                                                                           ",
"                                . . . . . l/m/R]S]R]n/o/w w p/q/S]T]x]r/1/X]+/Y]C]E]E] ^ ^#/$/s/%/2^t/u/4^l^v/m^n^p^w/x/y/z/w ;/A/B/h/C/D/E/F/. . . . .                                                                                                                                                                         ",
"                              . . . . . s]R]S]R]R]G/H/w I/J/K/S]T]x]V]1/2/L/Y]M/N/O/G]6/P/$/1^#^2^&/u/4^l^v/m^N^N^q^Q/R/S/T/U/w w V/W/D/X/Y/Z/`/ (. . . .                                                                                                                                                                       ",
"                            . . . . . .(R]S]R]+(@(w :/#(R]S]S]!^$(%(1/W]+/Y]M/N/E]F]&(.^P/s/*($^=(&^-(;(v/>(,(p^p^'('(R^S^f/g/.()(w w !(~({(](^(/(. . . . .                                                                                                                                                                     ",
"                          . . . . t^((R]S]R]_(:(w <(n/R])^S]T]T]y]1/X]+/[(C]N/O/F]6/.^P/}(1^2^=(&^4^;(v/>(|(N^O^q^R/)/S/1(g/2(h/3(4(w w 5(6(^(7(7(8(9(. . . .                                                                                                                                                                   ",
"                          . . . N]0(R]R]R]a(b(b(c(R]R]R]R]d($(x]1/W]+/L/e(E]f(g( ^P/#/@^1^h(t/%^i(5^v/j(,(k(w/'(Q/S^l(f/g/m(n(o(C/D/p(q(w r(s(7(t(u(v(w(. . . .                                                                                                                                                                 ",
"                        . . . . x(R]S]R]y(w z(A(R]R]R]R]d(B(x]y]2/+/[(Z]N/O/F]6/@/P/C(1^D(t/&^i(5^v/m^n^N^O^q^E(R/S/f/g/2(h/o(C/D/F(Z/G(H(w ;/I(u(J(K(L(t^. . .                                                                                                                                                                 ",
"                      . . . . M(R]S]R]N(w O(P(R]R]S]Q(!^$(y]1/R(+/[(C]S(O/g(&(T(#/1^1^D(%^&/U(5^v/m^n^p^k(q^E(R^S/~/~/V(n(W(X(D/F({(G(Y(Z(`(w w  _._+_@_#_. . . .                                                                                                                                                               ",
"                    . . . . $_R]S]R]%_w &_K/R]R]R]Q(S]T]*_y]=_z]Y]Y]N/f(F]&(@/P/@^1^#^2^%^i(5^v/j(n^N^O^q^-_R/S/;_~/m(h/h/C/D/~(Z/G(>_^(,_'_)_N w !_~_{_{_]_. . . .                                                                                                                                                             ",
"                    . . . l/R]S]R]^_w /_K/R]R]S]Q(!^U]x](_1/X]3/Z]C]O/F]6/.^P/__1^$^=(%^i(4^:_<_n^o^p^q^E([_S/}_g/|_1_o(X(D/~(Y/G(2_^(3_4_u(5_6_w 7_8_9_0_0_a_. . . .                                                                                                                                                           ",
"                  . . . . b_S]R]c_w d_e_R]R]R]Q(S]T]f_V]1/z]L/Y]`]N/g_h_@/+^$/1^#^2^&/&^4^5^i_m^o^p^P^-_R/S^j_~/g/|_h/C/X(~(Y/k_l_^(m_n_t(o_p_+_q_w r_s_t_u_v_w_. . .                                                                                                                                                           ",
"                . . . . ((R]R]P(x_:(n/R]R]R])^!^T]x]y_1/A]B]Z]Z]E]g_6/@/7/__1^$^2^%^u/4^z_v/n^o^p^A_E([_S^j_~/B_h/C_D_D/~(Y/G(l_^(E_4_t(o_F_+_G_H_I_w J_K_L_M_N_. . . .                                                                                                                                                         ",
"                . . . O_R]S]R]P_w Q_R]R]R]d(R_S_$(T_U_A]+/V_e(N/f(W_@/@/@^1^%/3^=(u/-(5^v/m^o^N^P^'(R/S^;_~/X_Y_h/X(C/D/F(Y/l_^(E_7(t(5_p_+_Z_H_H_`_ :w .:M_+:@:#:. . .                                                                                                                                                         ",
"              . . . . $:S]R]%:w &:R]R]R]Q(S]T]x]y]1/A]+/V_e(N/5/G]6/P/__1^$^2^%^&^4^5^v/<_o^p^A_'(*:S^;_~/B_|_n(o(X(D/Y/k_2_^(E_7(=:u(p_-:G_G_9_t_0_;:w w >:,:':):!:. . .                                                                                                                                                       ",
"              . . . ~:R]R]{:]:^:R]R]R]S]R]U]f_V]/:X]+/V_D]N/5/F]@/T($/__h((:=(k^i(l^v/<_N^N^q^q^R/_:;_!/B_h/1_D_C/F(F(k_l_](m_,_=:u(p_J(::H_<:t_t_[:[:}:w |:1:2:3:4:. . . .                                                                                                                                                     ",
"            . . . r]5:S]R]6:w 7:R]R]S]Q(T]$(y]1/A]+/B]Z]D]E]F]6/.^P/@^8:2^=(&^9:0:a:b:c:d:e:f:g:h:;_!/X_|_n(o(X(D/Y/Y/2_2_m_7(=:u(p_J(+_@_<:9_`_i:L_M_j:k:w l:m:n:o:p:. . .                                                                                                                                                     ",
"            . . . q:R]R]r:w s:R]R]S]R_T]U]T_V]X]+/B]Z]N/f(F]@/T($/$/#^t:u:v:w:w w N w N w w w w w x:y:z:n(o(A:X/F({(l_Y(,_3_B:u(p_K(+_H_<:t_`_C:[:D:E:@:F:w N G:H:I:J:. . .                                                                                                                                                     ",
"          . . . . 5:R]R]/_:/K:R]S]Q(!^U]x]/:A]+/B]Z]S(L:F]6/.^P/}(1^2^M:w N w w w w w w w w w w N w N N:O:X(D/F(Y/2_2_E_,_7(u(p_J(+_@_<:9_`_0_[:P:Q:Q:R:S:T:w U:V:W:X:Y:. . .                                                                                                                                                   ",
"          . . . q:R]S]Z:w `:R]R]S]!^U]y]V]X]+/Y]Z]N/L:F] ^.^$/$/%/2^3^ <w w w w w N w w w w N w N w w w w .<F(G(G(l_+<,_=:u(@<J(+_~_H_9_t_#<[:D:D:$<%<2:3:&<*<=<-<W:X:;<. . .                                                                                                                                                   ",
"          . . N]><R]R]_/w R]R]!^!^U]x]y]=_X],<Z]`]E]g_ ^@/7/C(1^2^3^%^ <w w w '<)<!<~<{<]<^</<(<w N N N o&N _<G(2_^(E_=:t(:<F_<<[<H_9_`_0_[:P:Q:E:R:R:}<|<1<2<w 3<X:4<5<6<. . .                                                                                                                                                 ",
"        . . . 7<5:R]Z:w 8<R]R]9<U]x]T_X]X]Y]Z]N/E]F]G]@/#/C(1^%/0<%^a<b<c<d<e<N^p^q^'(R/;_f<g/V(g<h<w w w N i<l_^(,_7(t(:<p_j<~_H_k<t_0_[:P:D:,:,:%<m:l<o:m<n<w *<o<p<5<q<. . .                                                                                                                                                 ",
"        . . . r<R]R]s<b(t<!^d(S_x]y]R(A]L/e(Z]O/O/ ^6/#/$/1^u<2^&^&^v<w<x<n^o^O^A_E(R/R^!/~/m(|_o(y<z<N w N N A<E_'_t(u(p_._~_H_9_B<0_#<P:Q:$<R:R:3:}<H:o:C<D<E<w F<5<G<H<. . .                                                                                                                                                 ",
"        . . . $:R]R]I<J<Q(S]U]x]V]W]+/3/Z]S(E]F] ^@/+^$/1^h((:&/k^4^v/9/n^N^p^q^'(R/R^;_f/g/|_W(A:D/K<N N w w L<7(t(u(p_M<~_H_{_`_0_[:L_D:$<,:%<2:3:H:o:I:D<X:N<w O<G<P<Q<. . .                                                                                                                                                 ",
"      . . . c]R]S]R]b(8<S]T]x]T_R(2/3/Z]N/O/5/6/R<P/$/1^h(2^&^a<5^S<>(n^N^p^q^E(*:S/;_1(|_|_W(o(D/X/Y/w w w N T<=:p_p_J(G_H_{_t_0_[:L_M_U<,:%<m:}<o:o:V<W<X<o<Y<Z<`<P< [.[+[. . .                                                                                                                                               ",
"      . . . @[R]R]#[w $[!^x]V]1/X]L/Y]C]N/%[ ^6/#/$/&[h(2^%^u/4^:_i_n^*[p^q^'(R/R^;_f/g/|_h/=[D_X/F(G(Z<w w N -[u(p_J(~_G_{_t_;[C:L_M_Q:,:%<2:3:>[o:m<W:W:,['[)[![w ~[.[{[][. . .                                                                                                                                               ",
"      . . . ^[R]R]/[([T]*_y]1/X]L/Y]M/L:O/6/6/+^$/1^h(2^=(u/4^:_x<_[*[p^q^E(R/S/;_1(B_|_i/o(:[<[Y/[[l_w w w w }[p_K(~_G_{_9_|[#<L_L_Q:@:%<|<3:1[m<V<W<X:4<'[2[3[4[w 5[6[7[8[. . .                                                                                                                                               ",
"      . . 9[0[S]R]a[b[f_c[1/2/+/Y]M/N/E]F]R<@/P/$/h(D(=(&^U(l^v/m^,(p^p^q^*:R^;_f/g/m(h/o(D_d[F([[e[f[w N N N g[J(+_G_H_9_t_0_[:M_Q:,:h[2:3:1[o:m<W:W:,[4<2[3[P<i[w j[k[l[m[n[. .                                                 q%                                                                                            ",
"      . . b]V^d(P(f^o[y]1/2/L/Y]C]N/O/h_6/P/P/}(%/2^&/&^-(S<v/>(*[N^O^E(E(S/S/~/g/|_1_o(C/<[F(k_2_p[q[w w N r[._+_G_H_9_|[0_L_M_Q:s[R:2:}<1[o:t[V<W<u['[2[3[v[w[.[w x[l[y[z[A[. . .     q%q%            q%q%            q%q%      q%                                                                                            ",
"    . . . B[C[R_D[N E[y_W]+/Y]M/N/E]h_ ^T($/$/%/$^=(%^-(F[v/<_n^N^O^q^'(l(;_;_B_g/h/o(C/D/F(k_G(G[H[w N N w I[Z_~_<:{_t_J[C:K[D:s[L[2:2:M[o:m<N[W:O[,['[5<P[w[.[Q[R[f^S[T[U[V[. . .     q%q%          q%q%q%            q%q%      q%                                                q%                                          ",
"    . . . W[R]!^X[w Y[X]+/[(C]N/O/F]6/.^P/__%/2^=(&^i(5^:_>(n^N^O^q^E([_S/1(g/|_Z[`[ }.}.}+}@}#}w w N N Z<$}+_G_H_9_t_0_i:P:Q:+:%<2:}<l<o:t[V<W<X:4<p<5<P[P<.[Q[7[%}f^&}U[*}=}. . .     q%q%          q%q%q%q%          q%q%      q%                                                q%                                          ",
"    . . . -}9<*_;}w >}+/B]Z]N/O/F]&(.^P/$/$^%/%^%^i(4^v/>(n^N^O^'('(S/S/1(X_g/n(,}7_;/;/;/'}w w w w N )}!}+_~_<:~}B<0_u_D:D:+:,:{}}<l<n:V:W:W:4<,[5<)[v[]} [{[7[^}/}g^(}_}:}<}. . .     q%q%          q%q%q%q%        q%q%        q%                                                q%                                          ",
"    . . . [}T]x]}}w |}[(Y]N/f(F]6/T(P/@^1^%/2^&^-(5^z_j(n^1}k(q^E(R/S/}_g/V(h/o(2}w w w w w w w w 3}4}._+_G_H_9_t_i:i:L_5}Q:,:%<6}3:n:7}V<W<X:4<'[3[3[w[w[{[7[^}l[8}N 9}*}0}a}. . .       q%q%        q%  q%q%        q%q%        q%    q%q%q%q%            q%q%q%q%q%q%        q%q%q%q%q%q%q%                                  ",
"    . . . b}x]U_c}w [(Z]`]E]F]6/@/P/__%/$^%^%^U(5^z_<_n^N^O^q^E(R/S/~/g/2(n(n(X(d}w w w w w w w N N e}![f}g}9_`_0_C:h}5}s[,:':i}l<n:m<V<N[X:4<j}3[G<k}l}{[7[m}n}T[o}N p}q}r}s}. . .       q%q%        q%    q%        q%q%        q%q%q%      q%q%          q%        q%q%          q%              q%q%                        ",
"    . . . t}y]A]u}w Y]`]N/F]6/@/P/__1^%/2^=(&^4^5^<_m^o^w/q^E(R/S/}_~/B_h/i/C/D/v}w}x}y}z}A}B}C}w w N w w D}t_0_C:L_M_Q:,:L[|<m:1<m<V<W<X:4<'[5<E}P<w[Q[{[7[l[T[F}G}w H}I}J}K}. . .       q%q%      q%q%    q%q%      q%q%        q%q%          q%q%                    q%q%        q%              q%q%                        ",
"    . . . L}1/A]M}w Z]f(F] ^@/#/C(1^$^%^%^4^4^z_<_n^o^p^N}Q/R/S^}_~/|_h/n(X(X(F(Y/G(2_^(O}7(t(u(P}x[w N w N Q}[:L_D:U<,:S:2:3:n:m<R}D<X:S}T}5<G<w[]}U}{[^}V}T[W}X}Y}w Z}J}`} |. . .       q%q%      q%q%    q%q%    q%q%          q%q%          q%q%                    q%q%        q%                                          ",
"    . . . .|A]B]+|w N/F]h_6/P/$/1^%/0<=(u/i(5^<_>(o^N^A_@|R/R^;_~/B_|_h/#|A:D/Y/k_l_^($|7(t(:<p_+_%|&|N N N w *|M_Q:s[h[2:|<H:o:V<D<X:O['[5<3[P<w[.[Q[m}V}=|-|X}_};|N >|,|'|)|. . .         q%q%    q%      q%q%    q%q%          q%            q%q%          q%q%q%q%q%q%q%        q%                                          ",
"    . . . !|+/Y]~|w E]G]@/@/__1^$^2^%^k^4^l^v/m^n^p^A_Q/R/R^;_!/X_|_n(X(X({|Y/G(2_^(E_7(=:o_p_-:+_G_~}N N w N ]|Q:,:R:2:|<H:m<I:N[X:4<T}5<G<P<]}.[{[7[V}^|/|X}_}(|_|N :|'|<|[|. . .         q%q%  q%q%        q%    q%q%          q%            q%q%        q%q%q%q%q%q%q%q%        q%                                          ",
"    . . . }|[(C]||w 1|6/2|C(1^$^2^=(k^i(5^m^<_N^3|N}q^R/R^;_~/B_h/h/X(C/D/{(Y/l_2_,_7(B:u(p_M<+_H_g}t_4|w w w w +:%<2:|<1<1<V<V<X:u['['[E}P<w[{[Q[V}V}l[/|5|_}*}6|7|g^8|9|0|a|. . .         q%q%  q%q%        q%    q%q%          q%            q%q%      q%q%          q%q%        q%                                          ",
"    . . . b|Z]N/c|w d|.^$/s/h(2^%^&^4^l^v/<_n^N^p^q^E(R^;_!/X_|_C_#|X(<[Y/[[2_^(E_7(=:u(p_J(e|G_<:9_`_f|'}w w N g|2:|<l<m<t[V<h|u[4<)[i|P<]}.[{[7[V}l[T[U[_}:}6|r}j|g^k|l|m|n|. . .         q%q%  q%q%        q%q%q%q%            q%            q%q%      q%            q%q%        q%                                          ",
"    . . . q]o|F]p|w q|$/s/*(2^t/a<U(l^<_m^N^3|N}q^r|[_;_f/g/|_C_=[X(<[s|[[](>_,_7(t|u(p_J(+_H_<:9_`_i:u|v|w w N w|3:l<H:R}V<X<X:'[j}3[P<]}.[x|y|^}T[T[U[*}:}6|r},|z|e}A|B|C|D|. . .           q%q%q%q%        q%q%q%q%            q%            q%q%      q%            q%q%        q%                                          ",
"      . . b]E|F]F|g^G|s/1^D(%^&^U(5^v/<_n^o^p^q^-_R/S/1(g/2(n(o(D_H|F(Z/G(I|^(7(7(u(@<J(+_~_J|9_K|0_[:L|M|w w w N|l<1<m<V<D<O[4<j}5<P<]}.[{[7[V}l[F}F}X}*}6|r},|`}O|P|Q|R|S|T|. . .           q%q%q%            q%q%q%            q%            q%q%      q%q%        q%q%q%        q%q%            q%q%                        ",
"      . . 9[U|V|@/f^W|#^2^%^a<4^;(v/>(N^N^q^q^Q^S^;_f/g/m(C_o(X(D/F({(2_l_,_,_t(u(@<J(+_~_g}9_K|C:[:D:X|N w w N Y|1<7}V<W:X:'[p<3[v[]}.[{[k[V}y[T[5|Z|*}6|I}`|,| 1w .1R|+1@1#1. .             q%q%q%            q%q%q%            q%            q%q%        q%q%q%q%q%  q%q%        q%q%q%q%q%      q%q%                        ",
"      . . . $12|+^%1&1#^3^&^i(5^v/m^n^o^p^N}'(R/S/f/~/m(|_o(X(D/F({(G(2_^(E_7(t(*1J(+_~_H_~}`_0_[:h}Q:=1N w w w 1<m<C<D<X:o<j}5<i|-1.[;17[V}>1T[F}X},1:}I}'1)1!1~1w {1]1^1/1. . .                                                                             q%q%                                                              ",
"      . . . (1P/@^_1w 2^&^&^l^v/m^n^N^q^q^E(R/S/f<~/m(h/W(X(D/~({(G(l_,_,_t(t(p_J(+_~_H_~}B<0_[:h}Q::1N w w N <1m<V<D<X:o<2[5<P[l}.[{[k[[1>1T[5|X}*}0}I}}1|1!1!1z|w 11213141. . .                                                                                                                                               ",
"      . . . p]$/%/51w 61k^4^v/>(|(n^w/A_'(R/R^!/1(2(|_o(=[D/{|Y/G(2_71817(u(u(J(._~_G_{_910_i:L_D:01a1N w N N b1I:D<X:,[T}5<3[P<c1d17[7[>1T[F}e1_}:}I}r},|`}f1g1O|h1i1^121j1. . .                                                                                                                                               ",
"        . . . k1%/3^l1m15^n1m^n^N^O^q^E(R/R^;_~/g/h/n(#|D/~(s|G(l_^(o1N Z<p1q1r1s1H_{_t_0_K_t1u1v1w o&w N w w1V<W:X:,['[x1E}w[y1U}7[k[>1y[5|X}*}:}I}r},|z1A10|B1e}C13131D1. . .                                                                                                                                                 ",
"        . . . E12^%^F1G1H1v/n^*[p^A_E(R/S/~/1(2(|_I1#|:[F(Z/G(l_^(E_J1w w N w K1L1M1N1O1P1Q1R1w N N w N w S1T1W<W<,['[)[P<P<c1d17[k[>1y[5|X}_}q}6|J},|`}l|l|U1V1w W13131X1. . .                                                                                                                                                 ",
"        . . . Y1Z1&^`1w  2n^N^p^N}'(R/R^;_f/g/|_C_o(D_F(Y/G(l_^(m_7(.2N N w w w w w w w w w w w w o&w w +2@2W:X:,['[2[i|P<w[.[{[y|V}>1#2X}*}:}I}r},|`}!1$20|R|w w %23131&2. . .                                                                                                                                                 ",
"          . . N]*24^z_=2-2*[p^q^Q/R/S/}_f/|_|_I1o(D/d[Y/G(](^(,_n_B:;2>2N w w o&w w w w w w w N w w ,2'2)2W<X:4<'[2[3[P<w[.[{[!2l[=|5|X}*}0}I}J},|'|~2l|R|R|{2w ]23131^1^2. . .                                                                                                                                                 ",
"          . . . /25^<_(2w _2q^'(E(R^;_f/g/V(h/o(A:~(F(k_:2^(,_7(t(o_p_J(<2[2}2|2122232M|42![52627282o:7}V<W:,['[2[3[v[l}.[x|k[V}y[92X}e1:}02r},|`}!1A1B|R|a2b2'}c231d2e2. . .                                                                                                                                                   ",
"          . . . . f2<_6^g2h2'(E(S/;_~/B_|_n(o(i2{|F(s|2_^(,_7(t|5_p_._G_G_k<9_j2s_k2l2m2n2o2p2q2M[o:t[N[W<4<'[x13[P<w[.[r27[l[T[T[X}*}:}s2J},|'|!1l|B|R|^1t2w u231^1C|v2. . .                                                                                                                                                   ",
"            . . . w2n^N^x2w y2_:;_f/B_g/h/o(C/D/F(Y/G(I|+<7(B:u(p_J(Z_~_J|~}t_i:i:5}D:s[,:2:|<l<o:7}V<W:u[z22[3[P[l}.[Q[k[V}l[T[X}e1*}(|r},|)1!1A10|R|+131A2w B231^1C2. . .                                                                                                                                                     ",
"            . . . D2E2q^q^F2G2;_~/X_|_n(o(D_D/F(Y/e[2_E_7(7(u(H2._+_G_<:t_I20_L_L_Q:+:R:2:|<M[H:t[V<D<4<4<5<5<P<w[.[Q[7[V}l[T[F}J2*}q}K2,|'|!1l|L2R|31^1M2w N231^131O2. . .                                                                                                                                                     ",
"              . . . P2q^E(Q2w R2g/g/n(1_C/F({|S2G(Y(^(,_B:T2p_U2+_~_<:k<t_[:i:D:5}s[,:2:|<l<H:V:W:N[S},[j}3[3[]}.[Q[{[V}>1T[U[X}V2:}'1r})1!1A1m|U1]1+1W2X2Y2Z23131`2. . . .                                                                                                                                                     ",
"              . . . .  3S^;_.3+3@3C_o(C/D/~(Z/G(2_^($|4_u(:<._+_G_J|9_t_0_i:M_D:Q:R:':}<l<1<V:V<W<X:4<j}5<P<w[.[Q[7[^}l[T[F}X}*}q}I}J}#3!1l|0|R|31^131$3w %331^1&3*3. . .                                                                                                                                                       ",
"                . . . =3;_~/g/-3;3h/X(F(~({([[>3^(,_'_u(H2-:+_G_g}k<`_[:i:D:5}s[,:2:,3l<n:7}V<D<'3S}j}3[G<y1)3{[7[^}l[T[W}X}:}q}r}r}'|!1l|B|!3]1^131~3w u231^131{3. . .                                                                                                                                                         ",
"                . . . . ]3g/B_^3f^/3X(~(Y/k_2_^(E_B:t(:<p_+_G_H_9_K|0_i:L_M_Q:,:h[2:}<H:m<V<D<X:4<j}5<G<w[]}.[{[7[l[(3W}X}_}q}I}K2,|!19|0|!331^131_3w :3<33131[3. . . .                                                                                                                                                         ",
"                  . . . . }3I1n(|3w 13{(G(l_^(m_4_t(:<J(+_[<H_9_`_0_[:23D:,:,:{}2:l<H:m<V<D<X:4<'[5<G<w[]}{[7[[1l[T[W}X}_}q}I}r}'|'|330|R|]1^1314353w 6331^17383. . .                                                                                                                                                           ",
"                    . . . 93n(X(D/03w a32_>3E_7(t|o_p_<<Z_G_<:`_0_i:L_M_Q:@:R:}<|<H:o:I:b3X:4<j}5<G<P<l}.[r27[V}l[-|5|_}:}I}J},|'|9|l|m|31^131c3d3w e331^131f3. . . .                                                                                                                                                           ",
"                    . . . . g3D/Y/Y/h3w i3,_7(t(o_p_J(e|H_9_K|0_[:L_D:U<,:L[|<j3>[m<C<W:X:S}T}5<G<P<]}r2{[[1V}(3F}X}_}:}s2J},|`}330|m|31]131c3k3w l331^131m3. . . .                                                                                                                                                             ",
"                      . . . . n3Z/k_2_o3w p3=:5_p_J(+_G_<:9_0_q3L_M_E:@:R:2:|<l<o:m<V<h|u['[5<G<P<w[;1Q[7[l[l[F}5|_}*}02r3,|`}!1l|L2s3]1^1t3u3w v3313121w3. . . .                                                                                                                                                               ",
"                        . . . . x3](E_^(h3w y3p_J(+_G_<:t_0_[:L_D:E:,:L[2:|<l<o:m<V<W:4<'[)[G<P<]}.[{[y|V}l[F}5|_}:}6|r}z3)1!1l|m|R|]1^1A3B3w C331^131D3 (. . .                                                                                                                                                                 ",
"                          . . .  (E3,_,_t|F3w G3+_[<J|t_0_q3L_L_$<+:%<2:m:o:1<V<V<H3X:'[)[E}P<]}.[Q[y|V}n}5|W}I3*}6|I}`|'|!1<|0|J3]131K3O|w L331^131&3^2. . . .                                                                                                                                                                 ",
"                          . . . . t^M3=::<@<N3f^O3P39_;[J[L_D:Q:s[R:2:m:l<1<m<V<W:O[4<2[Q3v[]}.[{[k[V}l[T[F}X}:}6|r}J}'|!1f1L2R|]1^1R3w O|S331^131T3U3. . . .                                                                                                                                                                   ",
"                            . . . . . V3p_+_+_W3r(Z<X30_L_5}E:s[%<2:3:n:H:t[V<N[X:'[2[3[P<l}.[{[k[V}y[5|F}*}:}I}I}`|`}!1l|0|R|]1Y3k3w Z3`331^131 4. . . . .                                                                                                                                                                     ",
"                              . . . . . .4+_+4H_@4#4w =<$4%4,:R:2:|<l<1<m<I:W:,[,[5<5<P[-1.[{[7[V}n}T[F}X}_}:}I}'1`})1A1B|R|&4*4w x[=431313131-4 (. . . .                                                                                                                                                                       ",
"                                . . . . . ;4>49_;[0_,4|:w '4)42:}<l<o:t[V<W<X:o<)[5<3[w[.[{[7[[1n}T[W}*}*}I}I}`|`}!1A10|Z2!4Y2w ~4{431^131@1]4. . . . .                                                                                                                                                                         ",
"                                    . . . . ^4/40_u_L_D:(4_4w :4<4[4t[m<W:X:,[2[)[i|P<]}U}7[V}>1T[-|J2_}:}I}r}`}`}}4|414w w 24343131^131 444. . . . .                                                                                                                                                                           ",
"                                      . . . . . 5464D:s[h[748494w v|E<04X:o<'[5<3[w[l};17[[1n}T[5|X}*}q}r}K2,|k|a4:3g^w b4c4d431^131e4f4. . . . .                                                                                                                                                                               ",
"                                        . . . . . t^g4,:':m:l<>[h4i4j4w w k4l4m4n4o4p4q4r4V}T[s4t4u4v4Z}w4x4M|w w y4z4A43131^1^131X1B4. . . . .                                                                                                                                                                                 ",
"                                            . . . . . C4D4E4o:m<V<N[X:F4G4H4f^g^w w w w w w w w w w w N e}g^I4h]J431+13131d231K4L4. . . . . .                                                                                                                                                                                   ",
"                                              . . . . . . . M4N4H3X:o<j}2[G<O4P4Q4R4S4T4U4V4W4X4Y4Z4`4 5.5A1f1R|31^131C|@1+5. . . . . . .                                                                                                                                                                                       ",
"                                                  . . . . . .  (@5#5$52[i|3[ [.[{[k[V}=|92X}*}:}I}r},|`}!1%50|R|+1D141&5^2. . . . . .                                                                                                                                                                                           ",
"                                                      . . . . . . . . *5=5-5;5>5,5V}(3T[X}e1:}02J},|'|'5)5!5~5{5]5. . . . . . . . .                                                                                                                                                                                             ",
"                                                          . . . . . . . . . Y:^5/5(5_5:5<5[5a}}5|515253545v2. . . . . . . . .                                                                                                                                                                                                   ",
"                                                              . . . . . . . . . . . . . . . . . . . . . . . . . . . . . .                                                                                                                                                                                                       ",
"                                                                      . . . . . . . . . . . . . . . . . . . . . .                                                                                                                                                                                                               ",
"                                                                              . . . . . . . . . . . . . .                                                                                                                                                                                                                       ",
"                                                                                                                                                                                                                                                                                                                                ",
"                                                                                                                                                                                                                                                                                                                                ",
"                                                                                                                                                                                                                                                                                                                                ",
"                                                                                                                                                                                                                                                                                                                                ",
"                                                                                                                                                                                                                                                                                                                                ",
"                                                                                                                                                                                                                                                                                                                                ",
"                                                                                                                                                                                                                                                                                                                                ",
"                                                                                                                                                                                                                                                                                                                                ",
"                                                                                                                                                                                                                                                                                                                                ",
"                                                                                                                                                                                                                                                                                                                                ",
"                                                                                                                                                                                                                                                                                                                                ",
"                                                                                                                                                                                                                                                                                                                                ",
"                                                                                                                                                                                                                                                                                                                                ",
"                                                                                                                                                                                                                                                                                                                                ",
"                                                                                                                                                                                                                                                                                                                                ",
"                                                                                                                                                                                                                                                                                                                                ",
"                                                                                                                                                                                                                                                                                                                                ",
"                                                                                                                                                                                                                                                                                                                                ",
"                                                                                                                                                                                                                                                                                                                                ",
"                                                                                                                                                                                                                                                                                                                                "};
