/* XPM */
static const char * SidePicture2_xpm[] = {
"160 400 2797 2",
"  	c None",
". 	c #9A9494",
"+ 	c #999494",
"@ 	c #989495",
"# 	c #999496",
"$ 	c #999495",
"% 	c #94979F",
"& 	c #8E9EB0",
"* 	c #89A4C0",
"= 	c #86A9CC",
"- 	c #84ACD3",
"; 	c #84ACD4",
"> 	c #84ADD5",
", 	c #85AACF",
"' 	c #88A5C3",
") 	c #8D9FB5",
"! 	c #9298A3",
"~ 	c #979598",
"{ 	c #939AA4",
"] 	c #8DA0B6",
"^ 	c #85A9CD",
"/ 	c #81B0DF",
"( 	c #82B2E0",
"_ 	c #81B0DE",
": 	c #81B1DF",
"< 	c #7FAFDD",
"[ 	c #7DADDC",
"} 	c #7BABD9",
"| 	c #7DA5CD",
"1 	c #859EB8",
"2 	c #8F98A6",
"3 	c #95959A",
"4 	c #9398A1",
"5 	c #86A8CA",
"6 	c #81AFDC",
"7 	c #8FBAE3",
"8 	c #9DC2E6",
"9 	c #A5C7E8",
"0 	c #AACBEA",
"a 	c #A6C8E9",
"b 	c #9EC3E7",
"c 	c #93BCE4",
"d 	c #7EAEDD",
"e 	c #7BABDA",
"f 	c #7AAAD8",
"g 	c #78A7D6",
"h 	c #76A5D4",
"i 	c #75A3D2",
"j 	c #74A1CF",
"k 	c #769EC6",
"l 	c #8B96A6",
"m 	c #979497",
"n 	c #8EA0B4",
"o 	c #84ABD1",
"p 	c #82B1DF",
"q 	c #86B5E1",
"r 	c #A1C5E7",
"s 	c #B9D4ED",
"t 	c #D1E2F3",
"u 	c #E6F0F9",
"v 	c #F8FBFD",
"w 	c #FFFFFF",
"x 	c #FBFDFE",
"y 	c #E9F1F8",
"z 	c #D3E3F1",
"A 	c #B9D1E9",
"B 	c #9EBFE0",
"C 	c #80ABD6",
"D 	c #72A2D1",
"E 	c #71A0CF",
"F 	c #6F9FCE",
"G 	c #6E9DCC",
"H 	c #6E9AC6",
"I 	c #7F96B0",
"J 	c #91949C",
"K 	c #8CA0B5",
"L 	c #9FC4E7",
"M 	c #DFEBF7",
"N 	c #FEFEFE",
"O 	c #FDFEFE",
"P 	c #FDFDFE",
"Q 	c #FAFBFD",
"R 	c #E5EEF8",
"S 	c #C5DBF0",
"T 	c #BED7EF",
"U 	c #BDD6EE",
"V 	c #BFD7EF",
"W 	c #C7DCF1",
"X 	c #D5E4F3",
"Y 	c #EAF1F9",
"Z 	c #FCFDFE",
"` 	c #E7EFF7",
" .	c #9FBEDE",
"..	c #709ECC",
"+.	c #6C9BCA",
"@.	c #6A98C7",
"#.	c #6897C7",
"$.	c #6695C5",
"%.	c #7593B4",
"&.	c #979395",
"*.	c #8E9FB3",
"=.	c #83ADD7",
"-.	c #9AC0E5",
";.	c #D0E2F3",
">.	c #F2F7FB",
",.	c #E8F1F9",
"'.	c #C4DAF0",
").	c #A9CAE9",
"!.	c #97BFE5",
"~.	c #88B5E1",
"{.	c #80B0DF",
"].	c #7DADDA",
"^.	c #7AA9D8",
"/.	c #83AED9",
"(.	c #92B7DC",
"_.	c #A6C4E2",
":.	c #C7DAEC",
"<.	c #F1F6FA",
"[.	c #F7F9FC",
"}.	c #D0DFED",
"|.	c #94B5D7",
"1.	c #6594C4",
"2.	c #6392C2",
"3.	c #6390BF",
"4.	c #7790AD",
"5.	c #96979C",
"6.	c #83ACD3",
"7.	c #91BBE3",
"8.	c #E1ECF7",
"9.	c #8AB7E2",
"0.	c #82B2DF",
"a.	c #7DADDB",
"b.	c #79A9D8",
"c.	c #77A7D6",
"d.	c #75A5D4",
"e.	c #74A4D3",
"f.	c #6F9ECD",
"g.	c #88AED5",
"h.	c #D0DFEE",
"i.	c #F5F8FB",
"j.	c #E9F0F6",
"k.	c #84A8CE",
"l.	c #6391C0",
"m.	c #608EBD",
"n.	c #5E8CBD",
"o.	c #5D8AB9",
"p.	c #8B919C",
"q.	c #8BA2BA",
"r.	c #81B0DC",
"s.	c #8EB9E3",
"t.	c #D5E5F4",
"u.	c #9BC1E6",
"v.	c #85B4E0",
"w.	c #81B1E0",
"x.	c #80B0DE",
"y.	c #7EAEDC",
"z.	c #72A1D0",
"A.	c #6B9ACA",
"B.	c #6A99C8",
"C.	c #729ECA",
"D.	c #92B3D5",
"E.	c #E5ECF4",
"F.	c #E4ECF4",
"G.	c #85A8CD",
"H.	c #5C8ABB",
"I.	c #5A88B9",
"J.	c #5987B8",
"K.	c #6A89AB",
"L.	c #989598",
"M.	c #87A7C8",
"N.	c #B8D3ED",
"O.	c #92BCE4",
"P.	c #78A8D8",
"Q.	c #74A3D2",
"R.	c #6D9CCC",
"S.	c #6998C8",
"T.	c #6694C4",
"U.	c #6593C3",
"V.	c #6391C1",
"W.	c #93B2D3",
"X.	c #E6EDF5",
"Y.	c #B9CDE1",
"Z.	c #648FBB",
"`.	c #5785B5",
" +	c #5583B5",
".+	c #5782B1",
"++	c #8D9099",
"@+	c #979599",
"#+	c #83AED8",
"$+	c #EFF5FB",
"%+	c #F0F5FB",
"&+	c #95BEE4",
"*+	c #7CACDB",
"=+	c #7AAAD9",
"-+	c #6E9DCD",
";+	c #6998C9",
">+	c #6897C6",
",+	c #6190C0",
"'+	c #5F8EBE",
")+	c #608EBE",
"!+	c #8EAECF",
"~+	c #F4F7FA",
"{+	c #7FA1C7",
"]+	c #5381B1",
"^+	c #5280B1",
"/+	c #507EAE",
"(+	c #7C8B9E",
"_+	c #AFCEEB",
":+	c #C0D8EF",
"<+	c #79A8D7",
"[+	c #77A6D5",
"}+	c #75A4D3",
"|+	c #5C8ABA",
"1+	c #5A88B8",
"2+	c #608CBA",
"3+	c #C7D6E6",
"4+	c #ACC2D9",
"5+	c #507EAF",
"6+	c #4E7CAC",
"7+	c #4C7AAC",
"8+	c #77889E",
"9+	c #9299A4",
"0+	c #CDE0F2",
"a+	c #F5F8FC",
"b+	c #7FAFDE",
"c+	c #73A3D2",
"d+	c #71A1D0",
"e+	c #70A0CF",
"f+	c #6B9AC9",
"g+	c #6998C7",
"h+	c #6493C3",
"i+	c #6291C1",
"j+	c #5E8CBC",
"k+	c #5987B7",
"l+	c #5583B4",
"m+	c #87A7C9",
"n+	c #E0E8F1",
"o+	c #507DAD",
"p+	c #4A78AA",
"q+	c #4977A9",
"r+	c #6B829F",
"s+	c #929AA5",
"t+	c #D9E7F5",
"u+	c #D4E5F4",
"v+	c #79A8D6",
"w+	c #6D9CCB",
"x+	c #6999C7",
"y+	c #6896C6",
"z+	c #5E8BBC",
"A+	c #5886B7",
"B+	c #5684B5",
"C+	c #5381B2",
"D+	c #517FB1",
"E+	c #6B92BC",
"F+	c #E5EBF3",
"G+	c #DEE6EF",
"H+	c #5781AF",
"I+	c #4774A5",
"J+	c #4673A5",
"K+	c #6D829C",
"L+	c #94979E",
"M+	c #7CACDA",
"N+	c #5F8DBD",
"O+	c #4F7DAF",
"P+	c #4D7BAD",
"Q+	c #4E7CAD",
"R+	c #E5EBF2",
"S+	c #F0F4F8",
"T+	c #547DAC",
"U+	c #4370A2",
"V+	c #416EA1",
"W+	c #71839A",
"X+	c #82AED9",
"Y+	c #DEEBF6",
"Z+	c #BCD5EE",
"`+	c #76A6D5",
" @	c #709FCE",
".@	c #6796C6",
"+@	c #618FBF",
"@@	c #5B89BA",
"#@	c #5482B4",
"$@	c #5280B2",
"%@	c #4D7CAD",
"&@	c #4C79AB",
"*@	c #4A77A9",
"=@	c #4B78A9",
"-@	c #CEDAE7",
";@	c #E9EEF4",
">@	c #4F79A8",
",@	c #406D9E",
"'@	c #3E6B9E",
")@	c #7E8897",
"!@	c #82ABD3",
"~@	c #DAE8F5",
"{@	c #C2D9EF",
"]@	c #78A8D7",
"^@	c #6A99C9",
"/@	c #6492C2",
"(@	c #6290C0",
"_@	c #5D8BBC",
":@	c #4D7BAC",
"<@	c #4976A8",
"[@	c #4674A6",
"}@	c #4573A5",
"|@	c #D4DFEA",
"1@	c #DEE6EE",
"2@	c #436F9F",
"3@	c #3D6A9B",
"4@	c #3B679A",
"5@	c #8B8D95",
"6@	c #89A5C1",
"7@	c #BBD5EE",
"8@	c #C9DEF1",
"9@	c #73A2D1",
"0@	c #6C9BCB",
"a@	c #5886B6",
"b@	c #4F7DAE",
"c@	c #4876A8",
"d@	c #4370A3",
"e@	c #4773A3",
"f@	c #E3E9F1",
"g@	c #CFDAE6",
"h@	c #3A6799",
"i@	c #396699",
"j@	c #456B97",
"k@	c #9399A4",
"l@	c #DBE9F6",
"m@	c #6897C8",
"n@	c #608FBF",
"o@	c #5C8ABC",
"p@	c #517FB0",
"q@	c #4E7BAC",
"r@	c #4572A5",
"s@	c #426FA0",
"t@	c #406D9F",
"u@	c #446FA0",
"v@	c #EEF2F6",
"w@	c #9AB1CB",
"x@	c #376496",
"y@	c #356295",
"z@	c #5A7494",
"A@	c #F4F8FC",
"B@	c #6795C5",
"C@	c #5E8DBD",
"D@	c #4D7AAC",
"E@	c #4B79AB",
"F@	c #4572A4",
"G@	c #426FA1",
"H@	c #3F6C9F",
"I@	c #3D6A9D",
"J@	c #3C699C",
"K@	c #5F84AD",
"L@	c #FBFCFD",
"M@	c #5177A3",
"N@	c #346093",
"O@	c #345F92",
"P@	c #868A94",
"Q@	c #8AA3BE",
"R@	c #DAE8F6",
"S@	c #98BFE5",
"T@	c #6F9ECE",
"U@	c #6898C6",
"V@	c #5D8ABB",
"W@	c #5B89B9",
"X@	c #5482B3",
"Y@	c #3A679A",
"Z@	c #396598",
"`@	c #91A9C5",
" #	c #F1F4F7",
".#	c #3A6495",
"+#	c #305C90",
"@#	c #3E638F",
"##	c #969599",
"$#	c #B1CEEB",
"%#	c #B3D0EC",
"&#	c #78A7D5",
"*#	c #4875A7",
"=#	c #406DA1",
"-#	c #3C699B",
";#	c #3A6699",
">#	c #376396",
",#	c #366295",
"'#	c #C6D2E0",
")#	c #96ACC6",
"!#	c #2E5A8E",
"~#	c #2D598D",
"{#	c #627690",
"]#	c #85ABD2",
"^#	c #F0F6FB",
"/#	c #84B3E0",
"(#	c #79A9D7",
"_#	c #5785B6",
":#	c #507EB0",
"<#	c #4E7CAE",
"[#	c #426FA2",
"}#	c #3C689B",
"|#	c #335F93",
"1#	c #4F75A2",
"2#	c #406896",
"3#	c #2B578B",
"4#	c #31598A",
"5#	c #969193",
"6#	c #81B0DD",
"7#	c #77A7D5",
"8#	c #75A1CF",
"9#	c #7CA5CF",
"0#	c #8CB0D4",
"a#	c #B5CCE2",
"b#	c #E0E9F3",
"c#	c #F7F9FB",
"d#	c #F6F9FB",
"e#	c #9BB8D5",
"f#	c #5C8BBA",
"g#	c #4F7DB0",
"h#	c #4B78AA",
"i#	c #4471A4",
"j#	c #416EA0",
"k#	c #346295",
"l#	c #336093",
"m#	c #315D91",
"n#	c #305C8F",
"o#	c #9BB0C8",
"p#	c #D3DCE7",
"q#	c #295589",
"r#	c #275387",
"s#	c #69798F",
"t#	c #88A6C6",
"u#	c #8CB8E2",
"v#	c #D2E3F4",
"w#	c #A4C3E0",
"x#	c #CBDCED",
"y#	c #E4EDF5",
"z#	c #F0F4F9",
"A#	c #9EB9D6",
"B#	c #5381B3",
"C#	c #3F6C9E",
"D#	c #386598",
"E#	c #366396",
"F#	c #2E5A8D",
"G#	c #2E598D",
"H#	c #E6EBF1",
"I#	c #4A6F9A",
"J#	c #255185",
"K#	c #245084",
"L#	c #979394",
"M#	c #9AC1E6",
"N#	c #9CB8D5",
"O#	c #4C7AAB",
"P#	c #4775A7",
"Q#	c #3D6A9C",
"R#	c #356195",
"S#	c #2C588C",
"T#	c #2A568A",
"U#	c #93A9C3",
"V#	c #B3C2D5",
"W#	c #214D82",
"X#	c #62748C",
"Y#	c #88A6C5",
"Z#	c #F1F6FB",
"`#	c #E7F0F9",
" $	c #77A6D6",
".$	c #9BB6D4",
"+$	c #356194",
"@$	c #335F92",
"#$	c #315D90",
"$$	c #285488",
"%$	c #375F8E",
"&$	c #204B80",
"*$	c #385983",
"=$	c #999393",
"-$	c #989597",
";$	c #A2C6E8",
">$	c #97BEE5",
",$	c #76A7D6",
"'$	c #ECF1F7",
")$	c #D9E4F0",
"!$	c #C2D3E6",
"~$	c #9BB8D6",
"{$	c #F3F6FA",
"]$	c #9AB6D2",
"^$	c #4D7AAB",
"/$	c #4471A3",
"($	c #416E9F",
"_$	c #3B689B",
":$	c #386497",
"<$	c #356193",
"[$	c #325E90",
"}$	c #2F5B8F",
"|$	c #285489",
"1$	c #265287",
"2$	c #255186",
"3$	c #91A7C1",
"4$	c #A8B9CD",
"5$	c #1E497E",
"6$	c #1D487D",
"7$	c #8F8E92",
"8$	c #9598A0",
"9$	c #EBF2FA",
"0$	c #E9F1F9",
"a$	c #C0D3E7",
"b$	c #90B1D4",
"c$	c #6B97C4",
"d$	c #6693C2",
"e$	c #628FBF",
"f$	c #EFF3F7",
"g$	c #99B4D2",
"h$	c #325E92",
"i$	c #234F83",
"j$	c #345B8B",
"k$	c #F8FAFB",
"l$	c #E1E7EE",
"m$	c #244F82",
"n$	c #1A467B",
"o$	c #526886",
"p$	c #8AA3BD",
"q$	c #90BAE3",
"r$	c #98B3D1",
"s$	c #4E7BAD",
"t$	c #406DA0",
"u$	c #29558A",
"v$	c #255085",
"w$	c #214C81",
"x$	c #234D81",
"y$	c #D7DEE8",
"z$	c #385E8C",
"A$	c #19447A",
"B$	c #1B4478",
"C$	c #80AFDB",
"D$	c #A6C8E8",
"E$	c #9BC2E6",
"F$	c #77A5D4",
"G$	c #6796C5",
"H$	c #5B8AB9",
"I$	c #EFF4F8",
"J$	c #97B2CF",
"K$	c #4774A6",
"L$	c #3B689A",
"M$	c #2C588B",
"N$	c #245085",
"O$	c #1F4B80",
"P$	c #1D497E",
"Q$	c #90A6BF",
"R$	c #90A5BE",
"S$	c #174277",
"T$	c #154075",
"U$	c #80848E",
"V$	c #95979E",
"W$	c #CCDFF2",
"X$	c #78A8D6",
"Y$	c #77A6D4",
"Z$	c #5F8DBE",
"`$	c #5D8BBB",
" %	c #EFF3F8",
".%	c #96B1CF",
"+%	c #4B7AAC",
"@%	c #3F6CA0",
"#%	c #346094",
"$%	c #2F5B8E",
"%%	c #2D598C",
"&%	c #265286",
"*%	c #245184",
"=%	c #1C487D",
"-%	c #335A89",
";%	c #F1F3F7",
">%	c #164175",
",%	c #133E74",
"'%	c #627187",
")%	c #8E9FB4",
"!%	c #CEE1F3",
"~%	c #77A5D5",
"{%	c #6B9AC8",
"]%	c #94B0CE",
"^%	c #3E6B9D",
"/%	c #346194",
"(%	c #234E83",
"_%	c #204C81",
":%	c #1C477C",
"<%	c #1A457A",
"[%	c #194479",
"}%	c #EDF0F4",
"|%	c #2C5383",
"1%	c #113C72",
"2%	c #445D7F",
"3%	c #87B5E1",
"4%	c #A0C4E7",
"5%	c #93AFCC",
"6%	c #4472A4",
"7%	c #376497",
"8%	c #325E91",
"9%	c #2B578C",
"0%	c #224E83",
"a%	c #164177",
"b%	c #A3B4C8",
"c%	c #6580A3",
"d%	c #103A70",
"e%	c #284976",
"f%	c #86AACE",
"g%	c #A8C9E9",
"h%	c #76A5D5",
"i%	c #93ADCB",
"j%	c #406C9F",
"k%	c #1F4A7F",
"l%	c #184379",
"m%	c #143F75",
"n%	c #627FA2",
"o%	c #96A8C0",
"p%	c #0E386E",
"q%	c #000000",
"r%	c #C6DBF0",
"s%	c #75A5D5",
"t%	c #91ACCA",
"u%	c #3E618D",
"v%	c #FCFCFD",
"w%	c #B5C2D2",
"x%	c #0D376D",
"y%	c #0A356B",
"z%	c #8F8D92",
"A%	c #989596",
"B%	c #82AFDA",
"C%	c #83B3E0",
"D%	c #6696C5",
"E%	c #4F7DAD",
"F%	c #EEF3F7",
"G%	c #90ACC9",
"H%	c #275388",
"I%	c #174279",
"J%	c #133E73",
"K%	c #113C71",
"L%	c #2E5382",
"M%	c #F5F7F9",
"N%	c #CBD4E0",
"O%	c #083369",
"P%	c #737A89",
"Q%	c #EDF1F6",
"R%	c #8FAAC8",
"S%	c #224D82",
"T%	c #19457A",
"U%	c #143F74",
"V%	c #0F3A70",
"W%	c #1F4779",
"X%	c #EFF2F5",
"Y%	c #DDE3EA",
"Z%	c #0A346A",
"`%	c #073167",
" &	c #5A6981",
".&	c #EEF4FA",
"+&	c #D9E8F5",
"@&	c #6695C4",
"#&	c #EEF2F7",
"$&	c #8EA9C7",
"%&	c #2A568B",
"&&	c #1E4A7F",
"*&	c #1B477C",
"=&	c #184278",
"-&	c #164176",
";&	c #0D386E",
">&	c #163F73",
",&	c #EBEFF3",
"'&	c #093368",
")&	c #052F65",
"!&	c #475C7A",
"~&	c #94969D",
"{&	c #86B4E1",
"]&	c #76A4D3",
"^&	c #5B89B8",
"/&	c #8DA8C6",
"(&	c #184377",
"_&	c #123D73",
":&	c #103B71",
"<&	c #0C376D",
"[&	c #0D376C",
"}&	c #E7EBF0",
"|&	c #F4F6F8",
"1&	c #073166",
"2&	c #032D64",
"3&	c #3C5477",
"4&	c #9498A0",
"5&	c #6795C4",
"6&	c #4A79AB",
"7&	c #8BA6C5",
"8&	c #1B467B",
"9&	c #184378",
"0&	c #0C366C",
"a&	c #093369",
"b&	c #E6EAF0",
"c&	c #FBFBFC",
"d&	c #012B62",
"e&	c #314C72",
"f&	c #9598A1",
"g&	c #F3F7FB",
"h&	c #CBDEF1",
"i&	c #79A9D6",
"j&	c #8BA6C3",
"k&	c #234F84",
"l&	c #214E82",
"m&	c #083269",
"n&	c #E6EAEF",
"o&	c #FDFDFD",
"p&	c #032D63",
"q&	c #002A61",
"r&	c #304B71",
"s&	c #93969E",
"t&	c #6595C4",
"u&	c #EDF2F6",
"v&	c #8AA4C2",
"w&	c #063067",
"x&	c #052F66",
"y&	c #F6F7F9",
"z&	c #032C62",
"A&	c #375176",
"B&	c #82B0DE",
"C&	c #D2E3F2",
"D&	c #5987B9",
"E&	c #88A3C2",
"F&	c #224E84",
"G&	c #174278",
"H&	c #154076",
"I&	c #0F396F",
"J&	c #09346A",
"K&	c #083268",
"L&	c #042E65",
"M&	c #083166",
"N&	c #E9ECF1",
"O&	c #EEF0F4",
"P&	c #425978",
"Q&	c #EBF2F9",
"R&	c #D9E7F3",
"S&	c #87A2C1",
"T&	c #184479",
"U&	c #0B366C",
"V&	c #073269",
"W&	c #042E64",
"X&	c #0F376A",
"Y&	c #EDEFF3",
"Z&	c #E1E6EC",
"`&	c #022C63",
" *	c #53647D",
".*	c #7EABD7",
"+*	c #E2EDF6",
"@*	c #E0EBF6",
"#*	c #87A1BF",
"$*	c #255187",
"%*	c #174178",
"&*	c #123D72",
"**	c #063066",
"=*	c #1A3F72",
"-*	c #F2F4F6",
";*	c #CFD7E1",
">*	c #6B7485",
",*	c #989496",
"'*	c #7DA7D1",
")*	c #CADDEF",
"!*	c #ECF2F9",
"~*	c #78A6D4",
"{*	c #ECF0F4",
"]*	c #85A0BE",
"^*	c #012B61",
"/*	c #002A62",
"(*	c #284C7A",
"_*	c #F8F9FA",
":*	c #B9C4D3",
"<*	c #87888F",
"[*	c #7FA4CA",
"}*	c #ABC8E5",
"|*	c #78A5D2",
"1*	c #6594C3",
"2*	c #EDF1F5",
"3*	c #859FBE",
"4*	c #123C72",
"5*	c #0E396F",
"6*	c #083168",
"7*	c #3A5B85",
"8*	c #9DADC2",
"9*	c #81A1C2",
"0*	c #85AED7",
"a*	c #7DA8D3",
"b*	c #3D6A9E",
"c*	c #839DBC",
"d*	c #224E82",
"e*	c #7289A8",
"f*	c #6C84A4",
"g*	c #163A69",
"h*	c #879BB3",
"i*	c #A9C5E1",
"j*	c #5A88B7",
"k*	c #ECF0F5",
"l*	c #829CBB",
"m*	c #234E82",
"n*	c #143F73",
"o*	c #0B356B",
"p*	c #BCC7D5",
"q*	c #315380",
"r*	c #344E73",
"s*	c #9096A1",
"t*	c #D4E2F0",
"u*	c #E1EAF4",
"v*	c #EBEFF4",
"w*	c #819CBA",
"x*	c #073168",
"y*	c #54647D",
"z*	c #A2C0DE",
"A*	c #719DCA",
"B*	c #7F9AB9",
"C*	c #022C62",
"D*	c #4A688F",
"E*	c #A8B6C9",
"F*	c #747A88",
"G*	c #7C99B9",
"H*	c #84ABD2",
"I*	c #9BBADA",
"J*	c #5886B8",
"K*	c #416D9E",
"L*	c #5C81AB",
"M*	c #597EA9",
"N*	c #577DA8",
"O*	c #567BA6",
"P*	c #557BA5",
"Q*	c #5379A4",
"R*	c #4D729F",
"S*	c #EFF2F6",
"T*	c #94AAC4",
"U*	c #486D99",
"V*	c #476B97",
"W*	c #446996",
"X*	c #436895",
"Y*	c #426693",
"Z*	c #395E8D",
"`*	c #123D74",
" =	c #AEBBCD",
".=	c #979293",
"+=	c #8E95A0",
"@=	c #F4F8FB",
"#=	c #C9DAEA",
"$=	c #3E6B9C",
"%=	c #587EA9",
"&=	c #D1DAE4",
"*=	c #113B71",
"==	c #063068",
"-=	c #0B3468",
";=	c #E2E6ED",
">=	c #EAEDF2",
",=	c #0F376B",
"'=	c #324E73",
")=	c #969498",
"!=	c #6C97C4",
"~=	c #6795C6",
"{=	c #AEC6E0",
"]=	c #557BA7",
"^=	c #CAD4E0",
"/=	c #123E73",
"(=	c #073068",
"_=	c #345682",
":=	c #BBC6D5",
"<=	c #82848D",
"[=	c #7395BA",
"}=	c #A7C0DB",
"|=	c #5D8CBC",
"1=	c #547BA6",
"2=	c #CCD5E1",
"3=	c #073067",
"4=	c #C5CEDB",
"5=	c #42618A",
"6=	c #173A69",
"7=	c #8E949D",
"8=	c #BFD1E5",
"9=	c #F8FAFC",
"0=	c #628FBE",
"a=	c #4573A4",
"b=	c #466E9D",
"c=	c #AEC0D4",
"d=	c #A8BBD0",
"e=	c #A8BAD0",
"f=	c #A6B9CF",
"g=	c #A6B8CE",
"h=	c #A5B8CE",
"i=	c #A4B7CD",
"j=	c #A3B6CD",
"k=	c #A3B5CC",
"l=	c #A2B5CB",
"m=	c #A1B4CA",
"n=	c #A1B3CA",
"o=	c #A0B2C9",
"p=	c #9FB1C8",
"q=	c #9FB1C7",
"r=	c #9EB0C7",
"s=	c #9DAFC6",
"t=	c #9CAEC5",
"u=	c #7D95B2",
"v=	c #365783",
"w=	c #D5DCE5",
"x=	c #455A78",
"y=	c #6C91B8",
"z=	c #7EA4CA",
"A=	c #97B4D3",
"B=	c #5987B6",
"C=	c #3C699D",
"D=	c #224D81",
"E=	c #B1BECE",
"F=	c #47668D",
"G=	c #8A898F",
"H=	c #8892A0",
"I=	c #5F8EBD",
"J=	c #D0DDEB",
"K=	c #F2F6F9",
"L=	c #5684B6",
"M=	c #3C6A9D",
"N=	c #173E70",
"O=	c #EBEEF2",
"P=	c #062F65",
"Q=	c #3F5677",
"R=	c #989394",
"S=	c #628BB7",
"T=	c #628EBB",
"U=	c #B1C6DD",
"V=	c #D6DCE5",
"W=	c #4C6A90",
"X=	c #062E63",
"Y=	c #8F8C90",
"Z=	c #8A919D",
"`=	c #B6CADF",
" -	c #6991BB",
".-	c #3D699C",
"+-	c #627C9E",
"@-	c #B2BECF",
"#-	c #354F74",
"$-	c #6A89AC",
"%-	c #5684B4",
"&-	c #5784B4",
"*-	c #D5E0EC",
"=-	c #2E5A8C",
"--	c #204C82",
";-	c #052F67",
">-	c #0C3469",
",-	c #F1F3F6",
"'-	c #254978",
")-	c #052E64",
"!-	c #8E919A",
"~-	c #6A91BC",
"{-	c #ABC1D8",
"]-	c #D9DFE7",
"^-	c #7088A6",
"/-	c #7C8CA1",
"(-	c #B0C5DA",
"_-	c #6D91B9",
":-	c #8095B0",
"<-	c #B6C2D2",
"[-	c #1F406D",
"}-	c #6182A7",
"|-	c #4B79AA",
"1-	c #D5E0EB",
"2-	c #5882AF",
"3-	c #526F94",
"4-	c #052E63",
"5-	c #949296",
"6-	c #517DAC",
"7-	c #F3F6F9",
"8-	c #335581",
"9-	c #FAFAFB",
"0-	c #F5F6F8",
"a-	c #1E4374",
"b-	c #6E7686",
"c-	c #8B8E98",
"d-	c #4775A6",
"e-	c #4673A4",
"f-	c #547DAB",
"g-	c #F4F7F9",
"h-	c #E7ECF3",
"i-	c #4A74A4",
"j-	c #2F5B90",
"k-	c #214B80",
"l-	c #063065",
"m-	c #355782",
"n-	c #4F6C92",
"o-	c #495D7A",
"p-	c #79889C",
"q-	c #4370A1",
"r-	c #5C83AD",
"s-	c #E8EDF3",
"t-	c #214B81",
"u-	c #2E517E",
"v-	c #F9FAFB",
"w-	c #3D5D87",
"x-	c #3A5275",
"y-	c #72849B",
"z-	c #597FAB",
"A-	c #F0F3F7",
"B-	c #597EA8",
"C-	c #204B81",
"D-	c #5E799B",
"E-	c #547095",
"F-	c #2D4A71",
"G-	c #687F9B",
"H-	c #4871A0",
"I-	c #F3F5F8",
"J-	c #6E8EB3",
"K-	c #042E66",
"L-	c #93A5BC",
"M-	c #F7F8FA",
"N-	c #30527F",
"O-	c #25446F",
"P-	c #989393",
"Q-	c #718197",
"R-	c #396496",
"S-	c #3D6899",
"T-	c #C0CEDE",
"U-	c #B0C1D5",
"V-	c #315D8F",
"W-	c #1F4B81",
"X-	c #103C72",
"Y-	c #224776",
"Z-	c #C8D1DD",
"`-	c #002B61",
" ;	c #385174",
".;	c #798496",
"+;	c #366395",
"@;	c #91A9C4",
"#;	c #F0F3F6",
"$;	c #4E739E",
"%;	c #5A7599",
"&;	c #375074",
"*;	c #898B94",
"=;	c #376193",
"-;	c #4B719D",
";;	c #D8E0E9",
">;	c #C3CFDD",
",;	c #386190",
"';	c #44638B",
");	c #D4DBE4",
"!;	c #F4F5F8",
"~;	c #41618A",
"{;	c #646F83",
"];	c #4D6B91",
"^;	c #9BAFC7",
"/;	c #3E6492",
"(;	c #103B70",
"_;	c #BFC9D7",
":;	c #A1B0C5",
"<;	c #143969",
"[;	c #81838D",
"};	c #999394",
"|;	c #7B8392",
"1;	c #2E588A",
"2;	c #90A6C0",
"3;	c #D2DAE5",
"4;	c #54759C",
"5;	c #113A70",
"6;	c #6A83A3",
"7;	c #E3E7ED",
"8;	c #A6B5C8",
"9;	c #193F71",
"0;	c #4B5E7B",
"a;	c #929094",
"b;	c #4F6A8C",
"c;	c #2E5687",
"d;	c #96AAC3",
"e;	c #E0E6ED",
"f;	c #EBEEF3",
"g;	c #94A8C1",
"h;	c #57759C",
"i;	c #2A5180",
"j;	c #567296",
"k;	c #A3B2C6",
"l;	c #9EAEC3",
"m;	c #234877",
"n;	c #23436D",
"o;	c #787D89",
"p;	c #918F93",
"q;	c #395B86",
"r;	c #3F6390",
"s;	c #C2CDDB",
"t;	c #EFF1F5",
"u;	c #A4B4C8",
"v;	c #5E7B9E",
"w;	c #234A7A",
"x;	c #2A4D7B",
"y;	c #B5C1D1",
"z;	c #D7DDE6",
"A;	c #49678E",
"B;	c #093065",
"C;	c #737A88",
"D;	c #7C828F",
"E;	c #496385",
"F;	c #1F487B",
"G;	c #57769C",
"H;	c #8CA0BA",
"I;	c #C2CDDA",
"J;	c #DFE4EB",
"K;	c #DEE3EA",
"L;	c #E0E5EB",
"M;	c #90A2BA",
"N;	c #577397",
"O;	c #1B4172",
"P;	c #26446E",
"Q;	c #657083",
"R;	c #566A86",
"S;	c #1B4377",
"T;	c #153F74",
"U;	c #0F386D",
"V;	c #47678F",
"W;	c #778EAB",
"X;	c #98A9C0",
"Y;	c #B4C0D1",
"Z;	c #D0D7E2",
"`;	c #C9D2DD",
" >	c #B7C3D2",
".>	c #A0B0C4",
"+>	c #7B91AD",
"@>	c #4E6B92",
"#>	c #143B6E",
"$>	c #022B62",
"%>	c #072F63",
"&>	c #304C72",
"*>	c #8B8A90",
"=>	c #80838E",
"->	c #616F86",
";>	c #325179",
">>	c #0B346B",
",>	c #032D65",
"'>	c #1B3D6B",
")>	c #4D607C",
"!>	c #767C88",
"~>	c #918E91",
"{>	c #7D818C",
"]>	c #546580",
"^>	c #304D74",
"/>	c #1A3D6C",
"(>	c #133968",
"_>	c #0E3466",
":>	c #0D3365",
"<>	c #0C3265",
"[>	c #0D3366",
"}>	c #113667",
"|>	c #163969",
"1>	c #24446E",
"2>	c #475B7A",
"3>	c #6E7687",
"4>	c #949092",
"5>	c #8E8C90",
"6>	c #908D91",
"7>	c #938F92",
"8>	c #9E9090",
"9>	c #AE8382",
"0>	c #BB7878",
"a>	c #C57070",
"b>	c #CB6A69",
"c>	c #CE6666",
"d>	c #CD6666",
"e>	c #CB6868",
"f>	c #C46D6D",
"g>	c #BB7575",
"h>	c #AF7F80",
"i>	c #A08D8D",
"j>	c #A58A8A",
"k>	c #B18181",
"l>	c #CC6C6C",
"m>	c #E65757",
"n>	c #FD4544",
"o>	c #FE4545",
"p>	c #FD4443",
"q>	c #FC4343",
"r>	c #FB4343",
"s>	c #FA4242",
"t>	c #F94142",
"u>	c #F84140",
"v>	c #F74141",
"w>	c #F63F3F",
"x>	c #F53F3F",
"y>	c #F43E3E",
"z>	c #F33E3E",
"A>	c #F23E3D",
"B>	c #DF4D4D",
"C>	c #C86464",
"D>	c #B07C7C",
"E>	c #A58888",
"F>	c #9B9292",
"G>	c #9D9090",
"H>	c #CF6A6A",
"I>	c #F44D4D",
"J>	c #FA4848",
"K>	c #FF4545",
"L>	c #FE4445",
"M>	c #FC4444",
"N>	c #FC4242",
"O>	c #F94141",
"P>	c #F84141",
"Q>	c #F74040",
"R>	c #F64040",
"S>	c #F43F3E",
"T>	c #F13E3E",
"U>	c #F13D3D",
"V>	c #F03C3D",
"W>	c #EF3C3C",
"X>	c #EE3B3B",
"Y>	c #E93E3E",
"Z>	c #E34141",
"`>	c #CA5D5D",
" ,	c #A28989",
".,	c #BB7979",
"+,	c #E35A5A",
"@,	c #FF4444",
"#,	c #FD4444",
"$,	c #FC4C4D",
"%,	c #FB5C5C",
"&,	c #FB6A6A",
"*,	c #FA7474",
"=,	c #FA7979",
"-,	c #F97E7E",
";,	c #F87C7C",
">,	c #F77777",
",,	c #F66F6F",
"',	c #F56565",
"),	c #F35656",
"!,	c #F14242",
"~,	c #F03C3C",
"{,	c #EF3B3B",
"],	c #ED3A3A",
"^,	c #EC3A3A",
"/,	c #EB3939",
"(,	c #EA3939",
"_,	c #E93838",
":,	c #D84A4A",
"<,	c #B76F6F",
"[,	c #A08B8B",
"},	c #C77070",
"|,	c #FB4747",
"1,	c #FE4746",
"2,	c #FE8484",
"3,	c #FEC2C2",
"4,	c #FEF6F6",
"5,	c #FEFCFC",
"6,	c #FEFDFD",
"7,	c #FDEFEF",
"8,	c #F8B5B5",
"9,	c #F27171",
"0,	c #EB393A",
"a,	c #E93938",
"b,	c #E83838",
"c,	c #E73737",
"d,	c #E53737",
"e,	c #E23636",
"f,	c #C45D5D",
"g,	c #FF7575",
"h,	c #FEAFAF",
"i,	c #FFDDDD",
"j,	c #FED9D9",
"k,	c #FDC1C2",
"l,	c #FCAEAF",
"m,	c #FBA2A2",
"n,	c #FA9797",
"o,	c #F99797",
"p,	c #F99696",
"q,	c #F89B9B",
"r,	c #F9A7A7",
"s,	c #FAB9B9",
"t,	c #FBCECE",
"u,	c #FDEBEB",
"v,	c #FAD4D4",
"w,	c #F4A1A1",
"x,	c #EC6060",
"y,	c #E43636",
"z,	c #E33535",
"A,	c #DE3736",
"B,	c #BF6160",
"C,	c #9D8F8F",
"D,	c #A98787",
"E,	c #F64B4B",
"F,	c #FF4949",
"G,	c #FF8C8C",
"H,	c #FFF9F9",
"I,	c #FFFCFC",
"J,	c #FEF8F8",
"K,	c #FED8D8",
"L,	c #FD8F8F",
"M,	c #FB5150",
"N,	c #F43E3F",
"O,	c #F33E3D",
"P,	c #F23E3E",
"Q,	c #F13C3C",
"R,	c #F03D3D",
"S,	c #ED3B3B",
"T,	c #F07070",
"U,	c #F7BABA",
"V,	c #FDF2F2",
"W,	c #FEFAFA",
"X,	c #FCEEEE",
"Y,	c #EB6E6E",
"Z,	c #E33939",
"`,	c #E23434",
" '	c #E13434",
".'	c #DF3333",
"+'	c #E03332",
"@'	c #DB3535",
"#'	c #AA7C7C",
"$'	c #DB6060",
"%'	c #FF5252",
"&'	c #FFB8B8",
"*'	c #FFF1F1",
"='	c #FEA8A8",
"-'	c #FE6F6F",
";'	c #FD4D4D",
">'	c #FB4242",
",'	c #F94241",
"''	c #F43F3F",
")'	c #F23D3D",
"!'	c #EB5757",
"~'	c #EF8685",
"{'	c #FADEDE",
"]'	c #FBE8E8",
"^'	c #F1A1A1",
"/'	c #E03535",
"('	c #DF3232",
"_'	c #DF3332",
":'	c #DD3232",
"<'	c #DD3131",
"['	c #C94B4B",
"}'	c #9C8F8F",
"|'	c #A88888",
"1'	c #F54C4C",
"2'	c #FF4C4C",
"3'	c #FF9595",
"4'	c #FFE9E9",
"5'	c #FF9393",
"6'	c #FE4444",
"7'	c #FD4344",
"8'	c #FB4342",
"9'	c #F84041",
"0'	c #E53636",
"a'	c #E43635",
"b'	c #E85D5D",
"c'	c #F8CFCF",
"d'	c #FDF7F7",
"e'	c #FEFAFB",
"f'	c #E87373",
"g'	c #DD3536",
"h'	c #DC3031",
"i'	c #DB3031",
"j'	c #DA3030",
"k'	c #D92F2E",
"l'	c #A87B7B",
"m'	c #C27474",
"n'	c #FF7D7D",
"o'	c #FFEDED",
"p'	c #FFE6E6",
"q'	c #FF6E6E",
"r'	c #FF4848",
"s'	c #F6403F",
"t'	c #EB3A3A",
"u'	c #E93839",
"v'	c #E63737",
"w'	c #E43535",
"x'	c #E33534",
"y'	c #E44C4C",
"z'	c #F3B7B7",
"A'	c #F9E1E1",
"B'	c #E05051",
"C'	c #DA2F30",
"D'	c #D82F2F",
"E'	c #D92E2F",
"F'	c #D62E2E",
"G'	c #BD5958",
"H'	c #CA6E6E",
"I'	c #FF4E4E",
"J'	c #FFB3B3",
"K'	c #FF9C9C",
"L'	c #FC4443",
"M'	c #F84040",
"N'	c #F33D3D",
"O'	c #E73837",
"P'	c #E73736",
"Q'	c #E43536",
"R'	c #E23435",
"S'	c #E03333",
"T'	c #DE3232",
"U'	c #E45B5B",
"V'	c #F7D4D4",
"W'	c #EA9090",
"X'	c #D82F30",
"Y'	c #D72E2D",
"Z'	c #D52D2D",
"`'	c #D52C2D",
" )	c #BD5454",
".)	c #9B9191",
"+)	c #D86363",
"@)	c #FF5959",
"#)	c #FFEFEF",
"$)	c #FFCBCB",
"%)	c #FD4343",
"&)	c #FA4241",
"*)	c #F94242",
"=)	c #F53E3F",
"-)	c #F33D3E",
";)	c #F13C3D",
">)	c #F03D3C",
",)	c #EE3A3B",
"')	c #EC3939",
"))	c #EA3839",
"!)	c #E63636",
"~)	c #E23535",
"{)	c #E03232",
"])	c #DB3232",
"^)	c #E87F80",
"/)	c #F9E0E0",
"()	c #D73736",
"_)	c #D52D2C",
":)	c #D42C2C",
"<)	c #D32C2C",
"[)	c #C54040",
"})	c #9A9393",
"|)	c #DC6060",
"1)	c #FF8080",
"2)	c #FFFDFD",
"3)	c #FF8E8E",
"4)	c #FE4544",
"5)	c #EF3B3C",
"6)	c #EC3B3A",
"7)	c #DC3030",
"8)	c #DB3030",
"9)	c #DA2F2F",
"0)	c #D92F2F",
"a)	c #DE4F50",
"b)	c #F8DBDB",
"c)	c #FBEBEB",
"d)	c #DD5959",
"e)	c #D32B2B",
"f)	c #D12B2B",
"g)	c #D12A2A",
"h)	c #C34242",
"i)	c #D36666",
"j)	c #FF8484",
"k)	c #FFF0F0",
"l)	c #FF5555",
"m)	c #FF4544",
"n)	c #EE3C3C",
"o)	c #E73838",
"p)	c #E53637",
"q)	c #E03334",
"r)	c #E03233",
"s)	c #DD3231",
"t)	c #DC3131",
"u)	c #DB2F2F",
"v)	c #D92E2E",
"w)	c #D72E2E",
"x)	c #D62D2D",
"y)	c #F2C1C0",
"z)	c #DB5555",
"A)	c #D02929",
"B)	c #CE2A2A",
"C)	c #C04343",
"D)	c #D16868",
"E)	c #FF9B9B",
"F)	c #FFD3D3",
"G)	c #FF5353",
"H)	c #F63F40",
"I)	c #E13334",
"J)	c #E03433",
"K)	c #DF3233",
"L)	c #DD3132",
"M)	c #DD3130",
"N)	c #D82F2E",
"O)	c #D62D2E",
"P)	c #D52C2C",
"Q)	c #E89595",
"R)	c #DF7171",
"S)	c #CF2929",
"T)	c #CD2829",
"U)	c #CD2828",
"V)	c #BD4848",
"W)	c #B57E7E",
"X)	c #FF8888",
"Y)	c #FF4747",
"Z)	c #EA393A",
"`)	c #E73637",
" !	c #D82E2E",
".!	c #D72D2E",
"+!	c #D32C2B",
"@!	c #D22A2A",
"#!	c #E38080",
"$!	c #D75353",
"%!	c #CD2827",
"&!	c #CB2728",
"*!	c #CA2626",
"=!	c #B15E5E",
"-!	c #AD8484",
";!	c #FF8585",
">!	c #FFCCCC",
",!	c #EF3C3B",
"'!	c #E63637",
")!	c #E23534",
"!!	c #D22B2B",
"~!	c #D02A2A",
"{!	c #E27F7F",
"]!	c #FEFBFB",
"^!	c #D75758",
"/!	c #CA2727",
"(!	c #CA2726",
"_!	c #C92626",
":!	c #A86F70",
"<!	c #9B9393",
"[!	c #EE5252",
"}!	c #FF6060",
"|!	c #FFE7E7",
"1!	c #FF4D4D",
"2!	c #E93939",
"3!	c #D22A2B",
"4!	c #E59393",
"5!	c #FAEDED",
"6!	c #CC3131",
"7!	c #C82526",
"8!	c #C72525",
"9!	c #C42827",
"0!	c #9E8989",
"a!	c #FFF2F2",
"b!	c #FA4142",
"c!	c #E53736",
"d!	c #D82E2F",
"e!	c #CF2A2A",
"f!	c #CE2929",
"g!	c #CC2828",
"h!	c #EFBEBE",
"i!	c #F7E2E2",
"j!	c #C82828",
"k!	c #C62525",
"l!	c #C52424",
"m!	c #B94041",
"n!	c #FFC1C1",
"o!	c #FF7373",
"p!	c #CE2828",
"q!	c #CB2727",
"r!	c #F5D9D9",
"s!	c #E29191",
"t!	c #C62324",
"u!	c #C32323",
"v!	c #AA6666",
"w!	c #E95555",
"x!	c #FF9292",
"y!	c #E83737",
"z!	c #E63736",
"A!	c #DC3130",
"B!	c #CE2928",
"C!	c #CC2728",
"D!	c #C82525",
"E!	c #D04747",
"F!	c #D04D4E",
"G!	c #C32322",
"H!	c #C32222",
"I!	c #BD2C2D",
"J!	c #9B8E8E",
"K!	c #C07676",
"L!	c #FF5050",
"M!	c #FFF4F4",
"N!	c #FFD9D9",
"O!	c #EC3A3B",
"P!	c #CE2829",
"Q!	c #CC2827",
"R!	c #C82626",
"S!	c #DB7878",
"T!	c #F7E3E3",
"U!	c #C32828",
"V!	c #C12222",
"W!	c #C02021",
"X!	c #AD5858",
"Y!	c #FB4848",
"Z!	c #FFB0B0",
"`!	c #FF6464",
" ~	c #FA4141",
".~	c #F33F3E",
"+~	c #EE3C3B",
"@~	c #EC3B3B",
"#~	c #EB5454",
"$~	c #EF7C7C",
"%~	c #F19998",
"&~	c #F3A8A8",
"*~	c #F3A9AA",
"=~	c #F19D9D",
"-~	c #ED8283",
";~	c #E65758",
">~	c #D72D2D",
",~	c #D32B2C",
"'~	c #C62524",
")~	c #C42525",
"!~	c #F2D1D1",
"~~	c #D77070",
"{~	c #C02120",
"]~	c #BE2020",
"^~	c #9D8888",
"/~	c #BE7777",
"(~	c #FF6666",
"_~	c #FFA1A1",
":~	c #EC4849",
"<~	c #EE6969",
"[~	c #F6B8B8",
"}~	c #FDFAFA",
"|~	c #EE9A9A",
"1~	c #E04545",
"2~	c #DA302F",
"3~	c #C62423",
"4~	c #C52324",
"5~	c #CE4D4D",
"6~	c #C12827",
"7~	c #BD1F20",
"8~	c #BD1F1F",
"9~	c #AF4B4B",
"0~	c #F24E4E",
"a~	c #FF5151",
"b~	c #EE5555",
"c~	c #FAD0D0",
"d~	c #FDF0F0",
"e~	c #FDF5F5",
"f~	c #EEA1A1",
"g~	c #CC2727",
"h~	c #C82625",
"i~	c #C62425",
"j~	c #C42323",
"k~	c #C22222",
"l~	c #E8AEAE",
"m~	c #E4A2A1",
"n~	c #BC1E1F",
"o~	c #B82525",
"p~	c #9A9191",
"q~	c #B97B7B",
"r~	c #FF4F4F",
"s~	c #FFADAD",
"t~	c #ED3B3A",
"u~	c #F17F7F",
"v~	c #F0B3B3",
"w~	c #D8302F",
"x~	c #CA2627",
"y~	c #C62424",
"z~	c #C12221",
"A~	c #C12121",
"B~	c #C63B3B",
"C~	c #FCF6F6",
"D~	c #F9EBEB",
"E~	c #BD2424",
"F~	c #BC1E1E",
"G~	c #BA1E1D",
"H~	c #A85F5F",
"I~	c #EE3B3C",
"J~	c #F07C7C",
"K~	c #FADBDB",
"L~	c #F09898",
"M~	c #E96969",
"N~	c #E54F4F",
"O~	c #E34D4D",
"P~	c #E76767",
"Q~	c #F0AAAA",
"R~	c #EEACAC",
"S~	c #C02121",
"T~	c #BF2021",
"U~	c #BE1F1F",
"V~	c #EFC9C9",
"W~	c #D36C6C",
"X~	c #B91C1D",
"Y~	c #B71F1F",
"Z~	c #A38C8C",
"`~	c #F94949",
" {	c #FFA7A7",
".{	c #F23D3E",
"+{	c #ED3A3B",
"@{	c #F07B7C",
"#{	c #F8D2D2",
"${	c #F08F8F",
"%{	c #E54141",
"&{	c #E23333",
"*{	c #DC3231",
"={	c #F1B1B1",
"-{	c #DB4C4C",
";{	c #D12B2A",
">{	c #CB2627",
",{	c #C52323",
"'{	c #C12120",
"){	c #BF2020",
"!{	c #C84949",
"~{	c #B91D1D",
"{{	c #B71C1C",
"]{	c #B81C1C",
"^{	c #A17374",
"/{	c #FF9191",
"({	c #FF6767",
"_{	c #FB4243",
":{	c #F53F40",
"<{	c #EF7D7D",
"[{	c #FBDFDF",
"}{	c #E84B4B",
"|{	c #E33435",
"1{	c #E13333",
"2{	c #E98B8B",
"3{	c #F7D8D8",
"4{	c #CD2929",
"5{	c #BE201F",
"6{	c #BD1E1F",
"7{	c #BC1F1E",
"8{	c #BB1E1E",
"9{	c #F3D8D8",
"0{	c #CA5555",
"a{	c #B71B1C",
"b{	c #B61B1A",
"c{	c #A95050",
"d{	c #E55959",
"e{	c #FEC8C8",
"f{	c #FFF3F3",
"g{	c #E84344",
"h{	c #DE3132",
"i{	c #D83231",
"j{	c #F8E1E1",
"k{	c #D43D3C",
"l{	c #CE292A",
"m{	c #CD2928",
"n{	c #CB2828",
"o{	c #C42324",
"p{	c #BF1F1F",
"q{	c #BB1E1D",
"r{	c #BA1D1D",
"s{	c #D37373",
"t{	c #E09D9D",
"u{	c #B61A1A",
"v{	c #B51A1A",
"w{	c #B02B2B",
"x{	c #FEA7A7",
"y{	c #F33F3F",
"z{	c #E99393",
"A{	c #D0292A",
"B{	c #C72524",
"C{	c #C12122",
"D{	c #BF2120",
"E{	c #B91D1C",
"F{	c #C33F3F",
"G{	c #FDF9F9",
"H{	c #F2D7D7",
"I{	c #B51B1A",
"J{	c #B41919",
"K{	c #B31919",
"L{	c #9B8C8C",
"M{	c #B77C7C",
"N{	c #FF7070",
"O{	c #FC5151",
"P{	c #DE6F6F",
"Q{	c #C02020",
"R{	c #BC1F1F",
"S{	c #B81B1C",
"T{	c #B71B1B",
"U{	c #FAF0F0",
"V{	c #B51D1D",
"W{	c #B21919",
"X{	c #B21818",
"Y{	c #A35D5D",
"Z{	c #D36767",
"`{	c #FEB9B9",
" ]	c #FEECEC",
".]	c #F13D3E",
"+]	c #E33434",
"@]	c #DA4D4D",
"#]	c #B91C1C",
"$]	c #B61B1B",
"%]	c #E4ACAC",
"&]	c #CF6F6F",
"*]	c #B11818",
"=]	c #AB3232",
"-]	c #E45959",
";]	c #FEF4F4",
">]	c #FDBEBE",
",]	c #E06C6D",
"']	c #D95D5E",
")]	c #BE1F20",
"!]	c #B61A1B",
"~]	c #C85757",
"{]	c #EAC0C0",
"]]	c #B01717",
"^]	c #AF1717",
"/]	c #AE1B1B",
"(]	c #9A9292",
"_]	c #EE5050",
":]	c #FD5252",
"<]	c #FC9999",
"[]	c #EFB6B6",
"}]	c #D03A3A",
"|]	c #C52423",
"1]	c #BB1D1E",
"2]	c #B41A1A",
"3]	c #FCF8F8",
"4]	c #B01818",
"5]	c #AF1716",
"6]	c #AD1B1B",
"7]	c #9B8686",
"8]	c #9D9191",
"9]	c #F64A4A",
"0]	c #FC6666",
"a]	c #FB7C7C",
"b]	c #F5403F",
"c]	c #EA3938",
"d]	c #E83837",
"e]	c #DE3131",
"f]	c #D43737",
"g]	c #FBEDED",
"h]	c #F4D6D6",
"i]	c #BB1D1D",
"j]	c #F6E6E6",
"k]	c #B52929",
"l]	c #AD1616",
"m]	c #AC1717",
"n]	c #9D7C7C",
"o]	c #FB4444",
"p]	c #FC7878",
"q]	c #FA6666",
"r]	c #E79190",
"s]	c #D65252",
"t]	c #C12021",
"u]	c #B41A19",
"v]	c #B21819",
"w]	c #B21918",
"x]	c #B01718",
"y]	c #EBC5C5",
"z]	c #BC3F3F",
"A]	c #AA1515",
"B]	c #9E7273",
"C]	c #A18D8D",
"D]	c #FB8686",
"E]	c #F85151",
"F]	c #DE3231",
"G]	c #D22C2C",
"H]	c #DD6262",
"I]	c #F1C7C7",
"J]	c #C72424",
"K]	c #E2ABAB",
"L]	c #C15050",
"M]	c #AC1515",
"N]	c #AA1415",
"O]	c #9F6A6A",
"P]	c #AB8585",
"Q]	c #FA4343",
"R]	c #FB9495",
"S]	c #F74242",
"T]	c #D42C2D",
"U]	c #D23738",
"V]	c #FAEAEA",
"W]	c #D14747",
"X]	c #C92627",
"Y]	c #AE1616",
"Z]	c #DA9595",
"`]	c #C55C5C",
" ^	c #AB1415",
".^	c #A91413",
"+^	c #9F5F5F",
"@^	c #B37E7E",
"#^	c #FB9F9F",
"$^	c #F8E6E6",
"%^	c #D86262",
"&^	c #C72425",
"*^	c #D48787",
"=^	c #C76565",
"-^	c #AA1414",
";^	c #A91314",
">^	c #A05757",
",^	c #B67B7B",
"'^	c #FBA7A7",
")^	c #F0C2C2",
"!^	c #E7A2A1",
"~^	c #BD1E1E",
"{^	c #B81B1B",
"]^	c #D18080",
"^^	c #C96B6B",
"/^	c #A91313",
"(^	c #A71212",
"_^	c #A05353",
":^	c #FAA8A8",
"<^	c #E93737",
"[^	c #D12A2B",
"}^	c #F2C7C7",
"|^	c #EAADAD",
"1^	c #BD1F1E",
"2^	c #AF1617",
"3^	c #AB1515",
"4^	c #C96C6C",
"5^	c #A81313",
"6^	c #9F5353",
"7^	c #B27D7D",
"8^	c #F9A0A0",
"9^	c #EB3A39",
"0^	c #E53536",
"a^	c #EDB1B1",
"b^	c #EEBCBC",
"c^	c #B81C1B",
"d^	c #AD1515",
"e^	c #D18181",
"f^	c #C66666",
"g^	c #A61212",
"h^	c #A51212",
"i^	c #9E5656",
"j^	c #AA8484",
"k^	c #F54040",
"l^	c #F99898",
"m^	c #F03B3C",
"n^	c #E23433",
"o^	c #E13433",
"p^	c #EDB4B4",
"q^	c #F0C4C4",
"r^	c #C32223",
"s^	c #B4191A",
"t^	c #B11717",
"u^	c #AB1414",
"v^	c #D58D8D",
"w^	c #C35F5F",
"x^	c #A51211",
"y^	c #A51111",
"z^	c #9D5F5F",
"A^	c #F68787",
"B^	c #F04646",
"C^	c #D42D2C",
"D^	c #EBA9A9",
"E^	c #F2CECE",
"F^	c #CA2A2A",
"G^	c #BF201F",
"H^	c #AC1616",
"I^	c #A91414",
"J^	c #DA9B9B",
"K^	c #BD5251",
"L^	c #A41111",
"M^	c #A31010",
"N^	c #9C6969",
"O^	c #F23F3F",
"P^	c #F67979",
"Q^	c #F25655",
"R^	c #E83738",
"S^	c #E53535",
"T^	c #EBA8A8",
"U^	c #F2D0D0",
"V^	c #AE1716",
"W^	c #AE1617",
"X^	c #AC1615",
"Y^	c #A71313",
"Z^	c #E3B4B4",
"`^	c #B63F40",
" /	c #A11010",
"./	c #9B7171",
"+/	c #EB4444",
"@/	c #F36868",
"#/	c #F2696A",
"$/	c #EAA4A4",
"%/	c #F7DFDF",
"&/	c #CA2B2B",
"*/	c #C22122",
"=/	c #EED2D2",
"-/	c #FDFCFC",
";/	c #AE2B2B",
">/	c #A21010",
",/	c #A01110",
"'/	c #9B7A7A",
")/	c #E34A4A",
"!/	c #F05252",
"~/	c #F38484",
"{/	c #D22C2B",
"]/	c #E89E9E",
"^/	c #F4D8D7",
"//	c #C22121",
"(/	c #FBF6F6",
"_/	c #A21111",
":/	c #A10F0F",
"</	c #9F1212",
"[/	c #9A8585",
"}/	c #DA5353",
"|/	c #F6A3A3",
"1/	c #E89B9B",
"2/	c #FAEBEB",
"3/	c #AC2626",
"4/	c #EFD6D6",
"5/	c #9F0E0E",
"6/	c #C96161",
"7/	c #FACCCC",
"8/	c #FACFCF",
"9/	c #DB302F",
"0/	c #E69695",
"a/	c #F6DEDE",
"b/	c #CA2C2C",
"c/	c #A71213",
"d/	c #A61112",
"e/	c #A41010",
"f/	c #CA7676",
"g/	c #CF8585",
"h/	c #A00E0E",
"i/	c #9F0E0D",
"j/	c #9D2A2A",
"k/	c #B27979",
"l/	c #F28181",
"m/	c #E58E8E",
"n/	c #FCF3F3",
"o/	c #CB2B2B",
"p/	c #B11817",
"q/	c #AD1615",
"r/	c #A71112",
"s/	c #A51112",
"t/	c #A41110",
"u/	c #EDD2D2",
"v/	c #AA2727",
"w/	c #A00D0D",
"x/	c #9E0D0E",
"y/	c #9C5959",
"z/	c #EA3B3B",
"A/	c #ED6A6A",
"B/	c #D42D2D",
"C/	c #E48B8B",
"D/	c #F8E7E7",
"E/	c #CC3535",
"F/	c #A41011",
"G/	c #A81F1F",
"H/	c #F6E9E9",
"I/	c #9A8B8B",
"J/	c #D65050",
"K/	c #FAD7D7",
"L/	c #F8CCCC",
"M/	c #E07979",
"N/	c #D45152",
"O/	c #D04848",
"P/	c #CF4747",
"Q/	c #CE4747",
"R/	c #CD4646",
"S/	c #CC4646",
"T/	c #CB4545",
"U/	c #CA4444",
"V/	c #C94343",
"W/	c #C84343",
"X/	c #C74242",
"Y/	c #C54242",
"Z/	c #C54141",
"`/	c #BE2E2E",
" (	c #B74747",
".(	c #DEACAC",
"+(	c #9E0E0E",
"@(	c #9E2121",
"#(	c #B37777",
"$(	c #F39C9C",
"%(	c #FEF9F9",
"&(	c #E64444",
"*(	c #F1C4C4",
"=(	c #DC9090",
"-(	c #AE1717",
";(	c #A20F0F",
">(	c #D59696",
",(	c #C16565",
"'(	c #9C4949",
")(	c #A18A8A",
"!(	c #E43C3C",
"~(	c #EA5958",
"{(	c #EB7171",
"](	c #D92F30",
"^(	c #D22B2C",
"/(	c #F0C1C1",
"((	c #DA8B8B",
"_(	c #B11819",
":(	c #AF1818",
"<(	c #AA1514",
"[(	c #A71312",
"}(	c #A2100F",
"|(	c #A10F0E",
"1(	c #A11414",
"2(	c #9F0D0E",
"3(	c #9B7070",
"4(	c #D84848",
"5(	c #F9D8D8",
"6(	c #F8D0D0",
"7(	c #CF292A",
"8(	c #DA8C8C",
"9(	c #A61211",
"0(	c #CB7D7C",
"a(	c #D69898",
"b(	c #9E1111",
"c(	c #B17676",
"d(	c #E85A5A",
"e(	c #E65857",
"f(	c #E07F7F",
"g(	c #E8A5A4",
"h(	c #E8A3A3",
"i(	c #E7A2A2",
"j(	c #E6A2A2",
"k(	c #E6A2A1",
"l(	c #E6A1A1",
"m(	c #E5A1A1",
"n(	c #E5A0A0",
"o(	c #E4A0A0",
"p(	c #E3A0A0",
"q(	c #E39FA0",
"r(	c #E29F9F",
"s(	c #E19E9F",
"t(	c #E19E9E",
"u(	c #E09E9E",
"v(	c #C95A5A",
"w(	c #AC1516",
"x(	c #A11314",
"y(	c #F5E6E6",
"z(	c #FDFBFB",
"A(	c #A31A1A",
"B(	c #9C5859",
"C(	c #D94040",
"D(	c #F9DCDC",
"E(	c #F8D5D5",
"F(	c #D72F2E",
"G(	c #C92625",
"H(	c #B01817",
"I(	c #A20F10",
"J(	c #B64B4A",
"K(	c #E5BDBD",
"L(	c #9E1616",
"M(	c #9A9090",
"N(	c #B37171",
"O(	c #EB7F7F",
"P(	c #E35656",
"Q(	c #A3100F",
"R(	c #9F0D0D",
"S(	c #F5E8E8",
"T(	c #B13C3C",
"U(	c #9D4242",
"V(	c #DE3737",
"W(	c #F9DBDB",
"X(	c #FAE4E4",
"Y(	c #C92526",
"Z(	c #BF1F20",
"`(	c #BA1D1C",
" _	c #AB1514",
"._	c #A71211",
"+_	c #A10E0F",
"@_	c #D08A8A",
"#_	c #D89F9F",
"$_	c #9A8686",
"%_	c #B36F6F",
"&_	c #E15252",
"*_	c #EB9090",
"=_	c #B31A19",
"-_	c #A10E0E",
";_	c #A41C1C",
">_	c #F9F0F0",
",_	c #FAF4F4",
"'_	c #A61F1F",
")_	c #9C4F4F",
"!_	c #CF4545",
"~_	c #F3BEBD",
"{_	c #FDF6F6",
"]_	c #D93838",
"^_	c #C92525",
"/_	c #B51A1B",
"(_	c #B3191A",
"__	c #A00F0E",
":_	c #EBCCCC",
"<_	c #CD8282",
"[_	c #9E1A1B",
"}_	c #9A8D8D",
"|_	c #A97C7C",
"1_	c #D93030",
"2_	c #FAE8E8",
"3_	c #C42223",
"4_	c #B31A1A",
"5_	c #B11919",
"6_	c #AE1615",
"7_	c #CA7A7A",
"8_	c #9C5E5E",
"9_	c #C15555",
"0_	c #DF5757",
"a_	c #EDA4A4",
"b_	c #B81D1C",
"c_	c #A00E0D",
"d_	c #AB2D2D",
"e_	c #FAF3F3",
"f_	c #A92929",
"g_	c #9D3131",
"h_	c #CD3F3F",
"i_	c #E68282",
"j_	c #E48282",
"k_	c #A61111",
"l_	c #A92828",
"m_	c #F9F1F1",
"n_	c #B54545",
"o_	c #A67F7F",
"p_	c #EDAAAA",
"q_	c #DD6665",
"r_	c #CF2A29",
"s_	c #C42222",
"t_	c #A81213",
"u_	c #A21616",
"v_	c #EED5D5",
"w_	c #C97979",
"x_	c #9B6868",
"y_	c #A97878",
"z_	c #F4CDCD",
"A_	c #DA5B5B",
"B_	c #F1DCDC",
"C_	c #D28F8F",
"D_	c #9C5353",
"E_	c #B95A5A",
"F_	c #D02B2B",
"G_	c #F2C8C8",
"H_	c #DB6565",
"I_	c #A62020",
"J_	c #EBCDCD",
"K_	c #D9A1A1",
"L_	c #9D3535",
"M_	c #B95757",
"N_	c #F3CDCD",
"O_	c #E18484",
"P_	c #B71C1B",
"Q_	c #AA1413",
"R_	c #A51F1F",
"S_	c #F6EAEA",
"T_	c #D49595",
"U_	c #9D2F2F",
"V_	c #BC4D4D",
"W_	c #EAABAB",
"X_	c #E8A4A4",
"Y_	c #B51B1B",
"Z_	c #BD5B5B",
"`_	c #CC8181",
" :	c #9D2C2C",
".:	c #9A8E8E",
"+:	c #B95151",
"@:	c #C92726",
"#:	c #E08282",
"$:	c #F6DFDF",
"%:	c #C93131",
"&:	c #C22221",
"*:	c #A81414",
"=:	c #A30F10",
"-:	c #D39292",
";:	c #B15F5F",
">:	c #D25252",
",:	c #E19292",
"':	c #B84E4E",
"):	c #EBCECE",
"!:	c #AC3030",
"~:	c #AC6868",
"{:	c #C52828",
"]:	c #EDBFBF",
"^:	c #F9EBEA",
"/:	c #CD4F4F",
"(:	c #C02222",
"_:	c #A72222",
"::	c #DAA3A3",
"<:	c #D89D9D",
"[:	c #9E0F0F",
"}:	c #9C4646",
"|:	c #A08484",
"1:	c #C12E2E",
"2:	c #CD4B4B",
"3:	c #CE5858",
"4:	c #A51E1E",
"5:	c #DFAFAF",
"6:	c #E6C2C2",
"7:	c #AA2B2B",
"8:	c #9B7373",
"9:	c #B44A4A",
"0:	c #D97D7D",
"a:	c #F5DEDE",
"b:	c #F4DADA",
"c:	c #D16A6A",
"d:	c #C03434",
"e:	c #A30F0F",
"f:	c #A51818",
"g:	c #B64747",
"h:	c #DBA6A6",
"i:	c #ECD1D1",
"j:	c #BD5A5A",
"k:	c #9D3232",
"l:	c #A08282",
"m:	c #BC2A2A",
"n:	c #BE2121",
"o:	c #CB5555",
"p:	c #F5E1E1",
"q:	c #FDF8F8",
"r:	c #F2D8D8",
"s:	c #D06D6C",
"t:	c #B11918",
"u:	c #B33F3F",
"v:	c #DFAEAE",
"w:	c #E9CACA",
"x:	c #AE3434",
"y:	c #A01010",
"z:	c #9E1212",
"A:	c #AA5F5F",
"B:	c #BA2A2A",
"C:	c #C74D4D",
"D:	c #DF9A9A",
"E:	c #F3DADA",
"F:	c #F1D5D5",
"G:	c #E0A3A3",
"H:	c #D27B7B",
"I:	c #C75C5C",
"J:	c #BE4343",
"K:	c #B63030",
"L:	c #B12120",
"M:	c #AA1314",
"N:	c #AB1B1A",
"O:	c #AF2626",
"P:	c #B53838",
"Q:	c #BD4E4E",
"R:	c #C76B6B",
"S:	c #D48F8F",
"T:	c #E6BFBF",
"U:	c #FCF7F7",
"V:	c #CF8787",
"W:	c #9E1313",
"X:	c #9C4C4C",
"Y:	c #A95E5D",
"Z:	c #B92121",
"`:	c #B82828",
" <	c #D58383",
".<	c #F3DCDC",
"+<	c #EACBCB",
"@<	c #C46C6C",
"#<	c #A11212",
"$<	c #9C4746",
"%<	c #A46C6C",
"&<	c #AF3C3C",
"*<	c #B21F1F",
"=<	c #BB3C3C",
"-<	c #C35555",
";<	c #CA6968",
"><	c #D17F7F",
",<	c #D99595",
"'<	c #DC9F9F",
")<	c #DFA8A8",
"!<	c #DEA6A7",
"~<	c #DA9C9C",
"{<	c #D58F90",
"]<	c #CC7979",
"^<	c #C36262",
"/<	c #BA4B4B",
"(<	c #AF3030",
"_<	c #A10F10",
":<	c #9D2929",
"<<	c #9B5F5F",
"[<	c #9A8888",
"}<	c #9B8F8F",
"|<	c #A85252",
"1<	c #B02626",
"2<	c #B01E1D",
"3<	c #A81312",
"4<	c #A00F0F",
"5<	c #9E1213",
"6<	c #9E1A1A",
"7<	c #9D4343",
"8<	c #9C8585",
"9<	c #9F7676",
"0<	c #A45555",
"a<	c #A93434",
"b<	c #A81212",
"c<	c #9E2828",
"d<	c #9C4B4B",
"e<	c #9A8282",
"f<	c #9D7878",
"g<	c #9E6767",
"h<	c #A05A5A",
"i<	c #A05151",
"j<	c #A04C4C",
"k<	c #A04B4C",
"l<	c #9F4F4F",
"m<	c #9E5657",
"n<	c #9C6464",
"o<	c #9B7474",
"p<	c #9A8A89",
"q<	c #9CC2E6",
"r<	c #A3C6E8",
"s<	c #A7C8E9",
"t<	c #AACAE9",
"u<	c #A2C5E8",
"v<	c #8EB8E1",
"w<	c #81AFDD",
"x<	c #83B2E0",
"y<	c #ACCCEA",
"z<	c #D6E6F5",
"A<	c #F9FBFD",
"B<	c #CCDEEF",
"C<	c #9CBEDF",
"D<	c #E6EFF8",
"E<	c #CADEF1",
"F<	c #BAD4ED",
"G<	c #C4DAEF",
"H<	c #D0E1F2",
"I<	c #DEEAF5",
"J<	c #E0EAF4",
"K<	c #BBD1E7",
"L<	c #8BB0D6",
"M<	c #B2CFEB",
"N<	c #FBFCFE",
"O<	c #FAFCFD",
"P<	c #E5EFF8",
"Q<	c #B4D1EC",
"R<	c #8BB7E2",
"S<	c #9ABDDF",
"T<	c #CDDEEE",
"U<	c #F6F9FC",
"V<	c #F2F6FA",
"W<	c #93B4D7",
"X<	c #6997C6",
"Y<	c #CFE2F3",
"Z<	c #88B6E1",
"`<	c #85ACD4",
" [	c #A6C2DE",
".[	c #E6EEF6",
"+[	c #EEF3F8",
"@[	c #B7CCE2",
"#[	c #6390C0",
"$[	c #B7D3ED",
"%[	c #B6D2ED",
"&[	c #84AAD0",
"*[	c #DAE5F0",
"=[	c #91B0D1",
"-[	c #5F8CBC",
";[	c #A7C9E9",
">[	c #F3F7FC",
",[	c #EEF5FA",
"'[	c #9DC3E6",
")[	c #759DC7",
"![	c #C6D7E8",
"~[	c #E7EDF4",
"{[	c #7399C2",
"][	c #F5F9FC",
"^[	c #BCD6EE",
"/[	c #5D8CBD",
"([	c #7DA1C8",
"_[	c #DCE6F0",
":[	c #A5BDD7",
"<[	c #5481B1",
"[[	c #DCE9F6",
"}[	c #98B4D2",
"|[	c #E5ECF3",
"1[	c #5884B2",
"2[	c #6E95BE",
"3[	c #E1E9F1",
"4[	c #7296BD",
"5[	c #8DB8E2",
"6[	c #CAD8E6",
"7[	c #8BB8E2",
"8[	c #A4BAD3",
"9[	c #84A2C3",
"0[	c #AFCDEB",
"a[	c #91ACC9",
"b[	c #688CB4",
"c[	c #ADCCEA",
"d[	c #DDEAF6",
"e[	c #8EA9C8",
"f[	c #698CB2",
"g[	c #94BDE4",
"h[	c #9FB5CE",
"i[	c #446E9E",
"j[	c #C4D2E1",
"k[	c #E4EAF1",
"l[	c #3A6697",
"m[	c #DCE4ED",
"n[	c #9AB0C9",
"o[	c #B5D2EC",
"p[	c #597CA6",
"q[	c #89B6E1",
"r[	c #F8FAFD",
"s[	c #819DBC",
"t[	c #E5EAF1",
"u[	c #335E91",
"v[	c #A1BFDD",
"w[	c #B2CAE2",
"x[	c #BDD2E6",
"y[	c #BFD2E6",
"z[	c #BACEE3",
"A[	c #ACC5DE",
"B[	c #91B1D3",
"C[	c #6995C2",
"D[	c #335E93",
"E[	c #D3DDE7",
"F[	c #7794B5",
"G[	c #7BA8D4",
"H[	c #90B6DA",
"I[	c #C1D6EA",
"J[	c #EEF3F9",
"K[	c #8AABCD",
"L[	c #5F8BB9",
"M[	c #567AA3",
"N[	c #305B8D",
"O[	c #BCD3E9",
"P[	c #789CC3",
"Q[	c #B1C1D4",
"R[	c #A5B7CD",
"S[	c #C8DDF1",
"T[	c #BED4E9",
"U[	c #89A8CA",
"V[	c #436997",
"W[	c #F6F8FA",
"X[	c #ECEFF4",
"Y[	c #295486",
"Z[	c #CFE1F3",
"`[	c #BED3E8",
" }	c #EFF4F9",
".}	c #C2D5E8",
"+}	c #9EBBD8",
"@}	c #739CC6",
"#}	c #81A5CA",
"$}	c #A3BDD8",
"%}	c #E0E9F2",
"&}	c #6089B5",
"*}	c #CAD5E1",
"=}	c #6F8BAE",
"-}	c #AFC9E2",
";}	c #CDDDED",
">}	c #9FBDDC",
",}	c #5B89BB",
"'}	c #7B9FC4",
")}	c #E7EDF3",
"!}	c #4C709B",
"~}	c #F6F7FA",
"{}	c #B5D1EC",
"]}	c #99C0E5",
"^}	c #6C9ACA",
"/}	c #5C89BB",
"(}	c #5C87B7",
"_}	c #EBF0F6",
":}	c #7094BB",
"<}	c #D9E0E9",
"[}	c #55769E",
"}}	c #F7FAFD",
"|}	c #8FACCB",
"1}	c #94AFCB",
"2}	c #748EAF",
"3}	c #C4DBF0",
"4}	c #A6BCD3",
"5}	c #3F6491",
"6}	c #D7DEE7",
"7}	c #FAFBFC",
"8}	c #A8BDD4",
"9}	c #1A4477",
"0}	c #96AFCB",
"a}	c #ABBACD",
"b}	c #6B86A8",
"c}	c #D3E4F4",
"d}	c #7496BC",
"e}	c #7293B8",
"f}	c #54739A",
"g}	c #BECAD8",
"h}	c #4A77A8",
"i}	c #F2F5F8",
"j}	c #F8F9FB",
"k}	c #4D79AA",
"l}	c #D3DEE9",
"m}	c #5A80AB",
"n}	c #E5EAEF",
"o}	c #204779",
"p}	c #A5C8E8",
"q}	c #6F95BF",
"r}	c #7398C0",
"s}	c #7196BE",
"t}	c #7095BC",
"u}	c #6F94BC",
"v}	c #7295BC",
"w}	c #81A1C3",
"x}	c #B6C8DC",
"y}	c #F9FAFC",
"z}	c #88A4C2",
"A}	c #C3CDDB",
"B}	c #355885",
"C}	c #8DB9E2",
"D}	c #DAE2EC",
"E}	c #527AA8",
"F}	c #A7B6CA",
"G}	c #46668E",
"H}	c #E4EAF2",
"I}	c #94ADC9",
"J}	c #90A3BC",
"K}	c #537096",
"L}	c #E4EBF2",
"M}	c #7292B6",
"N}	c #8095B1",
"O}	c #5B769A",
"P}	c #A4BCD5",
"Q}	c #A3BAD3",
"R}	c #A2B9D2",
"S}	c #A3B9D2",
"T}	c #ACC0D6",
"U}	c #C4D2E2",
"V}	c #B5C5D8",
"W}	c #788FAC",
"X}	c #617C9E",
"Y}	c #7A99BB",
"Z}	c #BFCCDD",
"`}	c #778DAB",
" |	c #617B9D",
".|	c #C0D7EE",
"+|	c #3F6B9E",
"@|	c #DAE2EB",
"#|	c #7290B2",
"$|	c #5A7598",
"%|	c #B9D3EC",
"&|	c #3F6B9D",
"*|	c #CCD6E3",
"=|	c #8498B2",
"-|	c #537095",
";|	c #ADCBE8",
">|	c #7FADD8",
",|	c #3E6C9D",
"'|	c #8CA5C1",
")|	c #94A5BC",
"!|	c #45648C",
"~|	c #A3C4E4",
"{|	c #88B1DA",
"]|	c #5B7EA6",
"^|	c #FBFCFC",
"/|	c #5678A1",
"(|	c #AFBCCD",
"_|	c #96BBDF",
":|	c #96B9DD",
"<|	c #4E739F",
"[|	c #6D8AAE",
"}|	c #1D4373",
"||	c #86B0D9",
"1|	c #A7C4E2",
"2|	c #5074A0",
"3|	c #6685AA",
"4|	c #BDD3E8",
"5|	c #5E7FA6",
"6|	c #456A96",
"7|	c #DAE6F2",
"8|	c #DCE7F3",
"9|	c #ACBDD2",
"0|	c #6D85A5",
"a|	c #7E93AF",
"b|	c #A4C1E0",
"c|	c #325D92",
"d|	c #5276A0",
"e|	c #C7D2DF",
"f|	c #90B3D6",
"g|	c #90AAC8",
"h|	c #819FC0",
"i|	c #6080A7",
"j|	c #F3F6F8",
"k|	c #718DAE",
"l|	c #11396C",
"m|	c #E8EBF0",
"n|	c #E1EBF4",
"o|	c #D8E4F0",
"p|	c #B0C3D8",
"q|	c #98AFCA",
"r|	c #4770A0",
"s|	c #3C689A",
"t|	c #325D91",
"u|	c #305B8E",
"v|	c #315C8E",
"w|	c #3E6696",
"x|	c #C0CDDC",
"y|	c #E2E8EE",
"z|	c #3C5C86",
"A|	c #B4CCE3",
"B|	c #6F9BC7",
"C|	c #AFC2D7",
"D|	c #D7E0EA",
"E|	c #C8D4E2",
"F|	c #C0CDDD",
"G|	c #BECBDB",
"H|	c #C3D0DE",
"I|	c #D0DAE5",
"J|	c #E3E8EF",
"K|	c #2B5385",
"L|	c #5D789B",
"M|	c #80A7CF",
"N|	c #2A5284",
"O|	c #073066",
"P|	c #E1EAF3",
"Q|	c #DBE5F0",
"R|	c #7897BA",
"S|	c #EAEFF4",
"T|	c #EAEEF3",
"U|	c #6B87AA",
"V|	c #1F4A7E",
"W|	c #768DAA",
"X|	c #7EA4CB",
"Y|	c #7A9FC8",
"Z|	c #4D74A1",
"`|	c #92AAC5",
" 1	c #CBD6E2",
".1	c #DFE6EE",
"+1	c #E9EEF3",
"@1	c #F5F7FA",
"#1	c #F7F9FA",
"$1	c #F4F6F9",
"%1	c #E7ECF2",
"&1	c #D9E1E9",
"*1	c #B4C3D4",
"=1	c #5C7CA2",
"-1	c #E5E9EE",
";1	c #0D356A",
">1	c #608FBE",
",1	c #E3EBF3",
"'1	c #DDE7F1",
")1	c #396293",
"!1	c #3E6695",
"~1	c #3F6795",
"{1	c #3B6292",
"]1	c #365F8F",
"^1	c #2F5889",
"/1	c #254F82",
"(1	c #BAC5D4",
"_1	c #012A61",
":1	c #99B6D3",
"<1	c #779DC3",
"[1	c #E2EAF2",
"}1	c #E9EFF5",
"|1	c #8498B3",
"11	c #9AABC0",
"21	c #7198C1",
"31	c #A3BBD5",
"41	c #F0F2F5",
"51	c #133A6D",
"61	c #5583B3",
"71	c #C8D7E6",
"81	c #5783B3",
"91	c #CAD2DE",
"01	c #ECF1F6",
"a1	c #738AA8",
"b1	c #B0C4D9",
"c1	c #214676",
"d1	c #F3F5F7",
"e1	c #1E4373",
"f1	c #93AECC",
"g1	c #1C4273",
"h1	c #3B5C86",
"i1	c #B5C7DB",
"j1	c #7797BB",
"k1	c #093267",
"l1	c #D3DAE3",
"m1	c #D2DDE9",
"n1	c #6C8EB5",
"o1	c #DBE1E8",
"p1	c #899CB6",
"q1	c #CED9E6",
"r1	c #7393B8",
"s1	c #CBD3DE",
"t1	c #9CACC2",
"u1	c #D1DCE7",
"v1	c #8DA6C3",
"w1	c #12396D",
"x1	c #8FA1BA",
"y1	c #B1C2D6",
"z1	c #AABDD2",
"A1	c #7A90AD",
"B1	c #8AA4C1",
"C1	c #FCFDFD",
"D1	c #E1E7EF",
"E1	c #3C6696",
"F1	c #8C9FB8",
"G1	c #5C7FA7",
"H1	c #96ACC5",
"I1	c #DAE0E8",
"J1	c #CCD4DF",
"K1	c #2F5A8E",
"L1	c #C2CFDD",
"M1	c #5477A0",
"N1	c #163D6F",
"O1	c #98A9BF",
"P1	c #50749E",
"Q1	c #E3E9EF",
"R1	c #597AA1",
"S1	c #ABB9CB",
"T1	c #1F4475",
"U1	c #8099B7",
"V1	c #DEE5EC",
"W1	c #DAE1EA",
"X1	c #6985A8",
"Y1	c #325988",
"Z1	c #A2B1C5",
"`1	c #516E93",
" 2	c #234C81",
".2	c #55759D",
"+2	c #D7DFE8",
"@2	c #6884A6",
"#2	c #AAB8CA",
"$2	c #C7D0DC",
"%2	c #294D7B",
"&2	c #042D63",
"*2	c #4A6C96",
"=2	c #98ABC3",
"-2	c #D9E0E8",
";2	c #D3DBE5",
">2	c #9FB0C5",
",2	c #748DAB",
"'2	c #537197",
")2	c #385A85",
"!2	c #234878",
"~2	c #123A6D",
"{2	c #083065",
"]2	c #153C6E",
"^2	c #889CB5",
"/2	c #8196B1",
"(2	c #1F487A",
"_2	c #7D94B1",
":2	c #DBE1E9",
"<2	c #647E9F",
"[2	c #123B6F",
"}2	c #305381",
"|2	c #4A6990",
"12	c #5E799C",
"22	c #758CAB",
"32	c #97A8BE",
"42	c #95A6BD",
"52	c #587498",
"62	c #406089",
"72	c #244878",
"82	c #032C63",
"                                                                                                                                                                                                                                                                                                                                ",
"                                                                                                                                                                                                                                                                                                                                ",
"                                                                                                                                                                                                                                                                                                                                ",
"                                                                                                                                                                                                                                                                                                                                ",
"                                                                                                                                                                                                                                                                                                                                ",
"                                                                                                                                                                                                                                                                                                                                ",
"                                                                                                                                                                                                                                                                                                                                ",
"                                                                                                                                                                                                                                                                                                                                ",
"                                                                                                                                                                                                                                                                                                                                ",
"                                                                                                                                                                                                                                                                                                                                ",
"                                                                                                                                                                                                                                                                                                                                ",
"                                                                                                                                                                                                                                                                                                                                ",
"                                                                                                                                                                                                                                                                                                                                ",
"                                                                                                                                                                                                                                                                                                                                ",
"                                                                                                                                                                                                                                                                                                                                ",
"                                                                                                                                                                                                                                                                                                                                ",
"                                                                                                                                                                                                                                                                                                                                ",
"                                                                                                                                                                                                                                                                                                                                ",
"                                                                                                                                                                                                                                                                                                                                ",
"                                                                                                                                                                                                                                                                                                                                ",
"                                                                              . . . . . . . . . . . . . .                                                                                                                                                                                                                       ",
"                                                                      . . . . . . . . . . . . . . . . . . . . . .                                                                                                                                                                                                               ",
"                                                              . . . . . . . . . . . . . . . . . . . . . . . . . . . . . .                                                                                                                                                                                                       ",
"                                                          . . . . . . . . . . . . . . + @ # $ + . . . . . . . . . . . . . . .                                                                                                                                                                                                   ",
"                                                      . . . . . . . . . . . % & * = - ; > > > > - , ' ) ! . . . . . . . . . . . . .                                                                                                                                                                                             ",
"                                                  . . . . . . . . ~ { ] ^ / ( ( ( ( ( ( ( ( ( ( _ ( : < [ } | 1 2 3 . . . . . . . . .                                                                                                                                                                                           ",
"                                              . . . . . . . . 4 5 6 _ ( ( ( _ ( ( ( 7 8 9 0 a b c : d [ e f g h i j k l . . . . . . . . .                                                                                                                                                                                       ",
"                                            . . . . . . m n o : ( p ( q r s t u v w w w w w w w w w x y z A B C D E F G H I J . . . . . . . .                                                                                                                                                                                   ",
"                                        . . . . . . . K ( ( p ( ( L M w w N O P Q R t S T U V W X Y Z O O N w w `  ...+.@.#.$.%.&.. . . . . . .                                                                                                                                                                                 ",
"                                      . . . . . . *.=.( _ ( -.;.>.w w ,.'.).!.~.( ( ( ( : ( {.d ].} ^./.(._.:.<.w w [.}.|.$.1.2.3.4.&.. . . . . .                                                                                                                                                                               ",
"                                    . . . . . 5.6.( _ ( 7.8.w O >.S 9.( ( ( ( ( ( ( ( 0.( {.d a.} b.c.d.e.D E f.g.h.i.w w j.k.l.m.n.o.p.. . . . . . .                                                                                                                                                                           ",
"                                . . . . . . q.r.( _ s.M N w t.u.v.( ( ( ( ( ( ( ( ( : w.x.y.a.} b.c.d.e.z.E f.G A.B.C.D.E.w w F.G.H.I.J.K.. . . . . . .                                                                                                                                                                         ",
"                              . . . . . L.M.( _ v.N.w N M O.( ( ( ( ( ( ( ( ( ( ( ( : x.y.a.} P.c.d.Q.z.E f.R.A.S.#.T.U.V.W.X.w w Y.Z.`. +.+++. . . . . .                                                                                                                                                                       ",
"                            . . . . . @+#+( _ s.$+w %+&+( ( ( ( ( ( ( ( ( ( ( ( : : x.y.*+=+P.c.d.Q.z.E -+R.A.;+>+T.U.V.,+'+)+!+w w ~+{+]+^+/+(+. . . . . .                                                                                                                                                                     ",
"                          . . . . . { : ( ( _+w Z :+( ( ( ( ( ( ( ( ( ( ( ( ( ( : x.y.*+=+<+[+}+Q.z.E -+R.A.S.>+T.U.V.,+'+n.|+1+2+3+w w 4+5+6+7+8+. . . . . .                                                                                                                                                                   ",
"                          . . . . 9+: ( _ 0+w a+s.( ( ( ( ( ( ( ( ( ( ( ( ( : : b+[ *+=+<+[+}+c+d+e+-+R.f+g+>+T.h+i+,+'+j+|+1+k+`.l+m+w w n+o+p+q+r+. . . . . .                                                                                                                                                                 ",
"                        . . . . s+: p _ t+w u+v.( ( ( ( ( ( ( ( ( ( ( ( ( ( : b+[ *+=+v+[+}+c+d+e+-+w+f+x+y+T.h+i+,+'+z+|+1+A+B+l+C+D+E+F+w G+H+I+J+K+. . . . .                                                                                                                                                                 ",
"                      . . . . L+( ( ( ,.w ;.( ( ( ( ( ( ( ( ( ( ( ( ( ( ( : b+[ M+f v+[+}+c+d+e+-+w+f+g+y+1.h+i+,+N+j+|+1+A+B+l+C+D+O+P+Q+R+w S+T+U+V+W+. . . . .                                                                                                                                                               ",
"                    . . . . L.X+( p Y+w Z+( ( ( ( ( ( ( ( ( ( ( ( ( ( : : b+[ M+f <+`+}+c+d+ @G w+f+g+.@1.h+i++@N+j+@@1+A+B+#@$@D+O+%@&@*@=@-@w ;@>@,@'@)@. . . . .                                                                                                                                                             ",
"                    . . . . !@( ( ~@w {@( ( ( ( ( ( ( ( ( ( ( ( ( w.( : b+a.M+f ]@`+e.c+d+ @G w+^@#..@1./@(@+@N+_@@@J.A+B+#@$@D+O+:@&@*@<@[@}@|@w 1@2@3@4@5@. . . . .                                                                                                                                                           ",
"                  . . . . 6@( _ 7@w 8@( ( ( ( ( ( ( ( ( ( ( ( ( w.0.{.< a.M+f ]@`+e.9@E  @G 0@^@#..@1./@(@+@N+_@@@J.a@B+#@$@D+b@:@&@*@c@[@}@d@e@f@w g@h@i@j@. . . . .                                                                                                                                                           ",
"                . . . . k@: p 9 w l@( ( ( ( ( ( ( ( ( ( ( ( ( : : {.< a.M+b.c.`+e.9@E  @G 0@^@m@.@U./@(@n@N+o@@@J.a@B+#@$@p@b@q@&@*@c@[@r@U+s@t@u@v@w w@x@y@z@. . . . .                                                                                                                                                         ",
"                . . . ~ _ ( ~.A@$+q ( ( ( ( ( ( ( ( ( ( ( ( : ( x.< a.e b.]@`+Q.9@E  @R.0@^@>+B@U./@(@+@C@o@@@J.a@B+#@^+p@b@D@E@q+c@[@F@U+G@H@I@J@K@L@w M@N@O@P@. . . .                                                                                                                                                         ",
"              . . . . Q@( ( R@w S@( ( ( ( ( ( ( ( ( ( ( ( : ( x.d a.e b.g h Q.9@E T@G 0@^@U@B@U./@(@n@C@V@W@k+a@B+X@^+p@b@7+E@q+c@[@F@U+V+H@I@J@Y@Z@`@w  #.#+#@#. . . . .                                                                                                                                                       ",
"              . . . ##: ( $#w %#( ( ( ( ( ( ( ( ( ( ( ( ( ( x.d *+e b.&#h Q.9@e+T@R.0@^@>+B@U.2.,+n@C@V@W@k+a@ +X@^+p@b@7+E@q+*#J+F@U+=#H@I@-#;#Z@>#,#'#w )#!#~#{#. . . . .                                                                                                                                                     ",
"            . . . . ]#( ( ^#%+/#( ( ( ( ( ( ( ( ( ( ( : ( x.d *+e (#&#h Q.D e+T@R.+.B.U@B@U.2.,+n@n.V@W@k+_#l+X@^+:#<#7+E@q+*#J+F@[#=#H@I@}#;#Z@>#y@|#1#w w 2#3#4#5#. . . .                                                                                                                                                     ",
"            . . . k@6#p 7@w u.( ( ( ( ( ( ( ( ( ( ( : ( b+d *+} (#7#h Q.D e+T@8#9#0#a#b#c#c#d#c#e#f#W@k+_#l+X@^+g#<#7+h#<@*#J+i#[#j#H@I@}#;#Z@>#k#l#m#n#o#w p#q#r#s#. . . .                                                                                                                                                     ",
"          . . . . t#( u#N v#( ( ( ( ( ( ( ( ( ( ( : ( b+d *+} (#g h c+D w#x#y#z#Q w w w w N N w A#W@A+_#l+B#D+:#<#7+h#<@*#J+i#[#j#C#I@}#;#D#E#y@|#m#n#F#G#H#L@I#J#K#L#. . . .                                                                                                                                                   ",
"          . . . @+: p Z+w M#( ( ( ( ( ( ( ( ( w.0.: b+d M+} (#c.h c+z.E w w N w w w w w w w w w N#A+_#l+B#D+:#Q+O#h#<@P#}@i#[#j#C#Q#}#i@D#E#R#|#m#n#F#S#T#U#w V#K#W#X#. . . .                                                                                                                                                   ",
"          . . . Y#( _ Z#`#( ( ( ( ( ( ( ( ( ( ( w.b+y.M+} (# $d.c+D  @f.N w w w w N w w w w w N .$_##@B#D+5+Q+&@h#<@P#}@i#[#j#C#Q#}#i@D#E#+$@$#$n#~#S#T#q#$$w w %$&$*$=$. . . .                                                                                                                                                 ",
"        . . . -$#+_ ;$w >$( ( ( ( ( ( ( ( : ( : < y.M+=+]@,$d.c+z. @f.w+w w w w '$)$!$~${$w w w ]$#@B#D+/+Q+^$p+c@P#}@/$G@($C#Q#_$i@:$,#<$@$[$}$~#S#T#|$1$2$3$w 4$5$6$7$. . . .                                                                                                                                                 ",
"        . . . 8$: ( 9$0$( ( ( ( ( ( ( ( ( ( : < y.M+=+]@[+}+9@z. @-+0@+.z#a$b$c$d$e$'+_@f$w w N g$B#p@5+Q+&@p+c@P#}@/$G@j#'@J@_$i@:$,#+$h$#$}$~#S#T#|$1$2$i$j$k$l$m$n$o$. . . .                                                                                                                                                 ",
"        . . . p$( q$Z {@( ( ( ( ( ( ( ( ( : < y.e =+]@[+}+9@z. @-+0@A.g+.@T./@V.+@'+_@|+S+w w w r$p@5+s$&@p+c@P#F@/$G@t$'@J@_$i@:$,#+$@$#$}$~#S#u$|$1$v$i$w$x$y$w z$A$B$. . . .                                                                                                                                                 ",
"      . . . . C$( D$w E$( ( ( ( ( ( : ( : < [ e =+]@F$}+9@d+F -+0@A.g+G$T./@i+n@'+_@H$1+I$w w w J$5+P+E@p+c@K$F@/$G@H@'@J@L$Z@:$,#+$h$+#}$~#M$u$|$1$N$i$w$O$P$Q$w R$S$T$U$. . . .                                                                                                                                               ",
"      . . . V$( _ W$Z ( ( ( ( ( ( ( ( {.< [ e f X$Y$}+9@d+F -+0@f+g+G$T./@i+n@Z$`$H$1+a@ %w w w .%P++%*@c@K$F@/$G@@%'@J@4@Z@:$,##%h$+#$%%%M$u$$$&%*%i$w$O$P$=%-%w ;%>%,%'%. . . .                                                                                                                                               ",
"      . . . )%( ( A@!%( ( ( ( ( : ( {.d [ e f X$~%}+9@d+F -+0@{%g+B@1.2.i+n@N+`$@@1+_#B+ %w w w ]%E@*@*#K$F@d@V+@%^%-#4@Z@:$y@/%h$+#$%%%M$u$$$&%J#(%_%O$P$:%<%[%}%w |%1%2%. . . .                                                                                                                                               ",
"      . . . t#( 3%w 4%( ( ( ( ( ( {.d a.} f X$~%e.D d+F G +.f+g+B@1.2.i+n@N+`$@@J._#B+X@ %w w w 5%*@*#K$6%d@V+t@^%-#4@Z@7%y@/%8%+#$%%%9%q#$$&%N$0%_%O$P$:%<%[%a%b%w c%d%e%. . . .                                                                                                                                               ",
"      . . + f%_ g%w 3%( ( ( : ( {.d a.} ^.X$h%e.D d+T@G +.^@g+$.1.2.(@)+N+`$@@J._#B+B#$@f$w w w i%*#[@6%d@V+j%^%-#Y@Z@7%y@#%h$n#$%%%3#q#$$&%K#0%_%k%6$:%<%l%S$m%n%w o%p%p%. . . . .       q%q%q%q%q%q%q%q%                                                                                                                      ",
"    . . . $ > ( r%A@v.( ( ( ( {.y.a.} f c.s%e.D d+f.G +.f+#.$.1.2.(@)+N+H.@@J._#B+B#$@:#v@w w N t%[@6%d@V+C#^%}#4@D#7%y@N@8%n#$%%%3#q#$$2$K#0%&$k%6$:%<%l%a%m%,%u%v%w%x%y%z%. . . .       q%q%q%q%q%q%q%q%                                                                                                                      ",
"    . . . A%B%( Y+,.C%( ( : x.y.a.} b.c.`+e.D E f.G +.;+#.D%1.V.(@)+n.H.@@k+_# +B#$@5+E%F%w w w G%6%U+j#,@^%}#Y@D#7%+$N@8%n#!#S#3#q#H%2$N$0%&$k%6$:%<%I%a%m%J%K%L%M%N%y%O%P%. . . .       q%q%                                                                                                                                  ",
"    . . . -$_ ( 9$M ( ( : x.y.a.} b.c.h Q.z.E f.G A.^@#.$.U.V.(@'+n.H.W@k+`. +B#^+5+b@:@Q%w w N R%U+j#H@I@_$Y@D#7%+$N@8%}$!#S#3#|$H%2$K#S%&$k%=%:%T%l%a%U%J%K%V%W%X%Y%Z%`% &. . . .       q%q%                          q%            q%                        q%            q%                                                ",
"    . . . L.: /#.&+&: : x.y.*+=+b.c.h Q.z.E f.R.A.^@#.@&U.V.(@'+n.H.W@k+_# +B#^+5+<#7+h##&w w w $&j#H@I@_$Y@D#>#+$N@m#n#!#S#%&|$H%2$K#S%&$&&6$*&T%=&-&m%J%K%d%;&>&,&,&'&)&!&. . . .       q%q%                q%q%q%q%q%q%q%    q%q%q%q%q%q%          q%q%  q%q%q%q%q%    q%q%q%q%q%          q%q%                              ",
"    . . . ~&( {&^#;.: x.y.*+=+b.c.]&Q.z.e+-+R.A.B.#.T.U.i+,+'+n.H.^&k+`. +C+^+5+b@7+p+q+Q%w w N /&H@I@_$;#:$>#+$N@m#}$!#M$%&|$H%2$K#S%&$&&=%*&T%(&-&U%_&:&V%;&<&[&}&|&1&2&3&. . . .       q%q%                q%q%q%          q%q%q%      q%q%        q%q%q%q%    q%q%q%q%q%      q%q%        q%q%                              ",
"    . . . 4&( 3%>.W$x.[ *+=+(#[+}+Q.z.e+-+R.A.B.>+5&h+i+,+'+j+|+^&k+`.l+C+^+5+<#7+6&q+K$v@w w w 7&I@_$;#:$>#/%|#m#}$F#S#%&|$r#J#i$S%&$&&=%8&T%9&-&U%J%:&V%;&0&Z%a&b&c&)&d&e&. . . .       q%q%q%q%q%q%q%q%    q%q%            q%q%          q%q%      q%q%          q%q%q%        q%q%        q%q%                              ",
"    . . . f&( ~.g&h&[ *+=+i&[+d.Q.d+e+-+w+f+B.>+T.h+i+,+'+j+|+W@A+`.l+C+D+O+<#7+p+<@K$}@v@w w w j&_$;#:$E#/%|#m#$%F#S#%&$$r#J#k&l&&$&&=%8&[%9&-&,%_&:&V%;&0&Z%m&`%n&o&p&q&r&. . . .       q%q%q%q%q%q%q%q%    q%q%          q%q%            q%q%      q%q%          q%q%          q%q%                                          ",
"    . . . s&( v.Z#h&*+=+(#[+d.c+d+e+-+w+f+B.y+t&h+i+,+N+j+|+I.A+B+l+C+D+O+<#&@p+<@K$}@d@u&w w w v&;#:$E#/%|#m#$%F#S#T#$$r#J#k&W#O$&&=%8&[%9&-&,%_&:&V%x%0&Z%m&w&x&n&y&z&q&A&. . . .       q%q%                q%q%          q%q%            q%q%      q%q%          q%q%          q%q%                                          ",
"    . . . @+: B&.&C&f (#[+d.c+d+ @G w+f+S..@1.h+i++@N+_@|+D&A+B+l+$@D+O+s$7+*@<@K$}@d@[#Q%w w w E&7%E#/%@$#$$%F#M$T#$$r#J#F&W#O$5$=%8&[%G&H&,%_&:&I&x%0&J&K&w&L&M&N&O&p&q&P&. . . .       q%q%                q%q%          q%q%            q%q%      q%q%          q%q%          q%q%                                          ",
"    . . . -$b+a.Q&R&(#`+d.c+d+ @G w+f+S..@1.h+(@+@N+j+@@D&A+B+#@$@D+O+Q+&@*@<@[@}@d@[#t@Q%w w w S&E#/%@$#$$%F#3#T#$$1$N$F&W#O$5$:%8&T&G&H&,%_&d%I&x%U&J&V&w&W&p&X&Y&Z&`&q& *. . . .       q%q%                q%q%          q%q%            q%q%      q%q%          q%q%          q%q%                                          ",
"    . . . -$.*M++*@*[+}+c+d+ @G w+f+m@.@1./@(@+@N+_@@@I.a@B+#@$@p@O+q@&@*@c@[@}@U+G@t@C#Q%w w w #*N@@$#$$%~#3#T#$$$*N$k&w$O$5$:%n$T&%*H&,%&*d%I&<&U&J&m&**W&p&d&=*-*;*d&q&>*. . . .       q%q%                q%q%          q%q%            q%q%      q%q%          q%q%          q%q%                                          ",
"    . . . ,*'*f )*!*~*9@E  @G w+^@S..@U./@(@+@C@_@@@1+a@B+#@$@p@b@s$&@q+c@[@r@d@G@t@'@J@{*w w N ]*@$#$!#~#3#T#H%1$N$(%w$k%5$:%n$l%G&H&J%&*d%I&<&U&J&K&**W&p&^*/*(*_*:*d&q&<*. . . .       q%q%                q%q%            q%q%        q%q%q%      q%q%          q%q%          q%q%        q%q%                              ",
"      . . $ [*]@}*L@|*E T@G 0@^@S.B@1*/@(@n@C@_@@@1+a@B+#@^+p@b@s$E@q+c@[@F@U+G@t@'@J@Y@2*w w w 3*+#!#~#3#u$H%1$N$(%w$k%5$*&n$l%S$T$J%4*d%5*<&U&a&6***W&p&d&/*d&7*w 8*d&`&. . . . .       q%q%                q%q%              q%q%q%q%q%q%q%        q%q%          q%q%          q%q%        q%q%                              ",
"      . . . 9*`+0*w a*F R.0@^@g+G$U.2.(@n@C@_@@@k+a@B+X@^+p@b@P+E@q+c@[@F@U+G@t@b*J@Y@i@{*w w N c*!#~#3#u$H%1$K#d*w$k%P$*&n$l%S$T$J%&*V%5*<&U&a&K&**W&`&q&d&d&d&e*w f*d&g*. . . .         q%q%                q%q%                q%q%q%q%q%          q%q%          q%q%            q%        q%q%                              ",
"      . . . h*}+9@w i*R.0@^@g+B@U.2.,+n@C@`$W@j*a@l+X@^+p@<#P+E@q+*#J+F@U+V+H@b*J@Y@Z@>#k*w w w l*%%3#u$H%&%K#m*w$&&P$*&<%9&S$T$n*1%V%5*<&o*a&K&x&2&`&/*d&d&d&d&p*w q*d&r*. . . .                                                                                                                                               ",
"      . . . s*9@ @t*u*+.B.g+G$U.2.,+n@n.`$W@J._#l+X@^+:#<#P+E@q+*#J+F@U+V+H@^%}#;#Z@>#y@v*w w N w*3#u$H%&%K#0%_%&&P$*&<%9&S$T$J%1%V%5*0&o*a&x*x&2&`&q&d&d&d&d&d&w w d&q&y*. . . .                                                                                                                                               ",
"      . . . . e+T@z*w A*g+$.h+2.,+n@j+`$W@J._#l+X@^+:#<#P+h#<@*#J+F@[#V+H@^%}#;#Z@>#y@l#k*w w w B*q#r#&%K#0%_%&&P$*&<%9&S$m%_&1%V%p%0&o*a&x*x&2&C*/*q&d&d&d&d&D*w E*d&q&F*. . . .                                                                                                                                               ",
"        . . . G*w+H*P I*B@h+2.,+)+j+`$W@J*_#l+B#D+:#<#D@h#<@*#J+i#[#V+H@K*L*M*N*O*P*Q*R*S*w w N T*U*U*V*W*X*Y*Z*8&<%9&a%m%`*K%V%p%0&o*a&x*x&2&C*^*d&d&d&d&d&d& =w 7*q&d&.=. . .                                                                                                                                                 ",
"        . . . +=+.B.@=#=h+2.+@)+j+`$W@J*_#l+B#D+:#<#D@h#<@*#}@i#[#j#C#$=%=w N N N N N w w w w o&w w N N N N N &=<%9&a%m%_&*=I&p%0&o*O%==x&2&C*/*d&d&d&d&d&d&-=;=>=,=q&'=. . . .                                                                                                                                                 ",
"        . . . )=!=~={=N V.+@)+j+H.I.J*_##@B#D+5+<#^$h#<@P#}@i#[#j#C#I@_$]=w w w w w w w w w w w w w w w w w w ^=G&a%m%/=*=I&p%0&y%O%(=)&p&C*^*d&d&d&d&d&d&d&_=w :=d&d&<=. . . .                                                                                                                                                 ",
"          . . . [=$.h+w }=)+|=H.I.A+_##@B#D+5+Q+7+h#c@P#}@/$G@j#C#I@_$i@1=w w w w w w w w w w w w w w w w w w 2=a%m%&**=I&p%U&y%O%3=)&p&C*/*d&d&d&d&d&d&d&d&4=w 5=d&6==$. . . .                                                                                                                                                 ",
"          . . . 7=U.l.8=9=0=H.1+A+_##@B#p@5+Q+7+p+c@P#a=/$G@j#'@I@_$i@:$b=c=d=e=f=g=h=i=j=k=l=m=n=o=p=q=r=s=t=u=U%&**=I&;&U&y%m&3=)&p&d&^*d&d&d&d&d&d&d&d&v=w w=d&q&x=. . . .                                                                                                                                                   ",
"          . . . . y=+@z=w A=1+B=`.#@C+p@5+Q+7+p+c@P#F@/$G@t$C#C=_$i@:$,#+$@$m#}$~#S#T#|$1$J#i$D=&$5$=%n$A$G&>%U%&**=5*;&U&y%K&1&)&p&d&q&d&d&d&d&d&d&d&d&d&E=w F=q&d&G=. . . .                                                                                                                                                   ",
"            . . . H=I=_@J=K=B=L=X@C+p@O+P+7+p+c@K$F@/$G@t$'@M=4@Z@:$,#+$@$m#}$~#S#u$|$1$J#i$S%O$P$=%n$A$S$-&U%&*:&5*;&o*Z%K&`%)&p&d&q&d&d&d&d&d&d&d&d&d&N=w O=P=q&Q=. . . .                                                                                                                                                     ",
"            . . . R=S=|+T=w U=X@C+p@O+P+7+p+c@K$F@d@V+t$'@Q#4@Z@:$,#/%h$m#}$~#M$u$$$&%J#i$W#O$P$=%n$[%S$-&U%&*:&5*x%o*Z%K&w&L&`&d&q&d&d&d&d&d&d&d&d&d&d&V=w W=d&X=Y=. . . .                                                                                                                                                     ",
"              . . . Z=1+A+`=9= -:#O+P+7+*@*#K$F@d@V+t$'@.-4@Z@:$,#/%h$#$}$%%S#u$|$&%J#i$W#O$P$:%n$[%S$-&,%1%:&5*x%o*Z%K&w&L&`&d&q&d&d&d&d&d&d&d&d&d&d&+-w @-d&q&#-. . . . .                                                                                                                                                     ",
"              . . . . $-%-&-K=*-O+P+&@*@*#K$F@d@V+t$^%J@4@Z@7%y@/%h$#$}$=-3#u$$$&%J#i$--O$P$:%<%[%S$H&,%1%:&p%x%o*J&K&;-L&`&d&q&d&d&d&d&d&d&d&d&d&d&>-,-w '-q&)-5#. . . .                                                                                                                                                       ",
"                . . . !-B#$@~-w {-&@*@*#[@6%d@V+t$^%J@4@D#7%y@/%h$#$$%%%3#q#$$&%J#0%W#k%6$:%<%[%a%H&,%1%d%p%x%o*J&x*;-L&`&^*d&d&d&d&d&d&d&d&d&d&d&d&]-w ^-d&d&>*. . . .                                                                                                                                                         ",
"                . . . . /-:#b@(-w _-*#[@6%d@j#t@^%J@Y@D#7%y@N@8%#$$%%%3#q#$$2$N$0%w$k%P$:%<%l%a%H&,%1%d%p%x%y%J&x***W&C*^*/*d&d&d&d&d&d&d&d&d&d&d&:-w <-d&q&[-=$. . . .                                                                                                                                                         ",
"                  . . . . }-:@|-1-w 2-6%d@j#t@^%J@Y@D#7%y@N@8%+#$%S#3#q#$$2$N$0%w$O$6$:%T%l%a%T$,%K%d%p%x%y%J&x***W&C*^*d&d&d&d&d&d&d&d&d&d&d&d&3-w ,-,=q&4-.=. . . .                                                                                                                                                           ",
"                    . . . 5-h#q+6-7-;@U+j#t@^%J@Y@D#7%+$N@8%#$!#S#3#q#H%2$N$0%w$k%6$:%T%l%a%T$J%K%d%p%<&y%J&x***W&C*^*/*d&d&d&d&d&d&d&d&d&d&d&8-9-0-a-d&q&b-. . . . .                                                                                                                                                           ",
"                    . . . . c-d-e-f-g-h-i-I@_$Y@D#>#+$N@8%j-!#S#%&|$H%2$K#d*k-k%6$*&T%l%a%T$J%K%V%;&<&y%a&`%l-W&C*q&/*d&d&d&d&d&d&d&d&d&d&d&m-w w n-d&d&o-. . . . .                                                                                                                                                             ",
"                      . . . . p-/$q-r-w s-J@Y@:$>#+$N@m#+#!#S#%&|$H%J#K#d*t-k%=%*&A$9&-&T$J%*=V%;&<&y%a&`%**W&d&q&d&d&d&d&d&d&d&d&d&d&d&d&u-v-o&w-d&q&x-. . . . .                                                                                                                                                               ",
"                        . . . . y-j#C#z-f$A-B-E#+$|#m#+#!#%%%&|$r#J#K#d*C-&&=%*&T%9&-&m%J%K%V%;&<&Z%a&`%x&2&d&q&d&d&d&d&d&d&d&d&d&d&d&d&D-w v%E-d&q&F-. . . . .                                                                                                                                                                 ",
"                          . . . . G-I@L$H-I-w J-|#m#n#F#M$%&$$r#J#K#d*&$&&=%*&[%9&-&T$_&:&V%;&0&Z%a&`%K-2&d&q&d&d&d&d&d&d&d&d&d&d&d&d&L-w M-N-q&q&O-P-. . . . .                                                                                                                                                                 ",
"                          . . . . . Q-;#R-S-T-w U-V-F#%%T#$$r#J#k&W#W-&&=%8&[%9&-&m%_&X-V%;&0&Z%a&w&L&2&d&q&d&d&d&d&d&d&d&d&d&d&d&Y-Z-w ;*Y-d&`- ;P-. . . . .                                                                                                                                                                   ",
"                            . . . . . .;+;/%|#@;L@#;$;T#$$r#J#k&W#_%5$:%8&[%G&H&U%_&:&I&x%0&Z%m&w&)&2&^*q&d&d&d&d&d&d&d&d&d&d&)&%;w N @-d&q&d&&;. . . . . .                                                                                                                                                                     ",
"                              . . . . . *;=;#$n#-;;;w >;,;N$k&W#&$5$:%8&[%G&H&m%&*:&I&x%0&Z%m&w&x&p&d&q&d&d&d&d&d&d&d&d&d&d&';);w !;~;d&q&q&{;. . . . . .                                                                                                                                                                       ",
"                                . . . . . . ];F#3#T#T*A-w ^;/;&$5$:%8&[%G&H&U%&*(;I&x%U&J&m&**)&p&^*/*d&d&d&d&d&d&d&d&p&8-_;w !;:;d&q&q&<;[;. . . . . .                                                                                                                                                                         ",
"                                    . . . . };|;T#$$1$1;2;w v-3;4;n$l%G&H&U%&*5;5*<&U&J&m&w&W&p&^*q&d&d&d&d&d&d&d&d&6;7;v%w 8;9;d&d&d&0;.=. . . . . .                                                                                                                                                                           ",
"                                      . . . . . a;b;J#(%w$c;d;e;w f;g;h;i;&*(;5*<&U&J&K&**W&p&d&/*d&d&d&d&d&'-j;k;o&w >=l;m;d&q&d&n;o;. . . . . .                                                                                                                                                                               ",
"                                        . . . . . . p;q;k%P$*&n$r;s;w w v%t;u;v;w;a&K&**)&p&q&q&d&d&x;6;y;9-v%w w z;A;d&d&d&q&B;C;. . . . . . .                                                                                                                                                                                 ",
"                                            . . . . . . D;E;8&9&S$T$F;G;H;I;y&w w w y&}&J;K;L;O=c&w w w N Z-M;N;O;d&d&q&q&P;Q;. . . . . . . .                                                                                                                                                                                   ",
"                                              . . . . . . . + R;S;T;1%V%5*0&o*U;V;W;X;Y;4=Z;`; >.>+>@>#>d&d&q&q&q&$>%>&>*>. . . . . . . .                                                                                                                                                                                       ",
"                                                  . . . . . . . R==>->;>;&>>a&`%x&,>`&d&d&d&d&d&d&d&d&q&q&q&d&'>)>!>~>. . . . . . . .                                                                                                                                                                                           ",
"                                                      . . . . . . . . . . {>]>^>/>(>_>:>:>:>:><>[>}>|>1>2>3>. . . . . . . . . . . .                                                                                                                                                                                             ",
"                                                          . . . . . . . . . . . . 4>~>5>5>5>5>5>6>7>=$. . . . . . . . . . . .                                                                                                                                                                                                   ",
"                                                              . . . . . . . . . . . . . . . . . . . . . . . . . . . . . .                                                                                                                                                                                                       ",
"                                                                      . . . . . . . . . . . . . . . . . . . . . .                                                                                                                                                                                                               ",
"                                                                              . . . . . . . . . . . . . .                                                                                                                                                                                                                       ",
"                                                                                  . . . . . . . . . .                                                                                                                                                                                                                           ",
"                                                                                  . . . . . . . . . .                                                                                                                                                                                                                           ",
"                                                                                  . . . . . . . . . .                                                                                                                                                                                                                           ",
"                                                                                  . . . . . . . . . .                                                                                                                                                                                                                           ",
"                                                                                  . . . . . . . . . .                                                                                                                                                                                                                           ",
"                                                                                  . . . . . . . . . .                                                                                                                                                                                                                           ",
"                                                                                  . . . . . . . . . .                                                                                                                                                                                                                           ",
"                                                                                  . . . . . . . . . .                                                                                                                                                                                                                           ",
"                                                                                  . . . . . . . . . .                                                                                                                                                                                                                           ",
"                                                                                  . . . . . . . . . .                                                                                                                                                                                                                           ",
"                                                                                  . . . . . . . . . .                                                                                                                                                                                                                           ",
"                                                                                  . . . . . . . . . .                                                                                                                                                                                                                           ",
"                                                                                  . . . . . . . . . .                                                                                                                                                                                                                           ",
"                                                                                  . . . . . . . . . .                                                                                                                                                                                                                           ",
"                                                                                  . . . . . . . . . .                                                                                                                                                                                                                           ",
"                                                                                  . . . . . . . . . .                                                                                                                                                                                                                           ",
"                                                                                  . . . . . . . . . .                                                                                                                                                                                                                           ",
"                                                                                  . . . . . . . . . .                                                                                                                                                                                                                           ",
"                                                                                  . . . . . . . . . .                                                                                                                                                                                                                           ",
"                                                                                  . . . . . . . . . .                                                                                                                                                                                                                           ",
"                                                                                  . . . . . . . . . .                                                                                                                                                                                                                           ",
"                                                                                  . . . . . . . . . .                                                                                                                                                                                                                           ",
"                                                                                  . . . . . . . . . .                                                                                                                                                                                                                           ",
"                                                                                  . . . . . . . . . .                                                                                                                                                                                                                           ",
"                                                                                  . . . . . . . . . .                                                                                                                                                                                                                           ",
"                                                                                  . . . . . . . . . .                                                                                                                                                                                                                           ",
"                                                                                  . . . . . . . . . .                                                                                                                                                                                                                           ",
"                                                                                  . . . . . . . . . .                                                                                                                                                                                                                           ",
"                                                                                  . . . . . . . . . .                                                                                                                                                                                                                           ",
"                                                                                  . . . . . . . . . .                                                                                                                                                                                                                           ",
"                                                                                  . . . . . . . . . .                                                                                                                                                                                                                           ",
"                                                                                  . . . . . . . . . .                                                                                                                                                                                                                           ",
"                                                                                  . . . . . . . . . .                                                                                                                                                                                                                           ",
"                                                                                  . . . . . . . . . .                                                                                                                                                                                                                           ",
"                                                                                  . . . . . . . . . .                                                                                                                                                                                                                           ",
"                                                                                  . . . . . . . . . .                                                                                                                                                                                                                           ",
"                                                                                  . . . . . . . . . .                                                                                                                                                                                                                           ",
"                                                                                  . . . . . . . . . .                                                                                                                                                                                                                           ",
"                                                                                  . . . . . . . . . .                                                                                                                                                                                                                           ",
"                                                                                  . . . . . . . . . .                                                                                                                                                                                                                           ",
"                                                                                  . . . . . . . . . .                                                                                                                                                                                                                           ",
"                                                                                  . . . . . . . . . .                                                                                                                                                                                                                           ",
"                                                                                  . . . . . . . . . .                                                                                                                                                                                                                           ",
"                                                                                  . . . . . . . . . .                                                                                                                                                                                                                           ",
"                                                                                  . . . . . . . . . .                                                                                                                                                                                                                           ",
"                                                                                  . . . . . . . . . .                                                                                                                                                                                                                           ",
"                                                                                  . . . . . . . . . .                                                                                                                                                                                                                           ",
"                                                                                  . . . . . . . . . .                                                                                                                                                                                                                           ",
"                                                                                . . . . . . . . . . . . .                                                                                                                                                                                                                       ",
"                                                                      . . . . . . . . . . . . . . . . . . . . . . .                                                                                                                                                                                                             ",
"                                                                . . . . . . . . . . . . . . . . . . . . . . . . . . . . .                                                                                                                                                                                                       ",
"                                                          . . . . . . . . . . . 8>9>0>a>b>c>d>e>f>g>h>i>. . . . . . . . . . .                                                                                                                                                                                                   ",
"                                                      . . . . . . . . j>k>l>m>n>o>p>q>r>s>t>u>v>w>x>y>z>A>B>C>D>E>F>. . . . . . .                                                                                                                                                                                               ",
"                                                  . . . . . . . G>H>I>J>K>K>o>L>M>q>N>s>O>P>Q>R>x>S>z>T>U>V>W>X>Y>Z>`> ,. . . . . . .                                                                                                                                                                                           ",
"                                              . . . . . . 8>.,+,K>K>K>o>K>@,o>#,$,%,&,*,=,-,;,>,,,',),!,~,{,X>],^,/,(,_,:,<,[,. . . . . .                                                                                                                                                                                       ",
"                                            . . . . . . },|,o>K>K>o>K>K>1,2,3,4,5,5,6,6,N N N N 6,6,5,5,7,8,9,/,0,a,_,b,c,d,e,f,. . . . . . .                                                                                                                                                                                   ",
"                                        . . . . . . },I>K>K>K>K>K>g,h,i,w w w 4,j,k,l,m,n,o,p,q,r,s,t,u,w w w w v,w,x,c,d,y,z,z,A,B,C,. . . . .                                                                                                                                                                                 ",
"                                      . . . . . D,E,K>o>K>K>F,G,H,w I,J,K,L,M,s>t>u>Q>w>x>N,O,P,Q,R,{,],S,T,U,V,W,w w X,Y,Z,`, '.'+'@'#'. . . . .                                                                                                                                                                               ",
"                                    . . . . . $'K>K>o>K>%'&'*'w I,='-';'q>>'s>,'P>Q>w>x>''z>)'U>~,W>X>S,^,0,(,_,!'~'{'w w ]'^'/'('_':'<'['}'. . . . .                                                                                                                                                                           ",
"                                  . . . . |'1'K>o>K>2'3'w w 4'5'K>6'7'q>8's>O>9'Q>w>x>y>)')'~,~,{,X>],/,/,_,_,c,c,0'a'b'c'd'w e'f'g'h'i'j'k'l'. . . . .                                                                                                                                                                         ",
"                              . . . . . m'|,K>o>K>n'o'w p'q'r'L>o>#,q>>'s>,'P>Q>s'x>''z>P,U>~,W>S,S,^,t'(,u'b,c,v'0'w'x'`,y'z'w w A'B'C'D'E'F'G'. . . . .                                                                                                                                                                       ",
"                            . . . . . H'K>o>K>I'J'w *'K'K>K>K>6'7'L'>'s>O>M'Q>w>x>y>N')'Q,~,X>X>],t'/,_,b,O'P'0'Q'z,R' 'S'('T'U'V'w w W'X'Y'Z'`' ).). . . .                                                                                                                                                                     ",
"                          . . . . . +)K>K>K>@)#)w $)2'K>K>6'6'%)q>r>&)*)M'Q>s'=)''-)P,;)>)W>,)S,')t'))_,b,c,!)y,w'~)`,S'{)T':'<'])^)w w /)()_):)<)[). . . . .                                                                                                                                                                   ",
"                          . . . })|)K>o>K>1)2)2)3)K>K>K>L>4)%)q>>'s>O>P>Q>w>x>y>z>)'U>~,5)X>6)^,/,))_,b,v'0'y,z,z, 'S'('T':'7)8)9)0)a)b)w c)d)e)f)g)h)}'. . . .                                                                                                                                                                 ",
"                        . . . . i)K>K>K>j)w k)l)K>K>o>m)L>#,q>>'s>*)M'Q>s'N,'')'P,Q,~,n)],S,/,0,a,_,o)c,p)a'w'~)`,q)r)T's)t)8)u)0)v)w)x)y)w W,z)f)A)B)C). . . .                                                                                                                                                                 ",
"                      . . . . D)K>o>K>E)w F)G)K>K>o>m)L>7'q>>'s>t>P>Q>H)x>''z>)'U>~,W>S,S,^,/,(,_,b,v'!)y,z,~)I)J)K)T'L)M)i'9)0)N)w)O)P):)Q)w w R)S)T)U)V). . . .                                                                                                                                                               ",
"                    . . . . W)K>o>K>X)w i,Y)K>K>K>K>6'p>r>>'*)O>u>Q>w>''y>)')'~,~,X>],S,/,Z)a,b,c,`)0'y,z,R'I)S'_'T':'7)8)9)0) !.!x)P)<)+!@!#!N w $!%!&!*!=!. . . .                                                                                                                                                             ",
"                    . . . -!K>K>K>;!w >!Y)K>K>o>@,6'%)q>>'s>,'P>R>H)x>''z>P,U>~,,!X>S,t'/,(,_,b,P''!a'w')!`,S'K)T'L)t)8)9)0) !w)x)_):)+!!!f)~!{!w ]!^!/!(!_!:!. . . .                                                                                                                                                           ",
"                  . . . <![!o>K>}!w |!1!K>K>o>K>6'%)q>>'s>O>9'Q>w>x>y>)')'~,~,X>X>^,/,/,2!_,o)c,0'a'z,~) 'S'('T's)t)8)9)0)N).!x)P):)e)3!g)A)S)U)4!w 5!6!7!8!9!0!. . .                                                                                                                                                           ",
"                . . . . +)K>o>G)a!#)2'K>K>K>@,6'%)q>r>b!*)P>Q>s'x>''N'P,U>~,W>S,S,t'0,2!_,c,c,c!y,w'~)`,S'('T':'t)8)9)0)d!w)x)_):)+!!!f)A)e!f!U)g!h!w i!j!k!l!m!. . . .                                                                                                                                                         ",
"                . . . k>K>o>K>n!w o!K>K>K>o>4)%)q>>'s>O>M'Q>w>x>z>N')'~,~,n)S,^,')/,a,_,O'v'0'Q'z,`,I)S'('T':'h'8)9)0)d!Y'x)P):)+!!!g)A)S)p!U)q!/!*!r!w s!t!u!u!v!. . .                                                                                                                                                         ",
"              . . . . w!K>K>x!w 5'K>K>K>@,6'%)q>>'s>*)M'Q>H)S>'')'P,~,V>W>],S,/,0,a,_,y!z!p)a'w'~)`,S'('T's)A!8)9)0)d!Y'x)P)<)+!3!f)A)e!B!C!g!*!/!D!E!w w F!G!H!I!J!. . .                                                                                                                                                       ",
"              . . . K!K>K>L!M!N!K>K>o>@,6'%)q>r>s>O>M'Q>w>x>N,z>)'U>~,W>X>O!t'(,(,_,c,v'c!y,z,R' 'S'('T'L)t)8)9)0) !w)Z'_):)e)!!g)A)f!P!U)Q!/!*!R!D!8!S!w T!U!V!W!X!. . . .                                                                                                                                                     ",
"            . . . 8>Y!o>K>Z!w `!K>o>K>#,%)r>8' ~*)M'Q>x>N,.~)'P,Q,~,+~],@~/,(,a,#~$~%~&~*~=~-~;~S'('T's)t)8)9)0)d!>~x)P),~+!@!f)A)e!p!Q!C!*!/!D!D!'~l!)~!~w ~~{~]~]~^~. . .                                                                                                                                                     ",
"            . . . /~o>o>(~w _~K>o>@,6'%)q>>'s>O>M'Q>H)x>''z>)'U>W>W>S,S,:~<~[~w N N w N w w w w }~|~1~A!8)2~0)d!w)x)P):)<)!!g)~!S)f!U)g!q!*!_!D!8!3~4~u!5~w N 6~7~8~9~. . .                                                                                                                                                     ",
"          . . . . 0~K>K>>!*'a~o>K>6'%)r>8't>t>Q>Q>x>x>y>)')'~,~,5)S,b~c~d~w w w o&w w w w w w N w w e~f~9)E'N)Y'x)P):)e)g)g)A)f!p!U)g~*!*!h~D!i~t!j~u!k~V!l~w m~8~n~o~p~. . .                                                                                                                                                   ",
"          . . . q~K>o>r~w s~o>@,6'p>q>>'s>,'P>Q>R>x>''z>A>U>~,W>S,t~u~w w w o&N w w w w w w w w N w N N v~w~Y'x)P):)<)!!f)~!S)f!U)g!q!x~_!D!8!y~l!G!H!z~A~B~C~D~E~F~G~H~. . .                                                                                                                                                   ",
"          . . . #~K>K>&'w o>K>6'%)q>>'*)O>Q>R>w>''z>O,)'V>~,I~S,^,0,J~N w N N w K~L~M~N~O~P~Q~w N N w N w R~x)P):)e)3!g)S)S)U)g!q!(!_!h~D!k!y~j~H!k~z~S~T~U~V~w W~G~X~Y~. . . .                                                                                                                                                 ",
"        . . . Z~`~o>r~w  {@,6'%)q>r>s>*)9'R>R>=)''A>.{U>~,W>+{t~0,/,@{N w #{${%{w'`,&{S'('T's)*{={w N w N w -{:)<)3!;{~!S)f!Q!g!>{(!_!D!8!y~,{u!H!z~'{){){8~!{w C~~{{{]{^{. . .                                                                                                                                                 ",
"        . . . q~K>K>/{6,({6'%)q>_{b!t>9'Q>:{x>y>z>U>R,~,n)S,^,t'(,2!<{[{}{0'y,|{R'1{S'('T'L)t)8)9)2{N w w N 3{e)!!g)~!S)4{U)&!x~_!R!8!k!l!j~u!k~z~S~){5{6{7{8{9{w 0{a{b{c{. . .                                                                                                                                                 ",
"        . . . d{K>K>e{f{#,p>_{r>O>*)Q>R>:{y>'')'P,~,~,n)],S,/,/,2!_,g{`)0'Q'w'`,&{S'+'h{t)7)j'9)0)i{j{w w N w k{f)A)l{m{g~n{*!(!7!D!k!y~o{G!H!V!A~){p{8~7{q{r{s{w t{u{v{w{. . .                                                                                                                                                 ",
"      . . . })K>K>o>2)x{%)q>r>s>O>u>Q>R>x>y{z>U>R,~,I~S,S,/,(,2!b,c,z!0'y,|{`,I)S'('T'<'7)8)j'0) !>~z{w w w N |)A{S)f!U)&!/!_!R!B{'~y~,{u!k~C{{~D{U~8~F~8{r{E{F{G{H{I{J{K{L{. . .                                                                                                                                               ",
"      . . . M{K>o>N{w O{r>>'O>O>Q>R>s'y>.~)'U>~,~,+~t~O!/,(,2!b,c,v'0'w'|{`,1{S'_'h{<'7)8)j'v)d!>~x)d)w w w w P{S)U)g!&!*!_!h~8!i~y~j~u!k~A~Q{){5{8~R{q{r{E{S{T{U{w V{W{X{Y{. . .                                                                                                                                               ",
"      . . . Z{o>@,`{ ]q>r>s>O>9'Q>R>x>''A>.]R,~,W>S,],t'(,2!b,c,z!0'a'+]`,1{S'_'T'<'7)8)9)0) !w)x)Z'@]N w w N P{f!g!Q!x~x~_!D!y~4~j~u!k~V!W!){U~8~F~8{r{#]]{T{$]%]w &]W{*]=]. . .                                                                                                                                               ",
"      . . })-]o>6';]>]>'O>O>M'R>x>''z>)'U>~,W>+~S,^,t'(,2!b,c,v'0'Q'|{R'I)S'('h{s)7)8)9)0) !>~x)P)<),]w w w N ']g!q!x~_!h~8!'~y~j~u!k~V!{~){)]8~n~8{G~#]]{T{!]v{~]w {]]]^]/](]. .                                                                                                                                               ",
"      . . F>_]#,:]5,<] ~*)u>R>R>''y{z>)'R,W>W>t~O!t'(,2!_,c,!)0'y,z,`, 'S'('h{s)A!8)j'k'D'.!Z'Z'<)<)[]w w N w }]Q!x~(!_!D!i~|],{u!k~A~A~){U~8~F~1]r{E{]{]{u{v{2]K{w 3]4]5]6]7]. . .                                               q%                                                                                            ",
"    . . . 8]9]%)0]N a]O>Q>Q>b]''z>O,U>U>W>I~S,^,t'c]u'd]c,v'0'a'+]`,1{r)('e]<'7)8)2~v) !>~Z'P):)e)f]g]o&w w h]q!/!_!7!8!y~l!j~u!k~C{{~){U~8~7{i]r{#]]{T{u{v{J{K{X{j]5,k]l]m]n]. . .     q%q%            q%q%            q%q%      q%q%                                                                                          ",
"    . . . 8>o]_{p]w q]u>Q>s'N,'')'P,~,~,n)],],t'/,2!b,c,v'0'a'x'`,I)+'.'h{t)h'2~C'D'D'.!Z'Z'e)<)g)r]w w N w s](!*!R!D!y~|],{u!H!C{t]){p{8~7{q{~{E{S{{{u{v{u]v]w]x]y]5,z]l]A]B]. . .     q%q%          q%q%q%q%          q%q%      q%q%                                                                                          ",
"    . . . C]q>s>D]w E]Q>b]''.~z>U>R,W>+~],^,t'(,_,b,c,v'0'y,+]`,1{S'_'F]<'7)8)9)0) !.!Z'Z':)G]!!H]w N w o&I](!_!R!8!J]y~j~u!k~A~S~){U~8~F~8{r{E{]{T{u{v{J{K{X{*]]]K]6,L]M]N]O]. . .     q%q%          q%q%q%q%          q%q%      q%q%                                                                                          ",
"    . . . P]Q]O>R]w S]x>y>y{)'U>V>5)+~+{^,t'(,2!b,c,v'0'w'x'`,1{S'_'e]t)7)2~C'v)D'>~Z'T]e)G]g)U]V]N w N w W]X]D!D!i~l!j~u!k~A~Q{){U~8~F~1]r{E{S{T{b{v{J{W{X{]]4]Y]Z]N `] ^.^+^. . .     q%q%          q%q%q%q%        q%q%q%      q%q%                                                                                          ",
"    . . . @^s>O>#^w R>''y>P,U>U>~,+~S,^,t'(,2!b,O''!0'w'+]`,1{S'K)T'<'7)8)C'0) !.!Z'Z':)<)!!~!$^w o&N w %^_!R!&^y~l!j~u!H!C{Q{){]~8~7{i]r{~{]{a{$]v{2]K{W{*]]]5]Y]*^N =^-^;^>^. . .       q%q%        q%    q%        q%q%        q%q%  q%q%q%q%q%            q%q%q%q%q%q%          q%q%  q%q%q%q%      q%q%q%q%q%q%          q%",
"    . . . ,^O>Q>'^w y>z>P,U>>)~,+~S,^,t'(,_,y!c,!)0'Q'x'`,I)_'('F]<'7)j'9) ! !>~x)T]+!e)g)~!)^N N o&w !^_!7!D!i~4~j~H!k~V!Q{){5{~^F~i]r{#]{^a{u{v{J{w]X{]]]]Y]Y]M]]^w ^^/^(^_^. . .       q%q%        q%    q%        q%q%        q%q%q%      q%q%q%        q%q%q%      q%q%        q%q%q%q%          q%q%      q%q%q%        q%",
"    . . . ,^v>Q>:^w ''.{)'R,W>+~S,^,0,(,2!<^c,v'0'y,z,`,1{S'('F]<'h'8)j'0)D'Y'x)Z'<)<)!![^}^N w N w |^*!h~&^y~l!j~u!H!A~S~){U~1^F~i]r{X~]{{{!]v{2]K{W{*]4]2^Y]l]3^]^w 4^5^(^6^. . .       q%q%      q%q%    q%q%      q%q%        q%q%          q%q%        q%q%          q%q%      q%q%q%          q%q%          q%q%        q%",
"    . . . 7^Q>b]8^w A>U>V>W>+~S,^,9^(,2!d]c,'!0^w'z,`,1{S'('F]<'7)8)9) ! !x)x):)<)!!g)g)a^w N N N b^_!7!8!y~l!j~u!k~z~Q{){U~8~F~i]r{#]c^T{u{v{J{K{X{]]]]Y]Y]d^3^-^e^N f^g^h^i^. . .         q%q%    q%q%    q%q%      q%q%        q%q%          q%q%      q%q%            q%q%      q%q%            q%q%            q%q%        ",
"    . . . j^k^''l^w )'R,m^I~S,],t'(,u'b,c,v'0'w'|{n^o^S'.'T'<'t)8)j'v)D'Y'Z'Z'e)<)g)f)p^N w N w q^*!R!D!y~|]j~r^k~A~S~){U~8~F~i]r{E{S{{{!]v{s^w]W{t^4]^]Y]l]3^u^-^v^N w^x^y^z^. . .         q%q%    q%        q%    q%q%          q%q%          q%q%      q%q%q%q%q%q%q%q%q%q%      q%q%          q%q%q%q%q%q%q%q%q%q%q%        ",
"    . . . C]''z>A^w B^,!I~S,^,t'))_,b,c,v'0'a'x'`,1{r)('e]<'7)j'C'E' !Y'Z'C^<)e)f)g)D^w N w N E^F^R!B{y~l!j~H!k~A~Q{G^U~8~F~i]r{#]]{T{u{v{J{K{X{*]]]5]Y]H^3^A]I^5^J^6,K^L^M^N^. . .         q%q%    q%        q%q%  q%q%          q%q%          q%q%      q%q%q%q%q%q%q%q%q%q%      q%q%          q%q%q%q%q%q%q%q%q%q%q%        ",
"    . . . 8>O^P,P^w Q^+~],^,0,(,u'R^c,v'S^w'x'`,o^r)('T't)h'2~j' !D'x)Z'_)e)<)g)g)T^w N N w U^*!R!D!y~l!j~r^k~A~Q{){]~~^F~q{~{~{{^{{v{2]J{v]W{]]]]V^W^X^u^u^/^/^Y^Z^6,`^M^ /./. . .         q%q%  q%q%        q%q%  q%q%          q%q%          q%q%      q%q%                      q%q%          q%q%                          ",
"    . . . G>+/U>@/w #/t~^,0,))_,d]c,'!0'w'|{`,o^S'_'T'<'t)8)9)0) !w)x)Z'<)G]f)~!$/N o&w N %/&/7!B{y~l!j~r^*/A~Q{){5{8~F~i]r{#]]{T{b{v{s^K{w]*]]]^]Y]l]3^ ^I^5^Y^g^=/-/;/>/,/'/. . .         q%q%  q%q%        q%q%q%q%q%          q%q%          q%q%      q%q%                      q%q%            q%q%                        ",
"      . . F>)/>)!/6,~/^,0,))_,y!c,v'0'z,+]`,o^r)T'e]<'7)9)2~ ! !x)x):)e){/g)~!]/w o&N N ^/_!7!&^y~l!j~r^//A~Q{){5{6{F~i]~{#]c^T{v{v{J{w]v]]]]]Y]Y]H^3^-^.^5^Y^g^y^(/}~_/:/</[/. . .           q%q%q%q%        q%q%q%q%            q%q%          q%q%        q%q%                    q%q%            q%q%                      q%",
"      . . })}/+~X>5,|/t'))_,y!c,v'0'w'+]`,o^S'('e]<'h'8)j'D' !w)x)Z'<)<)f)g)1/w o&w N 2/&/h~8!k!,{j~G!*/A~Q{){U~1^F~1]r{~{]{T{$]2]2]K{W{*]4]^]Y]H^3^u^I^/^5^g^g^3/w 4/:/5/</(]. .             q%q%q%            q%q%q%            q%q%          q%q%        q%q%q%        q%q%      q%q%              q%q%q%        q%        q%",
"      . . . 6/X>+{7/8/(,a,y!c,'!S^w'+]`,o^K)('e]<'7)9/9) ! !x)x):)<)!!g)~!0/w o&N N a/b/R!B{y~,{j~H!//A~Q{){U~8~F~i]r{E{T{T{v{v{K{W{X{]]]]Y]Y]H^3^u^I^5^c/d/y^e/f/w g/h/i/j/. . .             q%q%q%            q%q%q%            q%q%          q%q%            q%q%q%q%q%q%        q%q%                q%q%q%q%q%q%q%        q%",
"      . . . k/S,^,l/w a,d]c,v'0'w'+]`,o^S'('h{t)h'j'j'k'D'w)x)Z'<)<)f)g)m/w o&w w n/o/D!8!y~l!j~u!k~A~Q{){U~6{F~q{r{~{c^{{$]v{2]K{W{p/x]^]Y]q/3^ ^I^/^5^r/s/t/M^u/w v/w/x/y/. . .                                                                                                                                               ",
"      . . . })^,/,z/w A/c,v'0^w'+]`,1{r)('<'t)7)8)9)D' !x)x)B/<)!![^~!C/N N N N D/E/7!8!y~l!j~r^*/A~Q{){U~8~F~i]r{#]c^T{v{2]K{W{*]p/]]V^Y]H^3^-^I^5^Y^g^x^F/M^G/(/H/i/x/5/I/. . .                                                                                                                                               ",
"        . . . J/(,_,K/L/'!0^z,+]`, '+'.'e]t)t)9)j' ! !w)Z'Z'e)G]g)g)M/N w w w w N/O/P/P/Q/R/S/T/U/V/V/W/X/Y/Z/`/~{T{{{b{v{2]X{W{]]4]Y]Y]l]u^ ^.^/^Y^(^s/t/M^>/ (-/.(x/+(@(. . .                                                                                                                                                 ",
"        . . . #(_,y!$(%(&(w'+]`,o^+'('e]t)7)j'0)D'w)w)x)B/<)!!f)~!e!*(w w w o&o&w N N N N N N N N N N N N N N =(]{T{u{v{K{K{*]*]]]-(l]l]3^N]I^5^Y^g^y^t/M^;(:/>(w ,(5/5/'(. . .                                                                                                                                                 ",
"        . . . )(!(v'~(w {(+] '1{K)('<'t)8)2~]( !N)x)x)T]e)^(;{~!e!f!/(w w w w w w w w w w w w w w w w w w w w (({{v{v{K{w]_(]]:(Y]Y]H^u^<(/^5^[((^y^L^M^}(|(h/w w 1(+(2(3(. . .                                                                                                                                                 ",
"          . . . 4('!0'5(6(`,1{S'('e]t)A!j'](D'w)F'Z'Z'<),~f)~!7(f!4{)^w w w w w w w w w w w w w w w w w w w w 8($]v{2]W{W{*]]]^]Y]l]3^u^I^5^Y^9(y^L^M^>/|(h/0(w a(5/5/b(. . . .                                                                                                                                                 ",
"          . . . c(w'z,d(w e(('('<'t)8)C'0) !w)x)Z'T],~!!;{~!e!f!U)g~f(g(h(i(i(j(k(l(m(n(o(o(p(p(q(r(r(s(t(u(u(v(v{K{w]*]]]^]W^l]w(3^-^I^5^c/g^y^F/M^>/:/h/x(y(z(A(5/5/B(. . .                                                                                                                                                   ",
"          . . . . C(|{e,D(E(('F]t)h'j'j'D'F(w)Z'B/<){/f)g)e!f!U)Q!&!(!G(D!J]y~l!j~H!//A~S~){U~~^F~i]r{~{]{{{b{v{2]W{v]4]H(-(l]H^ ^u^I^5^Y^d/s/L^M^I(:/h/w/J(w K(5/5/L(M(. . .                                                                                                                                                   ",
"            . . . N(o^S'O(w P(t)8)j'0) ! !x)Z'B/<)!![^~!e!f!T)g!q!*!_!D!&^y~4~j~H!//A~Q{U~U~F~F~i]~{#]T{T{v{v{K{W{*]H(^]W^l]X^3^-^I^5^[(d/y^L^Q(I(:/h/R(+(S(w T(+(5/U(. . .                                                                                                                                                     ",
"            . . . C,V(_'.'W(X(t)9)j'N)d!F'x)Z'<)e)f)g)7(f!T)g!q!x~Y(h~B{y~|]j~H!//A~{~Z(]~~^F~1]`(~{T{{{b{v{2]w]v]H(4]^]Y]w( _ ^.^/^[(._y^F/M^;(+_h/R(+(@_w #_5/+(5/$_. . .                                                                                                                                                     ",
"              . . . %_('<'&_w *_0)0)w)w)x)C^+!!!f)~!e!P!4{g~q!/!_!D!J]t!l!j~H!//A~Q{Z(U~F~8{i]r{#]]{T{!]v{=_W{*]4]^]-(Y]H^3^-^I^5^Y^g^y^L^M^I(-_h/R(+(;_>_,_'_5/5/)_. . . .                                                                                                                                                     ",
"              . . . . !_t)h'~_{_]_ !F'Z'B/e)^(;{g)e!S)m{q!q!*!^_D!J]y~4~j~k~*/{~Q{]~]~~^8{8{#]~{T{T{/_v{(_X{W{]]]]-(Y]H^u^-^I^/^Y^g^y^L^M^;(-___i/5/5/:_w <_5/5/[_}_. . .                                                                                                                                                       ",
"                . . . |_8)1_](2_b)F'Z'_)<)^(f)~!e!f!T)Q!>{x~Y(D!J]y~4~3_H!*/A~{~){U~~^F~q{~{X~]{$]$]2]4_W{5_4]^]-(6_w(u^-^.^5^[(d/y^F/M^}(+_h/R(x/5/7_w K(5/+(5/8_. . .                                                                                                                                                         ",
"                . . . . 9_1_w)0_5,a_C^e)!!;{~!e!f!U)Q!q!*!^_D!J]y~,{j~k~//{~Q{p{8~6{8{r{X~b_T{T{v{v{=_X{_(]]^]-(l]w(3^-^I^5^(^9(y^L^M^I(+_c_R(5/5/d_w e_f_+(5/g_. . . .                                                                                                                                                         ",
"                  . . . (]h_F'F'i_w j_^(f)~!e!f!U)g!q!/!Y(7!J]y~l!j~H!*/A~S~){U~6{F~8{~{~{]{T{$]2]4_W{W{4]^]-(l]X^ ^u^I^5^c/k_y^t/M^}(+_h/R(+(5/l_m_w n_5/+(b($_. . .                                                                                                                                                           ",
"                    . . . o_x)Z':)p_w q_~!r_B!U)g!q!x~^_8!J]3~,{s_H!//{~Q{U~U~F~F~r{X~#]T{$]v{v{K{W{*]]]^]V^l]M] ^-^I^t_c/k_y^t/M^;(:/h/R(5/5/u_v_w w_5/5/5/x_. . . .                                                                                                                                                           ",
"                    . . . . y_B/{/!!z_w A_f!U)g!q!(!_!D!J]y~l!j~H!//A~S~G^]~1^8{8{r{~{{^{{$]v{2]W{W{]]H(-(q/M]3^-^I^5^(^r/y^L^M^;(-_h/R(+(5/u_B_w C_5/+(5/D_. . . .                                                                                                                                                             ",
"                      . . . . E_!!F_~!G_w H_g!q!/!Y(D!J]l!|]3_H!//A~Q{p{8~~^F~G~~{]{T{T{v{v{(_W{*]4]^]W^l]M]3^-^I^5^(^9(y^L^M^;(-_h/R(+(5/I_J_w K_5/+(5/L_. . . .                                                                                                                                                               ",
"                        . . . . M_~!S)p!N_w O_(!G(D!&^3~,{s_k~k~Q{S~)]]~1^1]8{#]X~P_{{!]2]2]X{X{4]]]-(Y]H^u^Q_I^5^(^k_y^L^M^:/-_h/R(+(5/R_S_w T_5/5/+(U_. . . .                                                                                                                                                                 ",
"                          . . . })V_p!g!g!W_w X_D!J]y~|]3_k~//A~Q{Z(U~1^8{i]r{]{]{T{Y_v{4_W{*]4]^]-(l]X^u^-^;^5^(^k_y^L^M^;(-_h/R(+(5/Z_(/w `_5/+(5/ :.:. . . .                                                                                                                                                                 ",
"                          . . . . . +:n{q!@:#:5,$:%:4~3_&:A~S~){]~U~F~1]r{~{]{T{$]Y_2](_X{*]x]^]-(l]M] ^-^*:5^c/d/y^t/=::/+_5/R(5/5/-:w (/+:5/5/5/j/. . . . .                                                                                                                                                                   ",
"                            . . . . . ;:/!h~D!>:D~G{,:H!k~A~Q{){U~8~8{8{~{]{{{$]Y_2]4_W{X{4]^]V^l]X^3^-^I^5^(^d/y^t/Q(;(-_h/R(+(':B_w ):!:5/+(5/U(p~. . . .                                                                                                                                                                     ",
"                              . . . . . ~:{:J]l!)~]:w ^:/:(:U~U~F~8{r{#]]{T{$]v{2](_v]*]4]^]Y]q/M] ^-^;^5^(^9(y^e/M^:/-_h/R(_:::w 3]<:5/+(R([:}:. . . . .                                                                                                                                                                       ",
"                                  . . . . |:1:o{r^k~2:T!w 9{3:8~8{8{~{~{{{a{Y_v{4_v]w]4]^]-(l]M]3^-^/^t_(^k_y^F/=:;(-_h/4:5:,_w 6:7:5/5/5/5/8:. . . . .                                                                                                                                                                         ",
"                                    . . . . . 9:H!A~{~){0:a:w b:c:d:]{T{$]I{2]K{v]*]4]^]-(l]M]3^-^;^5^(^k_y^e/e:;(f:g:h:w w i:j:5/5/5/5/k:.:. . . . .                                                                                                                                                                           ",
"                                      . . . . . l:m:S~U~]~n:o:p:w q:r:s:Y_2]J{W{t:x]]]V^Y]M]3^-^.^5^(^9(y^L^M^u:v:e_6,w w:x:y:5/+(5/z:8:. . . . .                                                                                                                                                                               ",
"                                        . . . . . . A:B:F~8{r{~{C:D:E:w w F:G:H:I:J:K:L:H^3^M:N:O:P:Q:R:S:T:U:w w :_V:x:5/5/5/2(W:X:.:. . . . .                                                                                                                                                                                 ",
"                                            . . . . . . Y:Z:]{~{T{$]Y_`: <.<5,6,w w w w w w w w w w w N -/6,+<@<#<5/5/5/5/+([:$<. . . . . . .                                                                                                                                                                                   ",
"                                              . . . . . . J!%<&<$]Y_2](_W{*]*<=<-<;<><,<'<)<!<~<{<]<^</<(<_<h/R(+(5/5/5/:<<<[<. . . . . .                                                                                                                                                                                       ",
"                                                  . . . . . . . }<|<1<2<*]4]^]Y]M]M]3^-^/^3<g^d/t/e/M^4<h/i/R(5/5<6<7<[/. . . . . . .                                                                                                                                                                                           ",
"                                                      . . . . . . . . 8<9<0<a<H^M] ^-^I^b<(^9(y^e/e:;(-_h/c<d<3(e<p~. . . . . . .                                                                                                                                                                                               ",
"                                                          . . . . . . . . . . . }_f<g<h<i<j<k<l<m<n<o<p<. . . . . . . . . . .                                                                                                                                                                                                   ",
"                                                                . . . . . . . . . . . . . . . . . . . . . . . . . . . . .                                                                                                                                                                                                       ",
"                                                                      . . . . . . . . . . . . . . . . . . . . . . .                                                                                                                                                                                                             ",
"                                                                                . . . . . . . . . . . . .                                                                                                                                                                                                                       ",
"                                                                                  . . . . . . . . . .                                                                                                                                                                                                                           ",
"                                                                                  . . . . . . . . . .                                                                                                                                                                                                                           ",
"                                                                                  . . . . . . . . . .                                                                                                                                                                                                                           ",
"                                                                                  . . . . . . . . . .                                                                                                                                                                                                                           ",
"                                                                                  . . . . . . . . . .                                                                                                                                                                                                                           ",
"                                                                                  . . . . . . . . . .                                                                                                                                                                                                                           ",
"                                                                                  . . . . . . . . . .                                                                                                                                                                                                                           ",
"                                                                                  . . . . . . . . . .                                                                                                                                                                                                                           ",
"                                                                                  . . . . . . . . . .                                                                                                                                                                                                                           ",
"                                                                                  . . . . . . . . . .                                                                                                                                                                                                                           ",
"                                                                                  . . . . . . . . . .                                                                                                                                                                                                                           ",
"                                                                                  . . . . . . . . . .                                                                                                                                                                                                                           ",
"                                                                                  . . . . . . . . . .                                                                                                                                                                                                                           ",
"                                                                                  . . . . . . . . . .                                                                                                                                                                                                                           ",
"                                                                                  . . . . . . . . . .                                                                                                                                                                                                                           ",
"                                                                                  . . . . . . . . . .                                                                                                                                                                                                                           ",
"                                                                                  . . . . . . . . . .                                                                                                                                                                                                                           ",
"                                                                                  . . . . . . . . . .                                                                                                                                                                                                                           ",
"                                                                                  . . . . . . . . . .                                                                                                                                                                                                                           ",
"                                                                                  . . . . . . . . . .                                                                                                                                                                                                                           ",
"                                                                                  . . . . . . . . . .                                                                                                                                                                                                                           ",
"                                                                                  . . . . . . . . . .                                                                                                                                                                                                                           ",
"                                                                                  . . . . . . . . . .                                                                                                                                                                                                                           ",
"                                                                                  . . . . . . . . . .                                                                                                                                                                                                                           ",
"                                                                                  . . . . . . . . . .                                                                                                                                                                                                                           ",
"                                                                                  . . . . . . . . . .                                                                                                                                                                                                                           ",
"                                                                                  . . . . . . . . . .                                                                                                                                                                                                                           ",
"                                                                                  . . . . . . . . . .                                                                                                                                                                                                                           ",
"                                                                                  . . . . . . . . . .                                                                                                                                                                                                                           ",
"                                                                                  . . . . . . . . . .                                                                                                                                                                                                                           ",
"                                                                                  . . . . . . . . . .                                                                                                                                                                                                                           ",
"                                                                                  . . . . . . . . . .                                                                                                                                                                                                                           ",
"                                                                                  . . . . . . . . . .                                                                                                                                                                                                                           ",
"                                                                                  . . . . . . . . . .                                                                                                                                                                                                                           ",
"                                                                                  . . . . . . . . . .                                                                                                                                                                                                                           ",
"                                                                                  . . . . . . . . . .                                                                                                                                                                                                                           ",
"                                                                                  . . . . . . . . . .                                                                                                                                                                                                                           ",
"                                                                                  . . . . . . . . . .                                                                                                                                                                                                                           ",
"                                                                                  . . . . . . . . . .                                                                                                                                                                                                                           ",
"                                                                                  . . . . . . . . . .                                                                                                                                                                                                                           ",
"                                                                                  . . . . . . . . . .                                                                                                                                                                                                                           ",
"                                                                                  . . . . . . . . . .                                                                                                                                                                                                                           ",
"                                                                                  . . . . . . . . . .                                                                                                                                                                                                                           ",
"                                                                                  . . . . . . . . . .                                                                                                                                                                                                                           ",
"                                                                                  . . . . . . . . . .                                                                                                                                                                                                                           ",
"                                                                                  . . . . . . . . . .                                                                                                                                                                                                                           ",
"                                                                                  . . . . . . . . . .                                                                                                                                                                                                                           ",
"                                                                                  . . . . . . . . . .                                                                                                                                                                                                                           ",
"                                                                              . . . . . . . . . . . . . .                                                                                                                                                                                                                       ",
"                                                                      . . . . . . . . . . . . . . . . . . . . . .                                                                                                                                                                                                               ",
"                                                              . . . . . . . . . . . . . . . . . . . . . . . . . . . . . .                                                                                                                                                                                                       ",
"                                                          . . . . . . . . . . . . . . + @ # $ + . . . . . . . . . . . . . . .                                                                                                                                                                                                   ",
"                                                      . . . . . . . . . . . % & * = - ; > > > > - , ' ) ! . . . . . . . . . . . . .                                                                                                                                                                                             ",
"                                                  . . . . . . . . ~ { ] ^ / ( ( ( ( ( ( ( ( ( ( _ ( : < [ } | 1 2 3 . . . . . . . . .                                                                                                                                                                                           ",
"                                              . . . . . . . . 4 5 6 _ ( ( ( _ ( ~.c q<r<s<0 t<a u<-.v<w<e f g h i j k l . . . . . . . . .                                                                                                                                                                                       ",
"                                            . . . . . . m n o : ( p ( ( x<y<z<A<P O N N N N N N N O O O @=B<C<}+D E F G H I J . . . . . . . .                                                                                                                                                                                   ",
"                                        . . . . . . . K ( ( p ( ( ;$8@,.w w w A<D<z<E<{@7@F<7@U G<H<I<<.w w w w J<K<L<+.@.#.$.%.&.. . . . . . .                                                                                                                                                                                 ",
"                                      . . . . . . *.=.( _ ( /#M<N<w O O<P<Q<R<( ( ( ( ( : ( {.d ].} ^.g h S<T<U<L@w w V<W<X<1.2.3.4.&.. . . . . .                                                                                                                                                                               ",
"                                    . . . . . 5.6.( _ ( R<Y<U<w P S b Z<( ( ( ( ( ( ( 0.( {.d a.} b.c.d.e.D E f.`< [.[w w +[@[#[m.n.o.p.. . . . . . .                                                                                                                                                                           ",
"                                . . . . . . q.r.( _ q $[w w %+%[( ( ( ( ( ( ( ( ( ( : w.x.y.a.} b.c.d.e.z.E f.G A.B.#.&[*[9=w L@=[-[I.J.K.. . . . . . .                                                                                                                                                                         ",
"                              . . . . . L.M.( _ ( ;[>[w ,['[/#( ( ( ( ( ( ( ( ( ( ( : x.y.a.} P.c.d.Q.z.E f.R.A.S.#.T.U.V.)[![w w ~[{[`. +.+++. . . . . .                                                                                                                                                                       ",
"                            . . . . . @+#+( _ ~.W$w ][^[( ( ( ( ( ( ( ( ( ( ( ( : : x.y.*+=+P.c.d.Q.z.E -+R.A.;+>+T.U.V.,+'+/[([_[w w :[<[^+/+(+. . . . . .                                                                                                                                                                     ",
"                          . . . . . { : ( ( 7 A@w [[q ( ( ( ( ( ( ( ( ( ( ( ( ( : x.y.*+=+<+[+}+Q.z.E -+R.A.S.>+T.U.V.,+'+n.|+1+j*}[w w |[1[6+7+8+. . . . . .                                                                                                                                                                   ",
"                          . . . . 9+: ( _ t<N N %#( ( ( ( ( ( ( ( ( ( ( ( ( : : b+[ *+=+<+[+}+c+d+e+-+R.f+g+>+T.h+i+,+'+j+|+1+k+`.l+2[3[w #&4[p+q+r+. . . . . .                                                                                                                                                                 ",
"                        . . . . s+: p _ y<w a+5[( ( ( ( ( ( ( ( ( ( ( ( ( ( : b+[ *+=+v+[+}+c+d+e+-+w+f+x+y+T.h+i+,+'+z+|+1+A+B+l+C+D+O+6[w L@_-I+J+K+. . . . .                                                                                                                                                                 ",
"                      . . . . L+( ( ( Z+w 8.7[( ( ( ( ( ( ( ( ( ( ( ( ( ( : b+[ M+f v+[+}+c+d+e+-+w+f+g+y+1.h+i+,+N+j+|+1+A+B+l+C+D+O+P+7+8[w w 9[U+V+W+. . . . .                                                                                                                                                               ",
"                    . . . . L.X+( p 0[w ,.C%( ( ( ( ( ( ( ( ( ( ( ( ( : : b+[ M+f <+`+}+c+d+ @G w+f+g+.@1.h+i++@N+j+@@1+A+B+#@$@D+O+%@&@*@<@a[N w b[,@'@)@. . . . .                                                                                                                                                             ",
"                    . . . . !@( ( c[w d[C%( ( ( ( ( ( ( ( ( ( ( ( w.( : b+a.M+f ]@`+e.c+d+ @G w+^@#..@1./@(@+@N+_@@@J.A+B+#@$@D+O+:@&@*@<@[@}@e[w v%f[3@4@5@. . . . .                                                                                                                                                           ",
"                  . . . . 6@( _ g[w $+3%( ( ( ( ( ( ( ( ( ( ( ( w.0.{.< a.M+f ]@`+e.9@E  @G 0@^@#..@1./@(@+@N+_@@@J.a@B+#@$@D+b@:@&@*@c@[@}@d@G@h[w v@i[i@j@. . . . .                                                                                                                                                           ",
"                . . . . k@: p 7[U<A@q ( ( ( ( ( ( ( ( ( ( ( ( : : {.< a.M+b.c.`+e.9@E  @G 0@^@m@.@U./@(@n@N+o@@@J.a@B+#@$@p@b@q@&@*@c@[@r@U+s@t@^%j[w k[l[y@z@. . . . .                                                                                                                                                         ",
"                . . . ~ _ ( ( t.w r ( ( ( ( ( ( ( ( ( ( ( ( : ( x.< a.e b.]@`+Q.9@E  @R.0@^@>+B@U./@(@+@C@o@@@J.a@B+#@^+p@b@D@E@q+c@[@F@U+G@H@I@J@Y@m[w n[N@O@P@. . . .                                                                                                                                                         ",
"              . . . . Q@( ( o[w %[( ( ( ( ( ( ( ( ( ( ( ( : ( x.d a.e b.g h Q.9@E T@G 0@^@U@B@U./@(@n@C@V@W@k+a@B+X@^+p@b@7+E@q+c@[@F@U+V+H@I@J@Y@Z@O*w w p[+#@#. . . . .                                                                                                                                                       ",
"              . . . ##: ( q[r[D<( ( ( ( ( ( ( ( ( ( ( ( ( ( x.d *+e b.&#h Q.9@e+T@R.0@^@>+B@U.2.,+n@C@V@W@k+a@ +X@^+p@b@7+E@q+*#J+F@U+=#H@I@-#;#Z@>#,#s[w t[u[~#{#. . . . .                                                                                                                                                     ",
"            . . . . ]#( ( E<w >$( ( ( ( ( ( ( ( ( ( ( : ( x.d *+e (#&#h Q.D e+ @L<v[w[x[y[z[A[B[C[n.V@W@k+_#l+X@^+:#<#7+E@q+*#J+F@[#=#H@I@}#;#Z@>#y@|#D[E[w F[3#4#5#. . . .                                                                                                                                                     ",
"            . . . k@6#p S@w :+( ( ( ( ( ( ( ( ( ( ( : ( b+d *+} (#7#h G[H[I[J[w w N w N w w w w w E.K[L[_#l+X@^+g#<#7+h#<@*#J+i#[#j#H@I@}#;#Z@>#k#l#m#n#M[w N N[r#s#. . . .                                                                                                                                                     ",
"          . . . . t#( ( d[U<9.( ( ( ( ( ( ( ( ( ( : ( b+d *+} (#g h c+O[w N w w w w w w w w w w N w N ;@P[B#D+:#<#7+h#<@*#J+i#[#j#C#I@}#;#D#E#y@|#m#n#F#S#Q[w R[J#K#L#. . . .                                                                                                                                                   ",
"          . . . @+: p q[w S[( ( ( ( ( ( ( ( ( w.0.: b+d M+} (#c.h c+z.T[w w w w w N w w w w N w N w w w w U[:#Q+O#h#<@P#}@i#[#j#C#Q#}#i@D#E#R#|#m#n#F#S#T#V[W[X[Y[W#X#. . . .                                                                                                                                                   ",
"          . . . Y#( _ Z[w ( ( ( ( ( ( ( ( ( ( ( w.b+y.M+} (# $d.c+D  @`[w w w  }.}+}k.)[@}#}$}%}w N N N o&N &}&@h#<@P#}@i#[#j#C#Q#}#i@D#E#+$@$#$n#~#S#T#q#1$*}w =}&$*$=$. . . .                                                                                                                                                 ",
"        . . . -$#+_ q[w '.( ( ( ( ( ( ( ( : ( : < y.M+=+]@,$d.c+z. @f.-};}>}A*T.h+V.+@Z$|=,}I.A+'}n+w w w N )}p+c@P#}@/$G@($C#Q#_$i@:$,#<$@$[$}$~#S#T#|$1$2$!}w ~}5$6$7$. . . .                                                                                                                                                 ",
"        . . . 8$: ( {}N ]}( ( ( ( ( ( ( ( ( : < y.M+=+]@[+}+9@z. @-+0@^}S.G$T./@V.+@'+_@/}1+a@_##@(}_}N w N N :}P#}@/$G@j#'@J@_$i@:$,#+$h$#$}$~#S#T#|$1$2$i$w$<}w [}n$o$. . . .                                                                                                                                                 ",
"        . . . p$( ( ~@}}( ( ( ( ( ( ( ( ( : < y.e =+]@[+}+9@z. @-+0@A.g+.@T./@V.+@'+_@|+1+a@B+#@C+p@|}N N w w 1}F@/$G@t$'@J@_$i@:$,#+$@$#$}$~#S#u$|$1$v$i$w$&$2}w s=A$B$. . . .                                                                                                                                                 ",
"      . . . . C$( ( N 3}( ( ( ( ( ( : ( : < [ e =+]@F$}+9@d+F -+0@A.g+G$T./@i+n@'+_@H$1+a@B+X@C+p@5+P+w w w N 4}/$G@H@'@J@L$Z@:$,#+$h$+#}$~#M$u$|$1$N$i$w$O$P$5}v-6}S$T$U$. . . .                                                                                                                                               ",
"      . . . V$( _ b w 7[( ( ( ( ( ( ( {.< [ e f X$Y$}+9@d+F -+0@f+g+G$T./@i+n@Z$`$H$1+a@B+X@C+p@O+P++%7}w w N 8}G@@%'@J@4@Z@:$,##%h$+#$%%%M$u$$$&%*%i$w$O$P$=%n$#;w 9},%'%. . . .                                                                                                                                               ",
"      . . . )%( ( ;.>.( ( ( ( ( : ( {.d [ e f X$~%}+9@d+F -+0@{%g+B@1.2.i+n@N+`$@@1+_#B+X@C+:#O+P+E@*@w w w w 0}@%^%-#4@Z@:$y@/%h$+#$%%%M$u$$$&%J#(%_%O$P$:%<%[%a}w b}1%2%. . . .                                                                                                                                               ",
"      . . . t#( ( r[c}( ( ( ( ( ( {.d a.} f X$~%e.D d+F G +.f+g+B@1.2.i+n@N+`$@@J._#B+X@$@:#O+:@E@*@d}w N N N e}^%-#4@Z@7%y@/%8%+#$%%%9%q#$$&%N$0%_%O$P$:%<%[%a%f}w g}d%e%. . . .                                                 q%                                                                                            ",
"      . . + f%_ 7[O 7@( ( ( : ( {.d a.} ^.X$h%e.D d+T@G +.^@g+$.1.2.(@)+N+`$@@J._#B+B#$@:#b@:@E@*@h}1@w w N i}^%-#Y@Z@7%y@#%h$n#$%%%3#q#$$&%K#0%_%k%6$:%<%l%S$m%,%w j}p%p%. . . . .     q%q%            q%q%            q%q%      q%                                                                                            ",
"    . . . $ > ( ]}N ).( ( ( ( {.y.a.} f c.s%e.D d+f.G +.f+#.$.1.2.(@)+N+H.@@J._#B+B#$@:#O+D@h#*@k}l}w N N w m}}#4@D#7%y@N@8%n#$%%%3#q#$$2$K#0%&$k%6$:%<%l%a%m%,%1%n}v%o}y%z%. . . .     q%q%          q%q%q%            q%q%      q%                                                q%                                          ",
"    . . . A%B%( p}w -.( ( : x.y.a.} b.c.`+e.D E f.G +.;+#.D%1.V.(@)+n.H.@@k+_# +q}r}s}t}u}v}w}x}w w N N y}z}}#Y@D#7%+$N@8%n#!#S#3#q#H%2$N$0%&$k%6$:%<%I%a%m%J%K%d%A}v%B}O%P%. . . .     q%q%          q%q%q%q%          q%q%      q%                                                q%                                          ",
"    . . . -$_ ( 0[w C}( : x.y.a.} b.c.h Q.z.E f.G A.^@#.$.U.V.(@'+n.H.W@k+`. +B#3[v%L@L@L@L@w w w w N D}E}_$Y@D#7%+$N@8%}$!#S#3#|$H%2$K#S%&$k%=%:%T%l%a%U%J%K%V%;&F}o&G}`% &. . . .     q%q%          q%q%q%q%        q%q%        q%                                                q%                                          ",
"    . . . L.: ( N.w 0.: x.y.*+=+b.c.h Q.z.E f.R.A.^@#.@&U.V.(@'+n.H.W@k+_# +B#^+H}w w w w w w w w 7-I}I@_$Y@D#>#+$N@m#n#!#S#%&|$H%2$K#S%&$&&6$*&T%=&-&m%J%K%d%;&<&J}N K})&!&. . . .       q%q%        q%  q%q%        q%q%        q%    q%q%q%q%            q%q%q%q%q%q%        q%q%q%q%q%q%q%                                  ",
"    . . . ~&( ( :+w : x.y.*+=+b.c.]&Q.z.e+-+R.A.B.#.T.U.i+,+'+n.H.^&k+`. +C+^+5+L}w w w w w w w N N v% #M}:$>#+$N@m#}$!#M$%&|$H%2$K#S%&$&&=%*&T%(&-&U%_&:&V%;&<&Z%N}N O}2&3&. . . .       q%q%        q%    q%        q%q%        q%q%q%      q%q%          q%        q%q%          q%              q%q%                        ",
"    . . . 4&( ( S w x.[ *+=+(#[+}+Q.z.e+-+R.A.B.>+5&h+i+,+'+j+|+^&k+`.l+C+^+5+<#J$P}Q}R}S}T}U}Q%w w N w w V}/%|#m#}$F#S#%&|$r#J#i$S%&$&&=%8&T%9&-&U%J%:&V%;&0&Z%a&W}w X}d&e&. . . .       q%q%      q%q%    q%q%      q%q%        q%q%          q%q%                    q%q%        q%              q%q%                        ",
"    . . . f&( ( r%w [ *+=+i&[+d.Q.d+e+-+w+f+B.>+T.h+i+,+'+j+|+W@A+`.l+C+D+O+<#7+p+<@K$}@/$[#t$H@Y}v-w N w N Z}m#$%F#S#%&$$r#J#k&l&&$&&=%8&[%9&-&,%_&:&V%;&0&Z%m&`%`}w  |q&r&. . . .       q%q%      q%q%    q%q%    q%q%          q%q%          q%q%                    q%q%        q%                                          ",
"    . . . s&( : .|w *+=+(#[+d.c+d+e+-+w+f+B.y+t&h+i+,+N+j+|+I.A+B+l+C+D+O+<#&@p+<@K$}@d@[#t$+|Q#4@i[@|N N N w #|F#S#T#$$r#J#k&W#O$&&=%8&[%9&-&,%_&:&V%x%0&Z%m&w&L&W}N $|q&A&. . . .         q%q%    q%      q%q%    q%q%          q%            q%q%          q%q%q%q%q%q%q%        q%                                          ",
"    . . . @+: b+%|w f (#[+d.c+d+ @G w+f+S..@1.h+i++@N+_@|+D&A+B+l+$@D+O+s$7+*@<@K$}@d@[#t$&|Q#4@i@7%E#N N w N *|M$T#$$r#J#F&W#O$5$=%8&[%G&H&,%_&:&I&x%0&J&K&w&L&p&=|N -|q&P&. . . .         q%q%  q%q%        q%    q%q%          q%            q%q%        q%q%q%q%q%q%q%q%        q%                                          ",
"    . . . -$b+a.;|w >|`+d.c+d+ @G w+f+S..@1.h+(@+@N+j+@@D&A+B+#@$@D+O+Q+&@*@<@[@}@d@[#t@,|Q#4@i@7%E#/%'|w w w w T#$$1$N$F&W#O$5$:%8&T&G&H&,%_&d%I&x%U&J&V&w&W&p&^*)|o&!|q& *. . . .         q%q%  q%q%        q%    q%q%          q%            q%q%      q%q%          q%q%        q%                                          ",
"    . . . -$.*M+~|w {|}+c+d+ @G w+f+m@.@1./@(@+@N+_@@@I.a@B+#@$@p@O+q@&@*@c@[@}@U+G@t@C#.-Y@i@7%,#N@@$]|^|w w N /|$*N$k&w$O$5$:%n$T&%*H&,%&*d%I&<&U&J&m&**W&p&d&/*(|o&8-q&>*. . . .         q%q%  q%q%        q%q%q%q%            q%            q%q%      q%            q%q%        q%                                          ",
"    . . . ,*'*f _|w :|9@E  @G w+^@S..@U./@(@+@C@_@@@1+a@B+#@$@p@b@s$&@q+c@[@r@d@G@t@'@J@Y@i@7%,#N@@$#$<|j}w w N [|N$(%w$k%5$:%n$l%G&H&J%&*d%I&<&U&J&K&**W&p&^*/*d&;*v%}|q&<*. . . .           q%q%q%q%        q%q%q%q%            q%            q%q%      q%            q%q%        q%                                          ",
"      . . $ [*]@||O 1|E T@G 0@^@S.B@1*/@(@n@C@_@@@1+a@B+#@^+p@b@s$E@q+c@[@F@U+G@t@'@J@Y@i@7%,#N@@$+#!#2|_*w w w 3|(%w$k%5$*&n$l%S$T$J%4*d%5*<&U&a&6***W&p&d&/*d&d&y&9-`&`&. . . . .           q%q%q%            q%q%q%            q%            q%q%      q%q%        q%q%q%        q%q%            q%q%                        ",
"      . . . 9*`+Q.P 4|F R.0@^@g+G$U.2.(@n@C@_@@@k+a@B+X@^+p@b@P+E@q+c@[@F@U+G@t@b*J@Y@i@>#,#N@h$+#!#~#5|N w w N 6|w$k%P$*&n$l%S$T$J%&*V%5*<&U&a&K&**W&`&q&d&d&d&N=w );d&g*. . . .             q%q%q%            q%q%q%            q%            q%q%        q%q%q%q%q%  q%q%        q%q%q%q%q%      q%q%                        ",
"      . . . h*}+9@7|8|R.0@^@g+B@U.2.,+n@C@`$W@j*a@l+X@^+p@<#P+E@q+*#J+F@U+V+H@b*J@Y@Z@>#,#l#h$+#!#%%3#9|N w w w w$&&P$*&<%9&S$T$n*1%V%5*<&o*a&K&x&2&`&/*d&d&d&d&0|w a|d&r*. . . .                                                                             q%q%                                                              ",
"      . . . s*9@ @b|w +.B.g+G$U.2.,+n@n.`$W@J._#l+X@^+:#<#P+E@q+*#J+F@U+V+H@^%}#;#Z@>#y@N@c|+#!#%%3#d|N w w N e|&&P$*&<%9&S$T$J%1%V%5*0&o*a&x*x&2&`&q&d&d&d&d&d&Z;w O;q&y*. . . .                                                                                                                                               ",
"      . . . . e+T@G w f|g+$.h+2.,+n@j+`$W@J._#l+X@^+:#<#P+h#<@*#J+F@g|h|H@^%}#;#Z@>#y@l#h$n#F#%%3#i|j|N w N N k|P$*&<%9&S$m%_&1%V%p%0&o*a&x*x&2&C*/*q&d&d&d&d&l|y&m|d&q&F*. . . .                                                                                                                                               ",
"        . . . G*w++.n|o|B@h+2.,+)+j+`$W@J*_#l+B#D+:#<#D@h#<@*#J+i#[#p|N y}q|r|s|:$y@l#t|+#u|v|w|x|w o&w N w y|6$8&<%9&a%m%`*K%V%p%0&o*a&x*x&2&C*^*d&d&d&d&d&d&z|v%E*q&d&.=. . .                                                                                                                                                 ",
"        . . . +=+.B.A|O<B|2.+@)+j+`$W@J*_#l+B#D+:#<#D@h#<@*#}@i#[#j#C|w w N w v*D|E|F|G|H|I|H#w N N w N w J|K|8&<%9&a%m%_&*=I&p%0&o*O%==x&2&C*/*d&d&d&d&d&d&d&M;w L|q&'=. . . .                                                                                                                                                 ",
"        . . . )=!=~=M|w B[+@)+j+H.I.J*_##@B#D+5+<#^$h#<@P#}@i#[#j#C#C|N N w w w w w w w w w w w w o&w w e;N|8&A$G&a%m%/=*=I&p%0&y%O%(=)&p&C*^*d&d&d&d&d&d&d&d&w w O|d&<=. . . .                                                                                                                                                 ",
"          . . . [=$.h+P|Q|)+|=H.I.A+_##@B#D+5+Q+7+h#c@P#}@/$G@j#C#I@R|S|N w w o&w w w w w w w N w w T|U|V|8&A$G&a%m%&**=I&p%U&y%O%3=)&p&C*/*d&d&d&d&d&d&d&d&W|w L-d&6==$. . . .                                                                                                                                                 ",
"          . . . 7=U.l.X|w Y|H.1+A+_##@B#p@5+Q+7+p+c@P#a=/$G@j#'@I@_$i@:$Z|`| 1.1+1 #@1#1$1A-%1&1*1=15$6$n$A$G&-&U%&**=I&;&U&y%m&3=)&p&d&^*d&d&d&d&d&d&d&d&O|-1c&;1q&x=. . . .                                                                                                                                                   ",
"          . . . . y=+@>1,1'11+B=`.#@C+p@5+Q+7+p+c@P#F@/$G@t$C#C=_$i@:$,#+$@$m#u[)1!1~1!1{1]1^1/1&$5$=%n$A$G&>%U%&**=5*;&U&y%K&1&)&p&d&q&d&d&d&d&d&d&d&d&d&~;w (1_1d&G=. . . .                                                                                                                                                   ",
"            . . . H=I=_@:1w <1L=X@C+p@O+P+7+p+c@K$F@/$G@t$'@M=4@Z@:$,#+$@$m#}$~#S#u$|$1$J#i$S%O$P$=%n$A$S$-&U%&*:&5*;&o*Z%K&`%)&p&d&q&d&d&d&d&d&d&d&d&d&d&}&w q*q&Q=. . . .                                                                                                                                                     ",
"            . . . R=S=|+1+[1}1X@C+p@O+P+7+p+c@K$F@d@V+t$'@Q#4@Z@:$,#/%h$m#}$~#M$u$$$&%J#i$W#O$P$=%n$[%S$-&U%&*:&5*x%o*Z%K&w&L&`&d&q&d&d&d&d&d&d&d&d&d&d&|1w 11d&X=Y=. . . .                                                                                                                                                     ",
"              . . . Z=1+A+21w 31:#O+P+7+*@*#K$F@d@V+t$'@.-4@Z@:$,#/%h$#$}$%%S#u$|$&%J#i$W#O$P$:%n$[%S$-&,%1%:&5*x%o*Z%K&w&L&`&d&q&d&d&d&d&d&d&d&d&d&d&,=41!;51q&#-. . . . .                                                                                                                                                     ",
"              . . . . $-%-6171j}81P+&@*@*#K$F@d@V+t$^%J@4@Z@7%y@/%h$#$}$=-3#u$$$&%J#i$--O$P$:%<%[%S$H&,%1%:&p%x%o*J&K&;-L&`&d&q&d&d&d&d&d&d&d&d&d&d&d&91w +>q&)-5#. . . .                                                                                                                                                       ",
"                . . . !-B#$@:#01n+&@*@*#[@6%d@V+t$^%J@4@D#7%y@/%h$#$$%%%3#q#$$&%J#0%W#k%6$:%<%[%a%H&,%1%d%p%x%o*J&x*;-L&`&^*d&d&d&d&d&d&d&d&d&d&d&d&a1w (1d&d&>*. . . .                                                                                                                                                         ",
"                . . . . /-:#b@t}Z b1*#[@6%d@j#t@^%J@Y@D#7%y@N@8%#$$%%%3#q#$$2$N$0%w$k%P$:%<%l%a%H&,%1%d%p%x%y%J&x***W&C*^*/*d&d&d&d&d&d&d&d&d&d&d&c1w d1e1q&[-=$. . . .                                                                                                                                                         ",
"                  . . . . }-:@|-f1w t%6%d@j#t@^%J@Y@D#7%y@N@8%+#$%S#3#q#$$2$N$0%w$O$6$:%T%l%a%T$,%K%d%p%x%y%J&x***W&C*^*d&d&d&d&d&d&d&d&d&d&d&d&g1,-w h1q&4-.=. . . .                                                                                                                                                           ",
"                    . . . 5-h#q+P#i1w j1j#t@^%J@Y@D#7%+$N@8%#$!#S#3#q#H%2$N$0%w$k%6$:%T%l%a%T$J%K%d%p%<&y%J&x***W&C*^*/*d&d&d&d&d&d&d&d&d&d&d&k1l1w e*d&q&b-. . . . .                                                                                                                                                           ",
"                    . . . . c-d-e-/$m1w n1I@_$Y@D#>#+$N@8%j-!#S#%&|$H%2$K#d*k-k%6$*&T%l%a%T$J%K%V%;&<&y%a&`%l-W&C*q&/*d&d&d&d&d&d&d&d&d&d&d&k1o1w p1d&d&o-. . . . .                                                                                                                                                             ",
"                      . . . . p-/$q-j#q1w r1Y@:$>#+$N@m#+#!#S#%&|$H%J#K#d*t-k%=%*&A$9&-&T$J%*=V%;&<&y%a&`%**W&d&q&d&d&d&d&d&d&d&d&d&d&d&d&#>s1w t1d&q&x-. . . . .                                                                                                                                                               ",
"                        . . . . y-j#C#I@u1w v1E#+$|#m#+#!#%%%&|$r#J#K#d*C-&&=%*&T%9&-&m%J%K%V%;&<&Z%a&`%x&2&d&q&d&d&d&d&d&d&d&d&d&d&d&d&w1N&w x1d&q&F-. . . . .                                                                                                                                                                 ",
"                          . . . . G-I@L$;#y1w z1|#m#n#F#M$%&$$r#J#K#d*&$&&=%*&[%9&-&T$_&:&V%;&0&Z%a&`%K-2&d&q&d&d&d&d&d&d&d&d&d&d&d&d&3-y&w A1q&q&O-P-. . . . .                                                                                                                                                                 ",
"                          . . . . . Q-;#R-E#B1C1D1E1F#%%T#$$r#J#k&W#W-&&=%8&[%9&-&m%_&X-V%;&0&Z%a&w&L&2&d&q&d&d&d&d&d&d&d&d&d&d&d&d&F1w y&F=d&`- ;P-. . . . .                                                                                                                                                                   ",
"                            . . . . . .;+;/%|#G1{*7}H1T#$$r#J#k&W#_%5$:%8&[%G&H&U%_&:&I&x%0&Z%m&w&)&2&^*q&d&d&d&d&d&d&d&d&d&d&d&';I1w J1'-q&d&&;. . . . . .                                                                                                                                                                     ",
"                              . . . . . *;=;#$n#K1L1w v*M1&%k&W#&$5$:%8&[%G&H&m%&*:&I&x%0&Z%m&w&x&p&d&q&d&d&d&d&d&d&d&d&d&d&N1l;w _*O1d&q&q&{;. . . . . .                                                                                                                                                                       ",
"                                . . . . . . ];F#3#T#P1Q1w <}R1&$5$:%8&[%G&H&U%&*(;I&x%U&J&m&**)&p&^*/*d&d&d&d&d&d&d&d&d&w1S1!;w _;T1q&q&<;[;. . . . . .                                                                                                                                                                         ",
"                                    . . . . };|;T#$$1$N$U1V1w W1X1Y1l%G&H&U%&*5;5*<&U&J&m&w&W&p&^*q&d&d&d&d&d&d&d&-=w-Z1w w ;*`1d&d&d&0;.=. . . . . .                                                                                                                                                                           ",
"                                      . . . . . a;b;J#(%w$ 2.2e;w j}+2@2n*&*(;5*<&U&J&K&**W&p&d&/*d&d&d&d&d&d&8-#2d1o&w $2%2&2q&d&n;o;. . . . . .                                                                                                                                                                               ",
"                                        . . . . . . p;q;k%P$*&n$*2=2-2w w ;2>2,2'2)2!2~2**p&_1{2]2%25= |^2:=M-w w 91/2%2d&d&q&B;C;. . . . . . .                                                                                                                                                                                 ",
"                                            . . . . . . D;E;8&9&S$T$U%(2_2:2v%o&w w w w w w w w w w w N v%o&Z-<2P=d&d&q&q&P;Q;. . . . . . . .                                                                                                                                                                                   ",
"                                              . . . . . . . + R;S;T;1%V%5*0&[2}2|21222F132:;.>42^2^-52627282q&q&q&$>%>&>*>. . . . . . . .                                                                                                                                                                                       ",
"                                                  . . . . . . . R==>->;>;&>>a&`%x&,>`&d&d&d&d&d&d&d&d&q&q&q&d&'>)>!>~>. . . . . . . .                                                                                                                                                                                           ",
"                                                      . . . . . . . . . . {>]>^>/>(>_>:>:>:>:><>[>}>|>1>2>3>. . . . . . . . . . . .                                                                                                                                                                                             ",
"                                                          . . . . . . . . . . . . 4>~>5>5>5>5>5>6>7>=$. . . . . . . . . . . .                                                                                                                                                                                                   ",
"                                                              . . . . . . . . . . . . . . . . . . . . . . . . . . . . . .                                                                                                                                                                                                       ",
"                                                                      . . . . . . . . . . . . . . . . . . . . . .                                                                                                                                                                                                               ",
"                                                                              . . . . . . . . . . . . . .                                                                                                                                                                                                                       ",
"                                                                                                                                                                                                                                                                                                                                ",
"                                                                                                                                                                                                                                                                                                                                ",
"                                                                                                                                                                                                                                                                                                                                ",
"                                                                                                                                                                                                                                                                                                                                ",
"                                                                                                                                                                                                                                                                                                                                ",
"                                                                                                                                                                                                                                                                                                                                ",
"                                                                                                                                                                                                                                                                                                                                ",
"                                                                                                                                                                                                                                                                                                                                ",
"                                                                                                                                                                                                                                                                                                                                ",
"                                                                                                                                                                                                                                                                                                                                ",
"                                                                                                                                                                                                                                                                                                                                ",
"                                                                                                                                                                                                                                                                                                                                ",
"                                                                                                                                                                                                                                                                                                                                ",
"                                                                                                                                                                                                                                                                                                                                ",
"                                                                                                                                                                                                                                                                                                                                ",
"                                                                                                                                                                                                                                                                                                                                ",
"                                                                                                                                                                                                                                                                                                                                ",
"                                                                                                                                                                                                                                                                                                                                ",
"                                                                                                                                                                                                                                                                                                                                ",
"                                                                                                                                                                                                                                                                                                                                "};
